proprietary/odm/etc/Custom_LUT_hlg.cube
LUT_3D_SIZE 5
0 0 0
0.136852 0 0.00782014
0.282502 0 0.0166178
0.519062 0 0.0312805
1 0 0.0625611
0 0.131965 0
0.13392 0.130987 0
0.285435 0.124145 0
0.521994 0.0762463 0.0215054
1 0 0.058651
0 0.272727 0
0.0703812 0.272727 0
0.277615 0.27175 0
0.524927 0.261975 0
1 0.170088 0.0430108
0 0.501466 0
0 0.501466 0
0.199413 0.500489 0
0.510264 0.498534 0
1 0.474096 0
0 1 0
0 1 0
0 1 0
0.300098 1 0
1 1 0
0 0 0.108504
0.135875 0 0.12219
0.282502 0 0.13392
0.519062 0 0.14565
1 0 0.167155
0 0.131965 0.128055
0.130987 0.130987 0.130987
0.284457 0.123167 0.136852
0.521994 0.0742913 0.146628
1 0 0.166178
0 0.273705 0.136852
0.0596285 0.272727 0.13783
0.276637 0.27175 0.140762
0.523949 0.261975 0.146628
1 0.170088 0.164223
0 0.501466 0.134897
0 0.501466 0.135875
0.196481 0.501466 0.136852
0.509286 0.498534 0.140762
1 0.474096 0.154448
0 1 0.0518084
0 1 0.0527859
0 1 0.054741
0.297165 1 0.0615836
1 1 0.0840665
0 0 0.224829
0.13001 0 0.236559
0.280547 0 0.253177
0.518084 0 0.272727
1 0 0.301075
0 0.131965 0.246334
0.121212 0.130987 0.250244
0.281525 0.12219 0.26002
0.521017 0.0703812 0.27566
1 0 0.302053
0 0.273705 0.265885
0 0.273705 0.266862
0.27175 0.27175 0.27175
0.521994 0.260997 0.280547
1 0.168133 0.30303
0 0.501466 0.280547
0 0.501466 0.281525
0.186706 0.501466 0.28348
0.506354 0.498534 0.288368
1 0.474096 0.304008
0 1 0.280547
0 1 0.281525
0 1 0.282502
0.290323 1 0.284457
1 1 0.293255
0 0 0.412512
0.100684 0 0.42131
0.273705 0 0.437928
0.515152 0 0.464321
1 0 0.506354
0 0.130987 0.431085
0.0762463 0.128055 0.435973
0.27175 0.117302 0.447703
0.517107 0.0537634 0.469208
1 0 0.507331
0 0.273705 0.457478
0 0.273705 0.459433
0.256109 0.270772 0.466276
0.517107 0.259042 0.479961
1 0.16129 0.511241
0 0.502444 0.486804
0 0.501466 0.487781
0.154448 0.501466 0.490714
0.498534 0.498534 0.498534
1 0.473118 0.519062
0 1 0.519062
0 1 0.519062
0 1 0.520039
0.26784 1 0.522972
1 1 0.532747
0 0 0.826979
0 0 0.832845
0.216031 0 0.845552
0.497556 0 0.8739
1 0 0.931574
0 0.110459 0.839687
0 0.105572 0.843597
0.206256 0.085044 0.855327
0.496579 0 0.879765
1 0 0.934506
0 0.27175 0.86608
0 0.269795 0.869013
0.168133 0.265885 0.876833
0.490714 0.250244 0.895406
1 0.132942 0.941349
0 0.502444 0.909091
0 0.502444 0.911046
0 0.501466 0.914956
0.462366 0.496579 0.925709
1 0.468231 0.958944
0 1 0.977517
0 1 0.977517
0 1 0.979472
0.134897 1 0.983382
1 0.999022 1
