proprietary/odm/etc/Custom_LUT_hlg.cube
LUT_3D_SIZE 9
0 0 0
0.0654936 0 0.00391007
0.136852 0 0.00782014
0.209189 0 0.0127077
0.282502 0 0.0166178
0.376344 0 0.0224829
0.519062 0 0.0312805
0.731183 0 0.0439883
1 0 0.0625611
0 0.0635386 0
0.0645161 0.0635386 0
0.13783 0.0596285 0
0.210166 0.0488759 0.0058651
0.284457 0.0136852 0.0127077
0.377322 0 0.0195503
0.520039 0 0.0293255
0.73216 0 0.0420332
1 0 0.0615836
0 0.131965 0
0.0332356 0.131965 0
0.13392 0.130987 0
0.211144 0.129032 0
0.285435 0.124145 0
0.379277 0.112414 0
0.521994 0.0762463 0.0215054
0.734115 0 0.0381232
1 0 0.058651
0 0.202346 0
0 0.202346 0
0.116325 0.201369 0
0.205279 0.200391 0
0.284457 0.198436 0
0.380254 0.194526 0
0.523949 0.180841 0
0.73607 0.138807 0.028348
1 0 0.0527859
0 0.272727 0
0 0.272727 0
0.0703812 0.272727 0
0.190616 0.272727 0
0.277615 0.27175 0
0.378299 0.268817 0
0.524927 0.261975 0
0.738025 0.240469 0
1 0.170088 0.0430108
0 0.363636 0
0 0.363636 0
0 0.363636 0
0.152493 0.363636 0
0.259042 0.362659 0
0.369501 0.361681 0
0.521994 0.357771 0
0.739003 0.346041 0
1 0.309873 0.00293255
0 0.501466 0
0 0.501466 0
0 0.501466 0
0 0.501466 0
0.199413 0.500489 0
0.340176 0.500489 0
0.510264 0.498534 0
0.73607 0.492669 0
1 0.474096 0
0 0.705767 0
0 0.705767 0
0 0.705767 0
0 0.705767 0
0 0.705767 0
0.237537 0.705767 0
0.464321 0.70479 0
0.718475 0.701857 0
1 0.69306 0
0 1 0
0 1 0
0 1 0
0 1 0
0 1 0
0 1 0
0.300098 1 0
0.651026 1 0
1 1 0
0 0 0.0518084
0.0654936 0 0.058651
0.135875 0 0.0645161
0.209189 0 0.0684262
0.282502 0 0.0713587
0.376344 0 0.0752688
0.519062 0 0.0811339
0.731183 0 0.0889541
1 0 0.101662
0 0.0635386 0.0615836
0.0635386 0.0635386 0.0635386
0.13783 0.0596285 0.0654936
0.210166 0.0488759 0.0694037
0.284457 0.0117302 0.0723363
0.377322 0 0.0752688
0.520039 0 0.0811339
0.73216 0 0.0889541
1 0 0.101662
0 0.131965 0.0654936
0.028348 0.131965 0.0664712
0.132942 0.130987 0.0674487
0.210166 0.129032 0.0694037
0.285435 0.124145 0.0713587
0.379277 0.112414 0.0742913
0.521994 0.0752688 0.0791789
0.733138 0 0.086999
1 0 0.0997067
0 0.202346 0.0664712
0 0.202346 0.0664712
0.115347 0.201369 0.0674487
0.205279 0.200391 0.0684262
0.284457 0.198436 0.0703812
0.380254 0.194526 0.0723363
0.523949 0.180841 0.0772239
0.73607 0.138807 0.085044
1 0 0.0967742
0 0.272727 0.0635386
0 0.272727 0.0635386
0.0674487 0.272727 0.0645161
0.189638 0.272727 0.0654936
0.277615 0.27175 0.0664712
0.378299 0.268817 0.0694037
0.524927 0.261975 0.0733138
0.738025 0.240469 0.0801564
1 0.170088 0.0928641
0 0.363636 0.054741
0 0.363636 0.0557185
0 0.363636 0.0557185
0.151515 0.363636 0.056696
0.259042 0.362659 0.058651
0.369501 0.361681 0.0606061
0.521994 0.357771 0.0645161
0.739003 0.346041 0.0723363
1 0.309873 0.0860215
0 0.501466 0.0127077
0 0.501466 0.0136852
0 0.501466 0.0166178
0 0.501466 0.0195503
0.199413 0.501466 0.0234604
0.340176 0.500489 0.028348
0.509286 0.498534 0.0361681
0.73607 0.492669 0.0478983
1 0.474096 0.0664712
0 0.705767 0
0 0.705767 0
0 0.705767 0
0 0.705767 0
0 0.705767 0
0.237537 0.705767 0
0.464321 0.70479 0
0.717498 0.701857 0
1 0.69306 0
0 1 0
0 1 0
0 1 0
0 1 0
0 1 0
0 1 0
0.29912 1 0
0.651026 1 0
1 1 0
0 0 0.108504
0.0625611 0 0.11437
0.135875 0 0.12219
0.208211 0 0.128055
0.282502 0 0.13392
0.376344 0 0.138807
0.519062 0 0.14565
0.731183 0 0.155425
1 0 0.167155
0 0.0635386 0.119257
0.0576735 0.0625611 0.121212
0.135875 0.058651 0.125122
0.209189 0.0469208 0.13001
0.28348 0 0.134897
0.377322 0 0.139785
0.520039 0 0.146628
0.73216 0 0.155425
1 0 0.167155
0 0.131965 0.128055
0 0.131965 0.129032
0.130987 0.130987 0.130987
0.209189 0.128055 0.13392
0.284457 0.123167 0.136852
0.379277 0.112414 0.140762
0.521994 0.0742913 0.146628
0.733138 0 0.154448
1 0 0.166178
0 0.202346 0.13392
0 0.202346 0.13392
0.112414 0.201369 0.134897
0.203324 0.200391 0.136852
0.28348 0.198436 0.138807
0.379277 0.193548 0.14174
0.523949 0.180841 0.146628
0.735093 0.13783 0.154448
1 0 0.1652
0 0.273705 0.136852
0 0.273705 0.136852
0.0596285 0.272727 0.13783
0.187683 0.272727 0.138807
0.276637 0.27175 0.140762
0.377322 0.268817 0.142717
0.523949 0.261975 0.146628
0.737048 0.240469 0.15347
1 0.170088 0.164223
0 0.363636 0.13783
0 0.363636 0.13783
0 0.363636 0.138807
0.148583 0.363636 0.139785
0.257087 0.362659 0.140762
0.368524 0.361681 0.142717
0.521994 0.357771 0.14565
0.739003 0.346041 0.151515
1 0.309873 0.16129
0 0.501466 0.134897
0 0.501466 0.134897
0 0.501466 0.135875
0 0.501466 0.135875
0.196481 0.501466 0.136852
0.339198 0.500489 0.138807
0.509286 0.498534 0.140762
0.73607 0.492669 0.14565
1 0.474096 0.154448
0 0.705767 0.120235
0 0.705767 0.120235
0 0.705767 0.120235
0 0.705767 0.121212
0 0.705767 0.12219
0.234604 0.705767 0.123167
0.463343 0.70479 0.125122
0.717498 0.701857 0.13001
1 0.69306 0.138807
0 1 0.0518084
0 1 0.0518084
0 1 0.0527859
0 1 0.0537634
0 1 0.054741
0 1 0.0576735
0.297165 1 0.0615836
0.650049 1 0.0703812
1 1 0.0840665
0 0 0.166178
0.0557185 0 0.171065
0.13392 0 0.178886
0.207234 0 0.186706
0.281525 0 0.193548
0.375367 0 0.201369
0.519062 0 0.210166
0.731183 0 0.220919
1 0 0.234604
0 0.0635386 0.175953
0.0478983 0.0625611 0.177908
0.132942 0.0576735 0.183773
0.208211 0.0449658 0.189638
0.282502 0 0.195503
0.376344 0 0.202346
0.519062 0 0.210166
0.731183 0 0.220919
1 0 0.234604
0 0.131965 0.187683
0 0.131965 0.188661
0.127077 0.130987 0.191593
0.207234 0.128055 0.195503
0.28348 0.123167 0.199413
0.378299 0.111437 0.204301
0.521017 0.0723363 0.212121
0.733138 0 0.221896
1 0 0.234604
0 0.202346 0.196481
0 0.202346 0.196481
0.106549 0.201369 0.198436
0.200391 0.200391 0.200391
0.281525 0.198436 0.203324
0.378299 0.193548 0.207234
0.522972 0.179863 0.213099
0.735093 0.136852 0.221896
1 0 0.233627
0 0.273705 0.202346
0 0.273705 0.202346
0.0439883 0.272727 0.203324
0.184751 0.272727 0.205279
0.274682 0.27175 0.207234
0.376344 0.268817 0.210166
0.522972 0.261975 0.215054
0.737048 0.239492 0.222874
1 0.16911 0.233627
0 0.363636 0.207234
0 0.363636 0.207234
0 0.363636 0.208211
0.143695 0.363636 0.209189
0.255132 0.362659 0.211144
0.366569 0.361681 0.213099
0.521017 0.357771 0.217009
0.738025 0.345064 0.222874
1 0.309873 0.233627
0 0.501466 0.211144
0 0.501466 0.211144
0 0.501466 0.211144
0 0.501466 0.212121
0.192571 0.501466 0.213099
0.337243 0.500489 0.215054
0.507331 0.498534 0.217009
0.735093 0.492669 0.222874
1 0.474096 0.230694
0 0.706745 0.209189
0 0.706745 0.209189
0 0.706745 0.209189
0 0.705767 0.210166
0 0.705767 0.210166
0.231672 0.705767 0.211144
0.462366 0.70479 0.213099
0.71652 0.701857 0.217009
1 0.69306 0.224829
0 1 0.191593
0 1 0.191593
0 1 0.191593
0 1 0.192571
0 1 0.192571
0 1 0.193548
0.294233 1 0.195503
0.649071 1 0.198436
1 1 0.204301
0 0 0.224829
0.0400782 0 0.228739
0.13001 0 0.236559
0.206256 0 0.245357
0.280547 0 0.253177
0.375367 0 0.261975
0.518084 0 0.272727
0.731183 0 0.285435
1 0 0.301075
0 0.0625611 0.232649
0.0205279 0.0606061 0.235582
0.129032 0.0557185 0.241447
0.206256 0.0410557 0.248289
0.281525 0 0.255132
0.376344 0 0.262952
0.519062 0 0.273705
0.731183 0 0.286413
1 0 0.301075
0 0.131965 0.246334
0 0.131965 0.247312
0.121212 0.130987 0.250244
0.204301 0.128055 0.255132
0.281525 0.12219 0.26002
0.377322 0.109482 0.265885
0.521017 0.0703812 0.27566
0.733138 0 0.28739
1 0 0.302053
0 0.202346 0.257087
0 0.202346 0.258065
0.0967742 0.201369 0.26002
0.196481 0.200391 0.262952
0.27957 0.198436 0.265885
0.377322 0.193548 0.270772
0.521994 0.178886 0.277615
0.735093 0.135875 0.288368
1 0 0.302053
0 0.273705 0.265885
0 0.273705 0.265885
0 0.273705 0.266862
0.179863 0.272727 0.268817
0.27175 0.27175 0.27175
0.374389 0.268817 0.274682
0.521994 0.260997 0.280547
0.73607 0.239492 0.290323
1 0.168133 0.30303
0 0.363636 0.273705
0 0.363636 0.273705
0 0.363636 0.274682
0.135875 0.363636 0.27566
0.251222 0.362659 0.277615
0.364614 0.361681 0.27957
0.519062 0.357771 0.284457
0.737048 0.345064 0.292278
1 0.308895 0.30303
0 0.501466 0.280547
0 0.501466 0.281525
0 0.501466 0.281525
0 0.501466 0.282502
0.186706 0.501466 0.28348
0.334311 0.500489 0.285435
0.506354 0.498534 0.288368
0.734115 0.492669 0.294233
1 0.474096 0.304008
0 0.706745 0.285435
0 0.706745 0.285435
0 0.706745 0.286413
0 0.706745 0.286413
0 0.705767 0.28739
0.226784 0.705767 0.288368
0.460411 0.70479 0.290323
0.715542 0.701857 0.294233
1 0.69306 0.302053
0 1 0.280547
0 1 0.281525
0 1 0.281525
0 1 0.281525
0 1 0.282502
0 1 0.282502
0.290323 1 0.284457
0.648094 1 0.28739
1 1 0.293255
0 0 0.29912
0 0 0.302053
0.12219 0 0.309873
0.202346 0 0.318671
0.278592 0 0.326491
0.373412 0 0.337243
0.517107 0 0.349951
0.730205 0 0.365591
1 0 0.384164
0 0.0596285 0.305963
0 0.0576735 0.308895
0.120235 0.0508309 0.314761
0.202346 0.0332356 0.321603
0.27957 0 0.329423
0.374389 0 0.338221
0.518084 0 0.350929
0.731183 0 0.365591
1 0 0.384164
0 0.131965 0.319648
0 0.131965 0.320626
0.108504 0.13001 0.324536
0.199413 0.1261 0.329423
0.278592 0.120235 0.335288
0.375367 0.107527 0.343109
0.519062 0.0654936 0.353861
0.73216 0 0.367546
1 0 0.385142
0 0.202346 0.332356
0 0.202346 0.333333
0.0782014 0.201369 0.335288
0.190616 0.200391 0.338221
0.27566 0.197458 0.343109
0.374389 0.192571 0.347996
0.521017 0.177908 0.356794
0.734115 0.132942 0.369501
1 0 0.386119
0 0.273705 0.343109
0 0.273705 0.343109
0 0.273705 0.345064
0.171065 0.272727 0.347019
0.266862 0.27175 0.349951
0.371457 0.268817 0.353861
0.521017 0.260997 0.361681
0.735093 0.238514 0.372434
1 0.166178 0.387097
0 0.363636 0.352884
0 0.363636 0.353861
0 0.363636 0.354839
0.12219 0.363636 0.355816
0.245357 0.362659 0.357771
0.361681 0.361681 0.361681
0.517107 0.356794 0.366569
0.73607 0.345064 0.375367
1 0.307918 0.389052
0 0.501466 0.364614
0 0.501466 0.365591
0 0.501466 0.365591
0 0.501466 0.366569
0.176931 0.501466 0.367546
0.329423 0.500489 0.370479
0.503421 0.498534 0.374389
0.733138 0.491691 0.380254
1 0.473118 0.391007
0 0.706745 0.375367
0 0.706745 0.375367
0 0.706745 0.375367
0 0.706745 0.376344
0 0.705767 0.377322
0.217986 0.705767 0.378299
0.456501 0.70479 0.381232
0.713587 0.701857 0.386119
1 0.69306 0.393939
0 1 0.380254
0 1 0.380254
0 1 0.380254
0 1 0.381232
0 1 0.381232
0 1 0.382209
0.28348 1 0.384164
0.645161 1 0.387097
1 1 0.392962
0 0 0.412512
0 0 0.414467
0.100684 0 0.42131
0.193548 0 0.42913
0.273705 0 0.437928
0.370479 0 0.449658
0.515152 0 0.464321
0.729228 0 0.483871
1 0 0.506354
0 0.0518084 0.418377
0 0.0498534 0.420332
0.0957967 0.0391007 0.42522
0.191593 0 0.43304
0.273705 0 0.44086
0.370479 0 0.451613
0.516129 0 0.465298
0.729228 0 0.483871
1 0 0.506354
0 0.130987 0.431085
0 0.13001 0.432063
0.0762463 0.128055 0.435973
0.186706 0.124145 0.441838
0.27175 0.117302 0.447703
0.371457 0.102639 0.456501
0.517107 0.0537634 0.469208
0.731183 0 0.485826
1 0 0.507331
0 0.202346 0.44477
0 0.202346 0.445748
0 0.201369 0.447703
0.174976 0.199413 0.451613
0.266862 0.196481 0.456501
0.369501 0.190616 0.463343
0.518084 0.174976 0.474096
0.73216 0.129032 0.489736
1 0 0.509286
0 0.273705 0.457478
0 0.273705 0.457478
0 0.273705 0.459433
0.151515 0.272727 0.462366
0.256109 0.270772 0.466276
0.365591 0.26784 0.471163
0.517107 0.259042 0.479961
0.733138 0.236559 0.492669
1 0.16129 0.511241
0 0.364614 0.471163
0 0.364614 0.471163
0 0.363636 0.472141
0.085044 0.363636 0.474096
0.232649 0.362659 0.477028
0.353861 0.360704 0.480938
0.513196 0.356794 0.487781
0.734115 0.344086 0.498534
1 0.30694 0.514174
0 0.502444 0.486804
0 0.502444 0.487781
0 0.501466 0.487781
0 0.501466 0.489736
0.154448 0.501466 0.490714
0.319648 0.500489 0.493646
0.498534 0.498534 0.498534
0.730205 0.491691 0.506354
1 0.473118 0.519062
0 0.706745 0.504399
0 0.706745 0.504399
0 0.706745 0.504399
0 0.706745 0.505376
0 0.706745 0.506354
0.198436 0.705767 0.508309
0.449658 0.70479 0.511241
0.709677 0.701857 0.517107
1 0.69306 0.525904
0 1 0.519062
0 1 0.519062
0 1 0.519062
0 1 0.519062
0 1 0.520039
0 1 0.521017
0.26784 1 0.522972
0.640274 1 0.526882
1 1 0.532747
0 0 0.580645
0 0 0.5826
0 0 0.587488
0.167155 0 0.595308
0.259042 0 0.603128
0.361681 0 0.614858
0.510264 0 0.631476
0.726295 0 0.653959
1 0 0.682307
0 0.0175953 0.585533
0 0 0.58651
0 0 0.591398
0.164223 0 0.59824
0.258065 0 0.606061
0.361681 0 0.616813
0.511241 0 0.633431
0.726295 0 0.654936
1 0 0.682307
0 0.1261 0.596285
0 0.125122 0.597263
0 0.12219 0.601173
0.155425 0.117302 0.607038
0.254154 0.108504 0.613881
0.360704 0.0918866 0.622678
0.511241 0 0.637341
0.727273 0 0.657869
1 0 0.684262
0 0.201369 0.609971
0 0.200391 0.610948
0 0.199413 0.613881
0.135875 0.197458 0.617791
0.246334 0.193548 0.623656
0.357771 0.186706 0.631476
0.511241 0.170088 0.643206
0.72825 0.11828 0.661779
1 0 0.686217
0 0.273705 0.624633
0 0.273705 0.624633
0 0.272727 0.626588
0.0957967 0.27175 0.630499
0.232649 0.269795 0.634409
0.351906 0.265885 0.640274
0.509286 0.257087 0.651026
0.729228 0.232649 0.666667
1 0.15347 0.68915
0 0.364614 0.640274
0 0.364614 0.641251
0 0.363636 0.642229
0 0.363636 0.645161
0.202346 0.362659 0.648094
0.337243 0.360704 0.652981
0.504399 0.354839 0.660802
0.72825 0.342131 0.674487
1 0.30303 0.694037
0 0.502444 0.661779
0 0.502444 0.661779
0 0.502444 0.662757
0 0.501466 0.664712
0.086999 0.501466 0.666667
0.298143 0.500489 0.669599
0.486804 0.497556 0.675464
0.723363 0.490714 0.686217
1 0.471163 0.701857
0 0.706745 0.686217
0 0.706745 0.686217
0 0.706745 0.687195
0 0.706745 0.688172
0 0.706745 0.68915
0.151515 0.706745 0.691105
0.434018 0.70479 0.695015
0.701857 0.701857 0.701857
1 0.692082 0.713587
0 1 0.710655
0 1 0.710655
0 1 0.711632
0 1 0.711632
0 1 0.71261
0 1 0.713587
0.234604 1 0.71652
0.629521 1 0.72043
1 1 0.72825
0 0 0.826979
0 0 0.828934
0 0 0.832845
0.0439883 0 0.83871
0.216031 0 0.845552
0.338221 0 0.856305
0.497556 0 0.8739
0.718475 0 0.898338
1 0 0.931574
0 0 0.83089
0 0 0.831867
0 0 0.835777
0.0146628 0 0.840665
0.214076 0 0.848485
0.337243 0 0.85826
0.497556 0 0.874878
0.719453 0 0.900293
1 0 0.932551
0 0.110459 0.839687
0 0.109482 0.840665
0 0.105572 0.843597
0 0.0977517 0.848485
0.206256 0.085044 0.855327
0.334311 0.056696 0.864125
0.496579 0 0.879765
0.719453 0 0.903226
1 0 0.934506
0 0.195503 0.852395
0 0.194526 0.853372
0 0.193548 0.855327
0 0.189638 0.859238
0.192571 0.185728 0.865103
0.328446 0.176931 0.872923
0.494624 0.15738 0.886608
0.719453 0.0918866 0.908113
1 0 0.937439
0 0.27175 0.86608
0 0.270772 0.867058
0 0.269795 0.869013
0 0.268817 0.871945
0.168133 0.265885 0.876833
0.318671 0.260997 0.883675
0.490714 0.250244 0.895406
0.719453 0.222874 0.913979
1 0.132942 0.941349
0 0.363636 0.883675
0 0.363636 0.884653
0 0.363636 0.886608
0 0.362659 0.888563
0.109482 0.360704 0.892473
0.300098 0.358749 0.897361
0.483871 0.351906 0.907136
0.717498 0.337243 0.923754
1 0.296188 0.948192
0 0.502444 0.909091
0 0.502444 0.910068
0 0.502444 0.911046
0 0.501466 0.913001
0 0.501466 0.914956
0.248289 0.499511 0.918866
0.462366 0.496579 0.925709
0.709677 0.488759 0.938416
1 0.468231 0.958944
0 0.707722 0.941349
0 0.707722 0.941349
0 0.707722 0.942326
0 0.707722 0.943304
0 0.706745 0.945259
0 0.706745 0.947214
0.40176 0.70479 0.952102
0.685239 0.70088 0.960899
1 0.691105 0.975562
0 1 0.977517
0 1 0.977517
0 1 0.977517
0 1 0.978495
0 1 0.979472
0 1 0.98045
0.134897 1 0.983382
0.607038 1 0.989247
1 0.999022 1
