proprietary/odm/etc/Custom_LUT_hlg.cube
LUT_3D_SIZE 17
0 0 0
0.0312805 0 0.000977517
0.0654936 0 0.00391007
0.100684 0 0.0058651
0.136852 0 0.00782014
0.173021 0 0.00977517
0.209189 0 0.0127077
0.246334 0 0.0146628
0.282502 0 0.0166178
0.324536 0 0.0195503
0.376344 0 0.0224829
0.44086 0 0.026393
0.519062 0 0.0312805
0.614858 0 0.0371457
0.731183 0 0.0439883
0.871945 0 0.0527859
1 0 0.0625611
0 0.030303 0
0.0312805 0.030303 0
0.0664712 0.028348 0
0.101662 0.0234604 0.00293255
0.136852 0.00684262 0.0058651
0.173021 0 0.00879765
0.209189 0 0.0107527
0.246334 0 0.0136852
0.28348 0 0.0156403
0.324536 0 0.0185728
0.376344 0 0.0215054
0.44086 0 0.0254154
0.519062 0 0.030303
0.614858 0 0.0361681
0.731183 0 0.0439883
0.871945 0 0.0518084
1 0 0.0625611
0 0.0635386 0
0.0156403 0.0635386 0
0.0645161 0.0635386 0
0.101662 0.0615836 0
0.13783 0.0596285 0
0.173998 0.0557185 0
0.210166 0.0488759 0.0058651
0.247312 0.0381232 0.00977517
0.284457 0.0136852 0.0127077
0.325513 0 0.0156403
0.377322 0 0.0195503
0.441838 0 0.0244379
0.520039 0 0.0293255
0.615836 0 0.0351906
0.73216 0 0.0420332
0.872923 0 0.0508309
1 0 0.0615836
0 0.0977517 0
0 0.0977517 0
0.0557185 0.0967742 0
0.0987292 0.0967742 0
0.136852 0.0957967 0
0.173998 0.0938416 0
0.211144 0.0918866 0
0.248289 0.0879765 0
0.285435 0.0821114 0.00293255
0.326491 0.0742913 0.00977517
0.378299 0.058651 0.0156403
0.442815 0 0.0205279
0.521017 0 0.026393
0.616813 0 0.0332356
0.733138 0 0.0410557
0.872923 0 0.0498534
1 0 0.0606061
0 0.131965 0
0 0.131965 0
0.0332356 0.131965 0
0.0918866 0.131965 0
0.13392 0.130987 0
0.173021 0.13001 0
0.211144 0.129032 0
0.248289 0.127077 0
0.285435 0.124145 0
0.327468 0.120235 0
0.379277 0.112414 0
0.443793 0.100684 0.0136852
0.521994 0.0762463 0.0215054
0.617791 0 0.0293255
0.734115 0 0.0381232
0.8739 0 0.0478983
1 0 0.058651
0 0.167155 0
0 0.167155 0
0 0.166178 0
0.0782014 0.166178 0
0.127077 0.166178 0
0.16911 0.166178 0
0.209189 0.1652 0
0.247312 0.163245 0
0.285435 0.162268 0
0.328446 0.159335 0
0.380254 0.155425 0
0.44477 0.147605 0
0.522972 0.134897 0.0127077
0.618768 0.111437 0.0244379
0.735093 0.0488759 0.0342131
0.874878 0 0.0439883
1 0 0.0557185
0 0.202346 0
0 0.202346 0
0 0.202346 0
0.0518084 0.201369 0
0.116325 0.201369 0
0.163245 0.201369 0
0.205279 0.200391 0
0.245357 0.200391 0
0.284457 0.198436 0
0.327468 0.197458 0
0.380254 0.194526 0
0.44477 0.189638 0
0.523949 0.180841 0
0.619746 0.166178 0.0136852
0.73607 0.138807 0.028348
0.875855 0.0713587 0.0400782
1 0 0.0527859
0 0.237537 0
0 0.237537 0
0 0.237537 0
0 0.237537 0
0.0997067 0.237537 0
0.15347 0.236559 0
0.199413 0.236559 0
0.241447 0.235582 0
0.281525 0.235582 0
0.325513 0.233627 0
0.380254 0.231672 0
0.44477 0.228739 0
0.524927 0.221896 0
0.620723 0.212121 0
0.737048 0.193548 0.0175953
0.87781 0.159335 0.0342131
1 0.0684262 0.0488759
0 0.272727 0
0 0.272727 0
0 0.272727 0
0 0.272727 0
0.0703812 0.272727 0
0.139785 0.272727 0
0.190616 0.272727 0
0.235582 0.27175 0
0.277615 0.27175 0
0.323558 0.270772 0
0.378299 0.268817 0
0.44477 0.266862 0
0.524927 0.261975 0
0.620723 0.254154 0
0.738025 0.240469 0
0.878788 0.217009 0.0244379
1 0.170088 0.0430108
0 0.313783 0
0 0.313783 0
0 0.313783 0
0 0.313783 0
0 0.312805 0
0.117302 0.312805 0
0.176931 0.312805 0
0.225806 0.312805 0
0.270772 0.311828 0
0.318671 0.311828 0
0.375367 0.31085 0
0.442815 0.308895 0
0.523949 0.304985 0
0.621701 0.29912 0
0.739003 0.289345 0
0.879765 0.27175 0
1 0.239492 0.0332356
0 0.363636 0
0 0.363636 0
0 0.363636 0
0 0.363636 0
0 0.363636 0
0.0625611 0.363636 0
0.152493 0.363636 0
0.210166 0.362659 0
0.259042 0.362659 0
0.309873 0.362659 0
0.369501 0.361681 0
0.439883 0.359726 0
0.521994 0.357771 0
0.620723 0.352884 0
0.739003 0.346041 0
0.880743 0.332356 0
1 0.309873 0.00293255
0 0.42522 0
0 0.42522 0
0 0.42522 0
0 0.42522 0
0 0.42522 0
0 0.42522 0
0.0987292 0.42522 0
0.179863 0.42522 0
0.238514 0.42522 0
0.29521 0.424242 0
0.358749 0.424242 0
0.43304 0.423265 0
0.518084 0.42131 0
0.618768 0.418377 0
0.739003 0.412512 0
0.88172 0.403715 0
1 0.387097 0
0 0.501466 0
0 0.501466 0
0 0.501466 0
0 0.501466 0
0 0.501466 0
0 0.501466 0
0 0.501466 0
0.11437 0.501466 0
0.199413 0.500489 0
0.268817 0.500489 0
0.340176 0.500489 0
0.419355 0.499511 0
0.510264 0.498534 0
0.613881 0.496579 0
0.73607 0.492669 0
0.880743 0.485826 0
1 0.474096 0
0 0.59433 0
0 0.59433 0
0 0.59433 0
0 0.59433 0
0 0.593353 0
0 0.593353 0
0 0.593353 0
0 0.593353 0
0.104594 0.593353 0
0.216031 0.593353 0
0.305963 0.593353 0
0.395894 0.592375 0
0.493646 0.592375 0
0.604106 0.59042 0
0.730205 0.587488 0
0.87781 0.583578 0
1 0.57478 0
0 0.705767 0
0 0.705767 0
0 0.705767 0
0 0.705767 0
0 0.705767 0
0 0.705767 0
0 0.705767 0
0 0.705767 0
0 0.705767 0
0.0518084 0.705767 0
0.237537 0.705767 0
0.352884 0.705767 0
0.464321 0.70479 0
0.584555 0.703812 0
0.718475 0.701857 0
0.870968 0.698925 0
1 0.69306 0
0 0.84262 0
0 0.84262 0
0 0.84262 0
0 0.84262 0
0 0.84262 0
0 0.84262 0
0 0.841642 0
0 0.841642 0
0 0.841642 0
0 0.841642 0
0 0.841642 0
0.264907 0.841642 0
0.410557 0.841642 0
0.548387 0.840665 0
0.694037 0.839687 0
0.856305 0.837732 0
1 0.833822 0
0 1 0
0 1 0
0 1 0
0 1 0
0 1 0
0 1 0
0 1 0
0 1 0
0 1 0
0 1 0
0 1 0
0 1 0
0.300098 1 0
0.482893 1 0
0.651026 1 0
0.827957 1 0
1 1 0
0 0 0.0254154
0.0312805 0 0.028348
0.0654936 0 0.0312805
0.100684 0 0.0332356
0.136852 0 0.0342131
0.173021 0 0.0361681
0.209189 0 0.0371457
0.246334 0 0.0391007
0.282502 0 0.0400782
0.324536 0 0.0420332
0.376344 0 0.0439883
0.44086 0 0.0459433
0.519062 0 0.0498534
0.614858 0 0.0537634
0.731183 0 0.0596285
0.871945 0 0.0664712
1 0 0.0752688
0 0.030303 0.0293255
0.030303 0.030303 0.030303
0.0664712 0.028348 0.0312805
0.101662 0.0234604 0.0332356
0.136852 0.0058651 0.0342131
0.173021 0 0.0361681
0.209189 0 0.0371457
0.246334 0 0.0381232
0.28348 0 0.0400782
0.324536 0 0.0410557
0.376344 0 0.0439883
0.44086 0 0.0459433
0.519062 0 0.0498534
0.614858 0 0.0537634
0.731183 0 0.058651
0.871945 0 0.0654936
1 0 0.0742913
0 0.0635386 0.0312805
0.0136852 0.0635386 0.0322581
0.0645161 0.0635386 0.0322581
0.101662 0.0615836 0.0332356
0.13783 0.0596285 0.0342131
0.173998 0.0557185 0.0351906
0.210166 0.0488759 0.0371457
0.247312 0.0381232 0.0381232
0.284457 0.0136852 0.0391007
0.325513 0 0.0410557
0.377322 0 0.0430108
0.441838 0 0.0449658
0.520039 0 0.0488759
0.615836 0 0.0527859
0.73216 0 0.058651
0.872923 0 0.0654936
1 0 0.0742913
0 0.0977517 0.0312805
0 0.0977517 0.0322581
0.0557185 0.0967742 0.0322581
0.0987292 0.0967742 0.0332356
0.136852 0.0957967 0.0342131
0.173998 0.0938416 0.0342131
0.211144 0.0918866 0.0361681
0.248289 0.0879765 0.0371457
0.285435 0.0821114 0.0381232
0.326491 0.0742913 0.0391007
0.378299 0.058651 0.0410557
0.442815 0 0.0439883
0.521017 0 0.0469208
0.616813 0 0.0518084
0.733138 0 0.056696
0.872923 0 0.0645161
1 0 0.0733138
0 0.131965 0.030303
0 0.131965 0.030303
0.0322581 0.131965 0.0312805
0.0918866 0.131965 0.0312805
0.13392 0.130987 0.0322581
0.173021 0.13001 0.0332356
0.211144 0.129032 0.0342131
0.248289 0.127077 0.0351906
0.285435 0.124145 0.0361681
0.327468 0.119257 0.0371457
0.379277 0.112414 0.0391007
0.443793 0.100684 0.0420332
0.521994 0.0762463 0.0449658
0.617791 0 0.0498534
0.734115 0 0.0557185
0.8739 0 0.0625611
1 0 0.0713587
0 0.167155 0.0273705
0 0.167155 0.0273705
0 0.166178 0.028348
0.0782014 0.166178 0.028348
0.127077 0.166178 0.0293255
0.16911 0.166178 0.030303
0.209189 0.1652 0.030303
0.247312 0.163245 0.0322581
0.285435 0.162268 0.0332356
0.327468 0.159335 0.0342131
0.380254 0.155425 0.0361681
0.44477 0.147605 0.0391007
0.522972 0.134897 0.0430108
0.618768 0.111437 0.0469208
0.735093 0.0488759 0.0527859
0.874878 0 0.0606061
1 0 0.0694037
0 0.202346 0.0224829
0 0.202346 0.0224829
0 0.202346 0.0224829
0.0508309 0.201369 0.0234604
0.116325 0.201369 0.0234604
0.163245 0.201369 0.0244379
0.205279 0.200391 0.0254154
0.245357 0.200391 0.0273705
0.284457 0.198436 0.028348
0.327468 0.197458 0.030303
0.380254 0.194526 0.0322581
0.44477 0.189638 0.0351906
0.523949 0.180841 0.0391007
0.619746 0.166178 0.0439883
0.73607 0.138807 0.0498534
0.875855 0.0713587 0.0576735
1 0 0.0674487
0 0.237537 0.00977517
0 0.237537 0.0107527
0 0.237537 0.0107527
0 0.237537 0.0117302
0.0987292 0.237537 0.0136852
0.15347 0.236559 0.0146628
0.199413 0.236559 0.0166178
0.241447 0.235582 0.0185728
0.281525 0.235582 0.0205279
0.325513 0.233627 0.0224829
0.379277 0.231672 0.0254154
0.44477 0.228739 0.0293255
0.524927 0.221896 0.0332356
0.620723 0.212121 0.0391007
0.737048 0.193548 0.0459433
0.87781 0.159335 0.0537634
1 0.0684262 0.0645161
0 0.272727 0
0 0.272727 0
0 0.272727 0
0 0.272727 0
0.0694037 0.272727 0
0.139785 0.272727 0
0.190616 0.272727 0
0.235582 0.27175 0
0.277615 0.27175 0
0.323558 0.270772 0
0.378299 0.268817 0.0117302
0.44477 0.266862 0.0185728
0.524927 0.261975 0.0254154
0.620723 0.254154 0.0322581
0.738025 0.240469 0.0400782
0.878788 0.217009 0.0498534
1 0.170088 0.0606061
0 0.313783 0
0 0.313783 0
0 0.313783 0
0 0.313783 0
0 0.313783 0
0.116325 0.312805 0
0.176931 0.312805 0
0.225806 0.312805 0
0.270772 0.311828 0
0.318671 0.311828 0
0.375367 0.31085 0
0.442815 0.308895 0
0.523949 0.304985 0
0.621701 0.29912 0.0195503
0.739003 0.289345 0.0312805
0.879765 0.27175 0.0430108
1 0.239492 0.054741
0 0.363636 0
0 0.363636 0
0 0.363636 0
0 0.363636 0
0 0.363636 0
0.0615836 0.363636 0
0.151515 0.363636 0
0.210166 0.362659 0
0.259042 0.362659 0
0.309873 0.362659 0
0.369501 0.361681 0
0.439883 0.359726 0
0.521994 0.357771 0
0.620723 0.352884 0
0.739003 0.346041 0
0.880743 0.332356 0.0293255
1 0.309873 0.0449658
0 0.42522 0
0 0.42522 0
0 0.42522 0
0 0.42522 0
0 0.42522 0
0 0.42522 0
0.0977517 0.42522 0
0.179863 0.42522 0
0.238514 0.42522 0
0.29521 0.424242 0
0.358749 0.424242 0
0.43304 0.423265 0
0.518084 0.42131 0
0.618768 0.418377 0
0.739003 0.412512 0
0.88172 0.403715 0
1 0.387097 0.0244379
0 0.501466 0
0 0.501466 0
0 0.501466 0
0 0.501466 0
0 0.501466 0
0 0.501466 0
0 0.501466 0
0.113392 0.501466 0
0.199413 0.500489 0
0.26784 0.500489 0
0.340176 0.500489 0
0.419355 0.499511 0
0.509286 0.498534 0
0.613881 0.496579 0
0.73607 0.492669 0
0.880743 0.485826 0
1 0.474096 0
0 0.59433 0
0 0.59433 0
0 0.59433 0
0 0.59433 0
0 0.593353 0
0 0.593353 0
0 0.593353 0
0 0.593353 0
0.104594 0.593353 0
0.216031 0.593353 0
0.305963 0.593353 0
0.395894 0.592375 0
0.493646 0.592375 0
0.604106 0.59042 0
0.730205 0.587488 0
0.87781 0.583578 0
1 0.57478 0
0 0.705767 0
0 0.705767 0
0 0.705767 0
0 0.705767 0
0 0.705767 0
0 0.705767 0
0 0.705767 0
0 0.705767 0
0 0.705767 0
0.0508309 0.705767 0
0.237537 0.705767 0
0.352884 0.705767 0
0.464321 0.70479 0
0.584555 0.703812 0
0.718475 0.701857 0
0.870968 0.698925 0
1 0.69306 0
0 0.84262 0
0 0.84262 0
0 0.84262 0
0 0.84262 0
0 0.84262 0
0 0.84262 0
0 0.841642 0
0 0.841642 0
0 0.841642 0
0 0.841642 0
0 0.841642 0
0.264907 0.841642 0
0.410557 0.841642 0
0.548387 0.840665 0
0.694037 0.839687 0
0.856305 0.837732 0
1 0.833822 0
0 1 0
0 1 0
0 1 0
0 1 0
0 1 0
0 1 0
0 1 0
0 1 0
0 1 0
0 1 0
0 1 0
0 1 0
0.300098 1 0
0.482893 1 0
0.651026 1 0
0.827957 1 0
1 1 0
0 0 0.0518084
0.030303 0 0.054741
0.0654936 0 0.058651
0.100684 0 0.0615836
0.135875 0 0.0645161
0.172043 0 0.0664712
0.209189 0 0.0684262
0.245357 0 0.0703812
0.282502 0 0.0713587
0.324536 0 0.0733138
0.376344 0 0.0752688
0.44086 0 0.0782014
0.519062 0 0.0811339
0.614858 0 0.085044
0.731183 0 0.0889541
0.871945 0 0.0948192
1 0 0.101662
0 0.030303 0.0576735
0.028348 0.030303 0.058651
0.0654936 0.028348 0.0606061
0.100684 0.0224829 0.0625611
0.136852 0 0.0645161
0.173021 0 0.0664712
0.209189 0 0.0684262
0.246334 0 0.0703812
0.28348 0 0.0713587
0.324536 0 0.0733138
0.376344 0 0.0752688
0.44086 0 0.0782014
0.519062 0 0.0811339
0.614858 0 0.0840665
0.731183 0 0.0889541
0.871945 0 0.0948192
1 0 0.101662
0 0.0635386 0.0615836
0 0.0635386 0.0625611
0.0635386 0.0635386 0.0635386
0.100684 0.0615836 0.0645161
0.13783 0.0596285 0.0654936
0.173998 0.0557185 0.0674487
0.210166 0.0488759 0.0694037
0.247312 0.0381232 0.0703812
0.284457 0.0117302 0.0723363
0.325513 0 0.0733138
0.377322 0 0.0752688
0.441838 0 0.0782014
0.520039 0 0.0811339
0.615836 0 0.0840665
0.73216 0 0.0889541
0.872923 0 0.0938416
1 0 0.101662
0 0.0977517 0.0645161
0 0.0977517 0.0645161
0.0537634 0.0977517 0.0654936
0.0977517 0.0967742 0.0664712
0.136852 0.0957967 0.0674487
0.173998 0.0938416 0.0684262
0.211144 0.0918866 0.0694037
0.248289 0.0879765 0.0703812
0.285435 0.0821114 0.0723363
0.326491 0.0742913 0.0733138
0.378299 0.058651 0.0752688
0.442815 0 0.0772239
0.521017 0 0.0801564
0.616813 0 0.0840665
0.733138 0 0.0879765
0.872923 0 0.0938416
1 0 0.100684
0 0.131965 0.0654936
0 0.131965 0.0654936
0.028348 0.131965 0.0664712
0.0909091 0.131965 0.0664712
0.132942 0.130987 0.0674487
0.173021 0.13001 0.0684262
0.210166 0.129032 0.0694037
0.248289 0.127077 0.0703812
0.285435 0.124145 0.0713587
0.327468 0.119257 0.0733138
0.379277 0.112414 0.0742913
0.443793 0.0997067 0.0772239
0.521994 0.0752688 0.0791789
0.617791 0 0.083089
0.733138 0 0.086999
0.8739 0 0.0928641
1 0 0.0997067
0 0.167155 0.0664712
0 0.167155 0.0664712
0 0.167155 0.0664712
0.0762463 0.166178 0.0674487
0.127077 0.166178 0.0674487
0.16911 0.166178 0.0684262
0.208211 0.1652 0.0694037
0.247312 0.163245 0.0703812
0.285435 0.162268 0.0713587
0.327468 0.159335 0.0723363
0.380254 0.154448 0.0742913
0.44477 0.147605 0.0762463
0.522972 0.134897 0.0782014
0.618768 0.110459 0.0821114
0.735093 0.0478983 0.0860215
0.874878 0 0.0918866
1 0 0.0987292
0 0.202346 0.0664712
0 0.202346 0.0664712
0 0.202346 0.0664712
0.0488759 0.201369 0.0664712
0.115347 0.201369 0.0674487
0.162268 0.201369 0.0684262
0.205279 0.200391 0.0684262
0.245357 0.200391 0.0694037
0.284457 0.198436 0.0703812
0.327468 0.197458 0.0713587
0.380254 0.194526 0.0723363
0.44477 0.188661 0.0742913
0.523949 0.180841 0.0772239
0.619746 0.166178 0.0801564
0.73607 0.138807 0.085044
0.875855 0.0713587 0.0899316
1 0 0.0967742
0 0.237537 0.0654936
0 0.237537 0.0654936
0 0.237537 0.0654936
0 0.237537 0.0654936
0.0977517 0.237537 0.0664712
0.152493 0.236559 0.0664712
0.198436 0.236559 0.0674487
0.241447 0.235582 0.0684262
0.281525 0.235582 0.0684262
0.325513 0.233627 0.0694037
0.379277 0.231672 0.0713587
0.44477 0.228739 0.0733138
0.523949 0.221896 0.0752688
0.620723 0.212121 0.0782014
0.737048 0.193548 0.083089
0.876833 0.159335 0.0879765
1 0.0684262 0.0948192
0 0.272727 0.0635386
0 0.272727 0.0635386
0 0.272727 0.0635386
0 0.272727 0.0635386
0.0674487 0.272727 0.0645161
0.138807 0.272727 0.0645161
0.189638 0.272727 0.0654936
0.234604 0.27175 0.0664712
0.277615 0.27175 0.0664712
0.322581 0.270772 0.0674487
0.378299 0.268817 0.0694037
0.44477 0.266862 0.0703812
0.524927 0.261975 0.0733138
0.620723 0.254154 0.0762463
0.738025 0.240469 0.0801564
0.878788 0.217009 0.0860215
1 0.170088 0.0928641
0 0.313783 0.0606061
0 0.313783 0.0606061
0 0.313783 0.0606061
0 0.313783 0.0606061
0 0.313783 0.0615836
0.115347 0.312805 0.0615836
0.175953 0.312805 0.0625611
0.225806 0.312805 0.0625611
0.270772 0.311828 0.0635386
0.318671 0.311828 0.0645161
0.375367 0.31085 0.0654936
0.442815 0.308895 0.0674487
0.523949 0.304985 0.0703812
0.621701 0.29912 0.0733138
0.738025 0.289345 0.0772239
0.879765 0.27175 0.083089
1 0.239492 0.0899316
0 0.363636 0.054741
0 0.363636 0.054741
0 0.363636 0.0557185
0 0.363636 0.0557185
0 0.363636 0.0557185
0.0596285 0.363636 0.056696
0.151515 0.363636 0.056696
0.209189 0.362659 0.0576735
0.259042 0.362659 0.058651
0.309873 0.362659 0.0596285
0.369501 0.361681 0.0606061
0.438905 0.359726 0.0625611
0.521994 0.357771 0.0645161
0.620723 0.352884 0.0674487
0.739003 0.346041 0.0723363
0.880743 0.332356 0.0782014
1 0.309873 0.0860215
0 0.42522 0.0449658
0 0.42522 0.0449658
0 0.42522 0.0449658
0 0.42522 0.0449658
0 0.42522 0.0459433
0 0.42522 0.0459433
0.0967742 0.42522 0.0469208
0.178886 0.42522 0.0478983
0.238514 0.42522 0.0478983
0.29521 0.424242 0.0488759
0.358749 0.424242 0.0508309
0.432063 0.423265 0.0527859
0.518084 0.42131 0.0557185
0.618768 0.418377 0.058651
0.738025 0.412512 0.0635386
0.880743 0.403715 0.0703812
1 0.387097 0.0782014
0 0.501466 0.0127077
0 0.501466 0.0136852
0 0.501466 0.0136852
0 0.501466 0.0146628
0 0.501466 0.0166178
0 0.501466 0.0175953
0 0.501466 0.0195503
0.112414 0.501466 0.0215054
0.199413 0.501466 0.0234604
0.26784 0.500489 0.0254154
0.340176 0.500489 0.028348
0.419355 0.499511 0.0312805
0.509286 0.498534 0.0361681
0.613881 0.496579 0.0410557
0.73607 0.492669 0.0478983
0.880743 0.485826 0.056696
1 0.474096 0.0664712
0 0.59433 0
0 0.59433 0
0 0.59433 0
0 0.59433 0
0 0.59433 0
0 0.593353 0
0 0.593353 0
0 0.593353 0
0.103617 0.593353 0
0.216031 0.593353 0
0.305963 0.593353 0
0.395894 0.592375 0
0.493646 0.592375 0
0.604106 0.59042 0
0.730205 0.587488 0
0.87781 0.583578 0.0156403
1 0.57478 0.0400782
0 0.705767 0
0 0.705767 0
0 0.705767 0
0 0.705767 0
0 0.705767 0
0 0.705767 0
0 0.705767 0
0 0.705767 0
0 0.705767 0
0.0469208 0.705767 0
0.237537 0.705767 0
0.352884 0.705767 0
0.464321 0.70479 0
0.584555 0.703812 0
0.717498 0.701857 0
0.870968 0.698925 0
1 0.69306 0
0 0.84262 0
0 0.84262 0
0 0.84262 0
0 0.84262 0
0 0.84262 0
0 0.84262 0
0 0.841642 0
0 0.841642 0
0 0.841642 0
0 0.841642 0
0 0.841642 0
0.26393 0.841642 0
0.410557 0.841642 0
0.548387 0.840665 0
0.694037 0.839687 0
0.856305 0.837732 0
1 0.833822 0
0 1 0
0 1 0
0 1 0
0 1 0
0 1 0
0 1 0
0 1 0
0 1 0
0 1 0
0 1 0
0 1 0
0 1 0
0.29912 1 0
0.481916 1 0
0.651026 1 0
0.827957 1 0
1 1 0
0 0 0.0801564
0.026393 0 0.0821114
0.0645161 0 0.0860215
0.0997067 0 0.0899316
0.135875 0 0.0938416
0.172043 0 0.0957967
0.209189 0 0.0987292
0.245357 0 0.100684
0.282502 0 0.102639
0.324536 0 0.105572
0.376344 0 0.107527
0.44086 0 0.110459
0.519062 0 0.113392
0.614858 0 0.117302
0.731183 0 0.12219
0.871945 0 0.127077
1 0 0.13392
0 0.030303 0.085044
0.0224829 0.030303 0.0860215
0.0645161 0.0273705 0.0889541
0.100684 0.0215054 0.0918866
0.136852 0 0.0938416
0.173021 0 0.0967742
0.209189 0 0.0987292
0.246334 0 0.101662
0.28348 0 0.103617
0.324536 0 0.105572
0.376344 0 0.107527
0.44086 0 0.110459
0.519062 0 0.113392
0.614858 0 0.117302
0.731183 0 0.12219
0.871945 0 0.127077
