proprietary/odm/etc/hdr3dlut_pq_qcom_grid_out_rgb.cube
LUT_3D_SIZE 17
0 0 0
0.0254154 0 0.00195503
0.0459433 0 0.00293255
0.0752688 0 0.00391007
0.116325 0 0.00684262
0.158358 0 0.00879765
0.239492 0 0.0136852
0.327468 0 0.0195503
0.378299 0 0.0224829
0.434018 0 0.0254154
0.497556 0 0.0293255
0.568915 0 0.0342131
0.650049 0 0.0391007
0.739003 0 0.0439883
0.840665 0 0.0508309
1 0 0.086999
1 0 0.113392
0 0.0195503 0
0.0185728 0.0185728 0
0.0439883 0.0146628 0.000977517
0.0742913 0 0.00391007
0.115347 0 0.0058651
0.158358 0 0.00879765
0.239492 0 0.0136852
0.327468 0 0.0195503
0.377322 0 0.0224829
0.434018 0 0.0254154
0.497556 0 0.0293255
0.568915 0 0.0342131
0.650049 0 0.0391007
0.739003 0 0.0439883
0.840665 0 0.0508309
1 0 0.086999
1 0 0.113392
0 0.0400782 0
0 0.0391007 0
0.0391007 0.0381232 0
0.0713587 0.0342131 0
0.113392 0.0254154 0.00391007
0.15738 0 0.00782014
0.238514 0 0.0127077
0.327468 0 0.0185728
0.377322 0 0.0215054
0.434018 0 0.0254154
0.497556 0 0.0293255
0.568915 0 0.0342131
0.649071 0 0.0391007
0.739003 0 0.0439883
0.840665 0 0.0508309
1 0 0.086999
1 0 0.113392
0 0.0654936 0
0 0.0654936 0
0.0234604 0.0645161 0
0.0635386 0.0625611 0
0.110459 0.058651 0
0.155425 0.0527859 0
0.237537 0.0254154 0.0107527
0.326491 0 0.0166178
0.377322 0 0.0205279
0.43304 0 0.0244379
0.496579 0 0.028348
0.568915 0 0.0332356
0.649071 0 0.0381232
0.739003 0 0.0439883
0.840665 0 0.0498534
1 0 0.086999
1 0 0.113392
0 0.103617 0
0 0.103617 0
0 0.103617 0
0.0469208 0.102639 0
0.102639 0.100684 0
0.150538 0.0977517 0
0.234604 0.0879765 0
0.324536 0.0674487 0.0107527
0.375367 0.0459433 0.0166178
0.432063 0 0.0205279
0.495601 0 0.0254154
0.567937 0 0.030303
0.648094 0 0.0361681
0.738025 0 0.0420332
0.839687 0 0.0488759
1 0 0.0860215
1 0 0.112414
0 0.142717 0
0 0.142717 0
0 0.142717 0
0 0.142717 0
0.0889541 0.140762 0
0.14174 0.138807 0
0.229717 0.132942 0
0.320626 0.121212 0
0.372434 0.112414 0
0.42913 0.0987292 0.0136852
0.493646 0.0752688 0.0205279
0.565982 0 0.026393
0.647116 0 0.0332356
0.73607 0 0.0391007
0.83871 0 0.0459433
1 0 0.085044
1 0 0.112414
0 0.216031 0
0 0.216031 0
0 0.216031 0
0 0.216031 0
0 0.215054 0
0.112414 0.214076 0
0.215054 0.210166 0
0.31085 0.203324 0
0.364614 0.199413 0
0.423265 0.192571 0
0.487781 0.182796 0
0.561095 0.170088 0
0.642229 0.150538 0.0195503
0.73216 0.119257 0.0293255
0.835777 0.0459433 0.0391007
1 0 0.0821114
1 0 0.110459
0 0.296188 0
0 0.296188 0
0 0.296188 0
0 0.29521 0
0 0.29521 0
0 0.294233 0
0.186706 0.2913 0
0.294233 0.28739 0
0.349951 0.284457 0
0.411535 0.280547 0
0.478006 0.274682 0
0.552297 0.266862 0
0.634409 0.255132 0
0.726295 0.240469 0
0.83089 0.217986 0.0195503
1 0 0.0762463
1 0 0.107527
0 0.341153 0
0 0.341153 0
0 0.341153 0
0 0.341153 0
0 0.341153 0
0 0.340176 0
0.162268 0.338221 0
0.280547 0.334311 0
0.339198 0.331378 0
0.402737 0.328446 0
0.470186 0.323558 0
0.545455 0.316716 0
0.629521 0.307918 0
0.722385 0.296188 0
0.827957 0.27957 0
1 0 0.0713587
1 0 0.105572
0 0.392962 0
0 0.392962 0
0 0.392962 0
0 0.391984 0
0 0.391984 0
0 0.391007 0
0.120235 0.390029 0
0.260997 0.386119 0
0.323558 0.384164 0
0.389052 0.381232 0
0.459433 0.376344 0
0.536657 0.371457 0
0.622678 0.364614 0
0.71652 0.354839 0
0.823069 0.342131 0
1 0.16129 0.0635386
1 0 0.102639
0 0.449658 0
0 0.449658 0
0 0.44868 0
0 0.44868 0
0 0.44868 0
0 0.447703 0
0 0.446725 0
0.232649 0.443793 0
0.302053 0.441838 0
0.372434 0.439883 0
0.446725 0.43695 0
0.525904 0.432063 0
0.612903 0.426197 0
0.7087 0.418377 0
0.816227 0.407625 0
1 0.27957 0.0518084
1 0 0.0987292
0 0.513196 0
0 0.513196 0
0 0.513196 0
0 0.513196 0
0 0.513196 0
0 0.512219 0
0 0.511241 0
0.186706 0.509286 0
0.270772 0.508309 0
0.348974 0.505376 0
0.427175 0.503421 0
0.510264 0.499511 0
0.600196 0.494624 0
0.697947 0.487781 0
0.807429 0.478983 0
1 0.371457 0.030303
1 0 0.0938416
0 0.58651 0
0 0.58651 0
0 0.58651 0
0 0.58651 0
0 0.585533 0
0 0.585533 0
0 0.584555 0
0.0860215 0.5826 0
0.220919 0.581623 0
0.313783 0.579668 0
0.400782 0.577713 0
0.489736 0.573803 0
0.5826 0.569892 0
0.684262 0.565005 0
0.794721 0.557185 0
1 0.455523 0
1 0 0.086999
0 0.668622 0
0 0.668622 0
0 0.668622 0
0 0.667644 0
0 0.667644 0
0 0.667644 0
0 0.666667 0
0 0.664712 0
0.119257 0.663734 0
0.259042 0.662757 0
0.362659 0.660802 0
0.459433 0.657869 0
0.55914 0.653959 0
0.664712 0.650049 0
0.779081 0.643206 0
1 0.535679 0
1 0.241447 0.0772239
0 0.761486 0
0 0.761486 0
0 0.761486 0
0 0.761486 0
0 0.760508 0
0 0.760508 0
0 0.759531 0
0 0.758553 0
0 0.757576 0
0.150538 0.756598 0
0.301075 0.754643 0
0.416422 0.752688 0
0.524927 0.749756 0
0.637341 0.744868 0
0.756598 0.73998 0
1 0.616813 0
1 0.371457 0.0615836
0 1 0
0 1 0
0 1 0
0 1 0
0 1 0
0 1 0
0 1 0
0 1 0
0 1 0
0 1 0
0 1 0
0 1 0
0 1 0
0.189638 1 0
0.392962 1 0
0.97654 0.954057 0
1 0.757576 0
0 1 0
0 1 0
0 1 0
0 1 0
0 1 0
0 1 0
0 1 0
0 1 0
0 1 0
0 1 0
0 1 0
0 1 0
0 1 0
0 1 0
0 1 0
0.487781 1 0
1 1 0
0 0 0.026393
0.0244379 0 0.0215054
0.0449658 0 0.0175953
0.0752688 0 0.0175953
0.116325 0 0.0175953
0.158358 0 0.0185728
0.239492 0 0.0205279
0.327468 0 0.0244379
0.378299 0 0.0273705
0.434018 0 0.030303
0.497556 0 0.0332356
0.568915 0 0.0371457
0.650049 0 0.0410557
0.739003 0 0.0469208
0.840665 0 0.0527859
1 0 0.0879765
1 0 0.113392
0 0.0195503 0.0185728
0.0175953 0.0175953 0.0175953
0.0439883 0.0146628 0.0175953
0.0742913 0 0.0175953
0.115347 0 0.0175953
0.158358 0 0.0185728
0.239492 0 0.0205279
0.327468 0 0.0244379
0.377322 0 0.0273705
0.434018 0 0.0293255
0.497556 0 0.0332356
0.568915 0 0.0371457
0.650049 0 0.0410557
0.739003 0 0.0469208
0.840665 0 0.0527859
1 0 0.0879765
1 0 0.113392
0 0.0391007 0.0166178
0 0.0391007 0.0166178
0.0381232 0.0381232 0.0166178
0.0713587 0.0342131 0.0166178
0.113392 0.0254154 0.0166178
0.15738 0 0.0175953
0.238514 0 0.0205279
0.327468 0 0.0244379
0.377322 0 0.026393
0.434018 0 0.0293255
0.497556 0 0.0332356
0.568915 0 0.0371457
0.649071 0 0.0410557
0.739003 0 0.0459433
0.840665 0 0.0518084
1 0 0.0879765
1 0 0.113392
0 0.0654936 0.0136852
0 0.0654936 0.0136852
0.0234604 0.0645161 0.0136852
0.0635386 0.0625611 0.0136852
0.110459 0.058651 0.0146628
0.155425 0.0527859 0.0156403
0.237537 0.0254154 0.0185728
0.326491 0 0.0224829
0.377322 0 0.0254154
0.43304 0 0.028348
0.496579 0 0.0322581
0.568915 0 0.0361681
0.649071 0 0.0410557
0.739003 0 0.0459433
0.840665 0 0.0518084
1 0 0.0879765
1 0 0.113392
0 0.103617 0
0 0.103617 0
0 0.103617 0
0.0469208 0.102639 0.00195503
0.102639 0.100684 0.0058651
0.150538 0.0977517 0.00879765
0.234604 0.0879765 0.0136852
0.324536 0.0674487 0.0195503
0.375367 0.0459433 0.0224829
0.432063 0 0.0254154
0.495601 0 0.0293255
0.567937 0 0.0342131
0.648094 0 0.0391007
0.738025 0 0.0439883
0.839687 0 0.0508309
1 0 0.086999
1 0 0.113392
0 0.142717 0
0 0.142717 0
0 0.142717 0
0 0.142717 0
0.0889541 0.140762 0
0.14174 0.138807 0
0.229717 0.132942 0
0.320626 0.121212 0.0107527
0.372434 0.112414 0.0156403
0.42913 0.0977517 0.0205279
0.493646 0.0752688 0.0254154
0.565982 0 0.030303
0.647116 0 0.0361681
0.73607 0 0.0420332
0.83871 0 0.0478983
1 0 0.0860215
1 0 0.112414
0 0.216031 0
0 0.216031 0
0 0.216031 0
0 0.216031 0
0 0.215054 0
0.112414 0.214076 0
0.215054 0.210166 0
0.31085 0.203324 0
0.364614 0.199413 0
0.423265 0.192571 0
0.487781 0.182796 0
0.561095 0.170088 0.0146628
0.642229 0.150538 0.0244379
0.73216 0.119257 0.0332356
0.835777 0.0459433 0.0410557
1 0 0.083089
1 0 0.110459
0 0.296188 0
0 0.296188 0
0 0.296188 0
0 0.29521 0
0 0.29521 0
0 0.294233 0
0.186706 0.2913 0
0.294233 0.28739 0
0.349951 0.284457 0
0.411535 0.280547 0
0.478006 0.274682 0
0.552297 0.266862 0
0.634409 0.255132 0
0.726295 0.240469 0
0.83089 0.217986 0.0244379
1 0 0.0772239
1 0 0.108504
0 0.341153 0
0 0.341153 0
0 0.341153 0
0 0.341153 0
0 0.341153 0
0 0.340176 0
0.162268 0.338221 0
0.280547 0.334311 0
0.339198 0.331378 0
0.402737 0.328446 0
0.470186 0.323558 0
0.545455 0.316716 0
0.629521 0.307918 0
0.722385 0.296188 0
0.827957 0.27957 0
1 0 0.0723363
1 0 0.106549
0 0.392962 0
0 0.392962 0
0 0.392962 0
0 0.391984 0
0 0.391984 0
0 0.391007 0
0.120235 0.390029 0
0.260997 0.386119 0
0.323558 0.384164 0
0.389052 0.381232 0
0.459433 0.376344 0
0.536657 0.371457 0
0.622678 0.364614 0
0.71652 0.354839 0
0.823069 0.342131 0
1 0.16129 0.0654936
1 0 0.103617
0 0.449658 0
0 0.449658 0
0 0.44868 0
0 0.44868 0
0 0.44868 0
0 0.447703 0
0 0.446725 0
0.232649 0.443793 0
0.302053 0.441838 0
0.372434 0.439883 0
0.446725 0.43695 0
0.525904 0.432063 0
0.612903 0.426197 0
0.7087 0.418377 0
0.816227 0.407625 0
1 0.27957 0.0537634
1 0 0.0997067
0 0.513196 0
0 0.513196 0
0 0.513196 0
0 0.513196 0
0 0.513196 0
0 0.512219 0
0 0.511241 0
0.186706 0.509286 0
0.270772 0.508309 0
0.348974 0.505376 0
0.427175 0.503421 0
0.510264 0.499511 0
0.600196 0.494624 0
0.697947 0.487781 0
0.807429 0.478983 0
1 0.371457 0.0332356
1 0 0.0948192
0 0.58651 0
0 0.58651 0
0 0.58651 0
0 0.58651 0
0 0.585533 0
0 0.585533 0
0 0.584555 0
0.0860215 0.5826 0
0.220919 0.581623 0
0.313783 0.579668 0
0.400782 0.577713 0
0.489736 0.573803 0
0.5826 0.569892 0
0.684262 0.565005 0
0.794721 0.557185 0
1 0.455523 0
1 0 0.086999
0 0.668622 0
0 0.668622 0
0 0.668622 0
0 0.667644 0
0 0.667644 0
0 0.667644 0
0 0.666667 0
0 0.664712 0
0.119257 0.663734 0
0.259042 0.662757 0
0.362659 0.660802 0
0.459433 0.657869 0
0.55914 0.653959 0
0.664712 0.650049 0
0.779081 0.643206 0
1 0.535679 0
1 0.241447 0.0772239
0 0.761486 0
0 0.761486 0
0 0.761486 0
0 0.761486 0
0 0.760508 0
0 0.760508 0
0 0.759531 0
0 0.758553 0
0 0.757576 0
0.150538 0.756598 0
0.301075 0.754643 0
0.416422 0.752688 0
0.524927 0.749756 0
0.637341 0.744868 0
0.756598 0.73998 0
1 0.616813 0
1 0.371457 0.0625611
0 1 0
0 1 0
0 1 0
0 1 0
0 1 0
0 1 0
0 1 0
0 1 0
0 1 0
0 1 0
0 1 0
0 1 0
0 1 0
0.189638 1 0
0.392962 1 0
0.97654 0.954057 0
1 0.757576 0
0 1 0
0 1 0
0 1 0
0 1 0
0 1 0
0 1 0
0 1 0
0 1 0
0 1 0
0 1 0
0 1 0
0 1 0
0 1 0
0 1 0
0 1 0
0.487781 1 0
1 1 0
0 0 0.0488759
0.0195503 0 0.0439883
0.0439883 0 0.0400782
0.0742913 0 0.0381232
0.115347 0 0.0371457
0.158358 0 0.0371457
0.239492 0 0.0381232
0.327468 0 0.0400782
0.377322 0 0.0410557
0.434018 0 0.0430108
0.497556 0 0.0459433
0.568915 0 0.0478983
0.650049 0 0.0518084
0.739003 0 0.0557185
0.840665 0 0.0606061
1 0 0.0928641
1 0 0.115347
0 0.0185728 0.0400782
0.0156403 0.0175953 0.0400782
0.0430108 0.0146628 0.0391007
0.0733138 0 0.0381232
0.115347 0 0.0371457
0.15738 0 0.0371457
0.239492 0 0.0381232
0.327468 0 0.0400782
0.377322 0 0.0410557
0.434018 0 0.0430108
0.497556 0 0.0449658
0.568915 0 0.0478983
0.650049 0 0.0518084
0.739003 0 0.0557185
0.840665 0 0.0606061
1 0 0.0928641
1 0 0.115347
0 0.0391007 0.0381232
0 0.0391007 0.0381232
0.0371457 0.0371457 0.0371457
0.0703812 0.0342131 0.0371457
0.113392 0.0244379 0.0361681
0.15738 0 0.0361681
0.238514 0 0.0381232
0.327468 0 0.0400782
0.377322 0 0.0410557
0.434018 0 0.0430108
0.497556 0 0.0449658
0.568915 0 0.0478983
0.649071 0 0.0518084
0.739003 0 0.0557185
0.840665 0 0.0606061
1 0 0.0928641
1 0 0.115347
0 0.0654936 0.0351906
0 0.0645161 0.0351906
0.0224829 0.0645161 0.0351906
0.0635386 0.0625611 0.0351906
0.110459 0.058651 0.0351906
0.155425 0.0527859 0.0361681
0.237537 0.0254154 0.0371457
0.326491 0 0.0391007
0.376344 0 0.0410557
0.43304 0 0.0420332
0.496579 0 0.0449658
0.568915 0 0.0478983
0.649071 0 0.0508309
0.739003 0 0.054741
0.840665 0 0.0596285
1 0 0.0928641
1 0 0.115347
0 0.103617 0.0332356
0 0.103617 0.0332356
0 0.103617 0.0332356
0.0459433 0.102639 0.0332356
0.102639 0.100684 0.0332356
0.150538 0.0977517 0.0342131
0.234604 0.0879765 0.0351906
0.324536 0.0674487 0.0371457
0.375367 0.0459433 0.0391007
0.432063 0 0.0410557
0.495601 0 0.0430108
0.567937 0 0.0459433
0.648094 0 0.0498534
0.738025 0 0.0537634
0.839687 0 0.058651
1 0 0.0918866
1 0 0.115347
0 0.142717 0.0293255
0 0.142717 0.0293255
0 0.142717 0.0293255
0 0.14174 0.0293255
0.0889541 0.140762 0.0293255
0.14174 0.138807 0.030303
0.229717 0.132942 0.0322581
0.320626 0.121212 0.0342131
0.372434 0.112414 0.0361681
0.42913 0.0977517 0.0381232
0.493646 0.0752688 0.0400782
0.565982 0 0.0439883
0.647116 0 0.0469208
0.73607 0 0.0518084
0.83871 0 0.056696
1 0 0.0909091
1 0 0.11437
0 0.216031 0.0117302
0 0.216031 0.0117302
0 0.216031 0.0117302
0 0.216031 0.0117302
0 0.215054 0.0127077
0.112414 0.214076 0.0146628
0.215054 0.210166 0.0175953
0.31085 0.203324 0.0224829
0.363636 0.199413 0.0244379
0.423265 0.192571 0.028348
0.487781 0.182796 0.0312805
0.561095 0.170088 0.0351906
0.642229 0.150538 0.0400782
0.73216 0.119257 0.0449658
0.835777 0.0459433 0.0518084
1 0 0.0879765
1 0 0.113392
0 0.296188 0
0 0.296188 0
0 0.296188 0
0 0.29521 0
0 0.29521 0
0 0.294233 0
0.186706 0.2913 0
0.294233 0.28739 0
0.349951 0.284457 0
0.411535 0.280547 0
0.478006 0.274682 0
0.552297 0.265885 0.00977517
0.634409 0.255132 0.0224829
0.726295 0.240469 0.0312805
0.83089 0.217986 0.0400782
1 0 0.0821114
1 0 0.110459
0 0.341153 0
0 0.341153 0
0 0.341153 0
0 0.341153 0
0 0.341153 0
0 0.340176 0
0.162268 0.338221 0
0.280547 0.334311 0
0.339198 0.331378 0
0.40176 0.328446 0
0.470186 0.323558 0
0.545455 0.316716 0
0.629521 0.307918 0
0.722385 0.296188 0.0107527
0.827957 0.27957 0.028348
1 0 0.0782014
1 0 0.108504
0 0.392962 0
0 0.392962 0
0 0.392962 0
0 0.391984 0
0 0.391984 0
0 0.391007 0
0.120235 0.390029 0
0.260997 0.386119 0
0.323558 0.384164 0
0.389052 0.381232 0
0.459433 0.376344 0
0.536657 0.371457 0
0.622678 0.364614 0
0.71652 0.354839 0
0.823069 0.342131 0
1 0.16129 0.0713587
1 0 0.105572
0 0.449658 0
0 0.449658 0
0 0.44868 0
0 0.44868 0
0 0.44868 0
0 0.447703 0
0 0.446725 0
0.232649 0.443793 0
0.302053 0.441838 0
0.372434 0.439883 0
0.446725 0.43695 0
0.525904 0.432063 0
0.612903 0.426197 0
0.7087 0.418377 0
0.816227 0.407625 0
1 0.27957 0.0615836
1 0 0.101662
0 0.513196 0
0 0.513196 0
0 0.513196 0
0 0.513196 0
0 0.513196 0
0 0.512219 0
0 0.511241 0
0.186706 0.509286 0
0.270772 0.508309 0
0.348974 0.505376 0
0.427175 0.503421 0
0.510264 0.499511 0
0.600196 0.494624 0
0.697947 0.487781 0
0.807429 0.478983 0
1 0.371457 0.0449658
1 0 0.0967742
0 0.58651 0
0 0.58651 0
0 0.58651 0
0 0.58651 0
0 0.585533 0
0 0.585533 0
0 0.584555 0
0.0860215 0.5826 0
0.220919 0.581623 0
0.313783 0.579668 0
0.400782 0.577713 0
0.489736 0.573803 0
0.5826 0.569892 0
0.684262 0.565005 0
0.794721 0.557185 0
1 0.455523 0
1 0 0.0899316
0 0.668622 0
0 0.668622 0
0 0.668622 0
0 0.667644 0
0 0.667644 0
0 0.667644 0
0 0.666667 0
0 0.664712 0
0.11828 0.663734 0
0.259042 0.662757 0
0.361681 0.660802 0
0.459433 0.657869 0
0.55914 0.653959 0
0.664712 0.650049 0
0.779081 0.643206 0
1 0.535679 0
1 0.241447 0.0801564
0 0.761486 0
0 0.761486 0
0 0.761486 0
0 0.761486 0
0 0.760508 0
0 0.760508 0
0 0.759531 0
0 0.758553 0
0 0.757576 0
0.150538 0.756598 0
0.301075 0.754643 0
0.415445 0.752688 0
0.524927 0.749756 0
0.637341 0.744868 0
0.756598 0.73998 0
1 0.616813 0
1 0.371457 0.0654936
0 1 0
0 1 0
0 1 0
0 1 0
0 1 0
0 1 0
0 1 0
0 1 0
0 1 0
0 1 0
0 1 0
0 1 0
0 1 0
0.189638 1 0
0.392962 1 0
0.97654 0.954057 0
1 0.757576 0
0 1 0
0 1 0
0 1 0
0 1 0
0 1 0
0 1 0
0 1 0
0 1 0
0 1 0
0 1 0
0 1 0
0 1 0
0 1 0
0 1 0
0 1 0
0.487781 1 0
1 1 0
0 0 0.0703812
0.00782014 0 0.0694037
0.0410557 0 0.0684262
0.0733138 0 0.0654936
0.11437 0 0.0635386
0.15738 0 0.0625611
0.239492 0 0.0635386
0.327468 0 0.0645161
0.377322 0 0.0654936
0.434018 0 0.0664712
0.497556 0 0.0674487
0.568915 0 0.0694037
0.649071 0 0.0723363
0.739003 0 0.0742913
0.840665 0 0.0782014
1 0 0.104594
1 0 0.121212
0 0.0166178 0.0694037
0 0.0156403 0.0684262
0.0400782 0.0127077 0.0674487
0.0723363 0 0.0654936
0.11437 0 0.0635386
0.15738 0 0.0625611
0.238514 0 0.0635386
0.327468 0 0.0645161
0.377322 0 0.0654936
0.434018 0 0.0664712
0.497556 0 0.0674487
0.568915 0 0.0694037
0.649071 0 0.0723363
0.739003 0 0.0742913
0.840665 0 0.0782014
1 0 0.104594
