proprietary/odm/etc/hdr3dlut_pq_qcom_grid_out_rgb.cube
LUT_3D_SIZE 9
0 0 0
0.0459433 0 0.00293255
0.116325 0 0.00684262
0.239492 0 0.0136852
0.378299 0 0.0224829
0.497556 0 0.0293255
0.650049 0 0.0391007
0.840665 0 0.0508309
1 0 0.113392
0 0.0400782 0
0.0391007 0.0381232 0
0.113392 0.0254154 0.00391007
0.238514 0 0.0127077
0.377322 0 0.0215054
0.497556 0 0.0293255
0.649071 0 0.0391007
0.840665 0 0.0508309
1 0 0.113392
0 0.103617 0
0 0.103617 0
0.102639 0.100684 0
0.234604 0.0879765 0
0.375367 0.0459433 0.0166178
0.495601 0 0.0254154
0.648094 0 0.0361681
0.839687 0 0.0488759
1 0 0.112414
0 0.216031 0
0 0.216031 0
0 0.215054 0
0.215054 0.210166 0
0.364614 0.199413 0
0.487781 0.182796 0
0.642229 0.150538 0.0195503
0.835777 0.0459433 0.0391007
1 0 0.110459
0 0.341153 0
0 0.341153 0
0 0.341153 0
0.162268 0.338221 0
0.339198 0.331378 0
0.470186 0.323558 0
0.629521 0.307918 0
0.827957 0.27957 0
1 0 0.105572
0 0.449658 0
0 0.44868 0
0 0.44868 0
0 0.446725 0
0.302053 0.441838 0
0.446725 0.43695 0
0.612903 0.426197 0
0.816227 0.407625 0
1 0 0.0987292
0 0.58651 0
0 0.58651 0
0 0.585533 0
0 0.584555 0
0.220919 0.581623 0
0.400782 0.577713 0
0.5826 0.569892 0
0.794721 0.557185 0
1 0 0.086999
0 0.761486 0
0 0.761486 0
0 0.760508 0
0 0.759531 0
0 0.757576 0
0.301075 0.754643 0
0.524927 0.749756 0
0.756598 0.73998 0
1 0.371457 0.0615836
0 1 0
0 1 0
0 1 0
0 1 0
0 1 0
0 1 0
0 1 0
0 1 0
1 1 0
0 0 0.0488759
0.0439883 0 0.0400782
0.115347 0 0.0371457
0.239492 0 0.0381232
0.377322 0 0.0410557
0.497556 0 0.0459433
0.650049 0 0.0518084
0.840665 0 0.0606061
1 0 0.115347
0 0.0391007 0.0381232
0.0371457 0.0371457 0.0371457
0.113392 0.0244379 0.0361681
0.238514 0 0.0381232
0.377322 0 0.0410557
0.497556 0 0.0449658
0.649071 0 0.0518084
0.840665 0 0.0606061
1 0 0.115347
0 0.103617 0.0332356
0 0.103617 0.0332356
0.102639 0.100684 0.0332356
0.234604 0.0879765 0.0351906
0.375367 0.0459433 0.0391007
0.495601 0 0.0430108
0.648094 0 0.0498534
0.839687 0 0.058651
1 0 0.115347
0 0.216031 0.0117302
0 0.216031 0.0117302
0 0.215054 0.0127077
0.215054 0.210166 0.0175953
0.363636 0.199413 0.0244379
0.487781 0.182796 0.0312805
0.642229 0.150538 0.0400782
0.835777 0.0459433 0.0518084
1 0 0.113392
0 0.341153 0
0 0.341153 0
0 0.341153 0
0.162268 0.338221 0
0.339198 0.331378 0
0.470186 0.323558 0
0.629521 0.307918 0
0.827957 0.27957 0.028348
1 0 0.108504
0 0.449658 0
0 0.44868 0
0 0.44868 0
0 0.446725 0
0.302053 0.441838 0
0.446725 0.43695 0
0.612903 0.426197 0
0.816227 0.407625 0
1 0 0.101662
0 0.58651 0
0 0.58651 0
0 0.585533 0
0 0.584555 0
0.220919 0.581623 0
0.400782 0.577713 0
0.5826 0.569892 0
0.794721 0.557185 0
1 0 0.0899316
0 0.761486 0
0 0.761486 0
0 0.760508 0
0 0.759531 0
0 0.757576 0
0.301075 0.754643 0
0.524927 0.749756 0
0.756598 0.73998 0
1 0.371457 0.0654936
0 1 0
0 1 0
0 1 0
0 1 0
0 1 0
0 1 0
0 1 0
0 1 0
1 1 0
0 0 0.109482
0.0332356 0 0.107527
0.112414 0 0.101662
0.238514 0 0.101662
0.377322 0 0.102639
0.497556 0 0.103617
0.649071 0 0.106549
0.840665 0 0.110459
1 0 0.13392
0 0.0371457 0.105572
0.026393 0.0351906 0.104594
0.111437 0.0224829 0.100684
0.237537 0 0.101662
0.377322 0 0.102639
0.497556 0 0.103617
0.649071 0 0.106549
0.840665 0 0.110459
1 0 0.13392
0 0.103617 0.0997067
0 0.102639 0.0997067
0.0997067 0.0997067 0.0997067
0.233627 0.086999 0.100684
0.374389 0.0449658 0.101662
0.495601 0 0.103617
0.648094 0 0.105572
0.839687 0 0.109482
1 0 0.13392
0 0.216031 0.0967742
0 0.216031 0.0967742
0 0.215054 0.0967742
0.214076 0.210166 0.0967742
0.363636 0.198436 0.0977517
0.487781 0.182796 0.0997067
0.642229 0.150538 0.101662
0.835777 0.0449658 0.106549
1 0 0.131965
0 0.341153 0.0879765
0 0.341153 0.0879765
0 0.340176 0.0879765
0.160313 0.338221 0.0889541
0.339198 0.331378 0.0899316
0.470186 0.323558 0.0909091
0.628543 0.307918 0.0938416
0.826979 0.27957 0.0987292
1 0 0.128055
0 0.44868 0.0742913
0 0.44868 0.0742913
0 0.44868 0.0742913
0 0.446725 0.0752688
0.301075 0.441838 0.0772239
0.445748 0.435973 0.0791789
0.612903 0.426197 0.0821114
0.816227 0.407625 0.0879765
1 0 0.12219
0 0.58651 0.0400782
0 0.58651 0.0400782
0 0.585533 0.0400782
0 0.584555 0.0420332
0.219941 0.581623 0.0449658
0.400782 0.577713 0.0478983
0.5826 0.569892 0.0537634
0.794721 0.557185 0.0625611
1 0 0.112414
0 0.761486 0
0 0.761486 0
0 0.760508 0
0 0.759531 0
0 0.757576 0
0.300098 0.754643 0
0.524927 0.748778 0
0.756598 0.73998 0
1 0.371457 0.0938416
0 1 0
0 1 0
0 1 0
0 1 0
0 1 0
0 1 0
0 1 0
0 1 0
1 1 0
0 0 0.212121
0 0 0.211144
0.101662 0 0.211144
0.234604 0 0.211144
0.375367 0 0.211144
0.495601 0 0.212121
0.648094 0 0.213099
0.839687 0 0.214076
1 0 0.194526
0 0.0273705 0.211144
0 0.026393 0.211144
0.100684 0 0.211144
0.233627 0 0.211144
0.374389 0 0.211144
0.495601 0 0.212121
0.648094 0 0.213099
0.839687 0 0.214076
1 0 0.194526
0 0.101662 0.210166
0 0.100684 0.210166
0.0879765 0.0987292 0.210166
0.229717 0.085044 0.211144
0.372434 0.0391007 0.211144
0.493646 0 0.211144
0.647116 0 0.213099
0.83871 0 0.214076
1 0 0.194526
0 0.215054 0.209189
0 0.215054 0.209189
0 0.214076 0.209189
0.209189 0.209189 0.209189
0.360704 0.197458 0.209189
0.485826 0.181818 0.210166
0.640274 0.14956 0.211144
0.8348 0.0391007 0.213099
1 0 0.192571
0 0.341153 0.205279
0 0.341153 0.205279
0 0.340176 0.205279
0.154448 0.337243 0.206256
0.336266 0.331378 0.206256
0.468231 0.322581 0.206256
0.627566 0.30694 0.207234
0.826979 0.278592 0.209189
1 0 0.189638
0 0.44868 0.200391
0 0.44868 0.200391
0 0.44868 0.200391
0 0.445748 0.201369
0.298143 0.441838 0.201369
0.443793 0.435973 0.202346
0.610948 0.426197 0.203324
0.815249 0.407625 0.205279
1 0 0.184751
0 0.58651 0.192571
0 0.585533 0.192571
0 0.585533 0.192571
0 0.584555 0.193548
0.215054 0.581623 0.193548
0.397849 0.576735 0.194526
0.581623 0.569892 0.195503
0.793744 0.557185 0.197458
1 0 0.177908
0 0.761486 0.177908
0 0.760508 0.177908
0 0.760508 0.177908
0 0.759531 0.178886
0 0.757576 0.178886
0.297165 0.754643 0.179863
0.522972 0.748778 0.180841
0.755621 0.73998 0.182796
1 0.370479 0.164223
0 1 0
0 1 0
0 1 0
0 1 0
0 1 0
0 1 0
0 1 0
0 1 0
1 1 0
0 0 0.333333
0 0 0.333333
0.0733138 0 0.333333
0.225806 0 0.333333
0.369501 0 0.333333
0.491691 0 0.333333
0.645161 0 0.334311
0.837732 0 0.334311
1 0 0.278592
0 0 0.333333
0 0 0.333333
0.0713587 0 0.333333
0.224829 0 0.333333
0.369501 0 0.333333
0.491691 0 0.333333
0.645161 0 0.334311
0.837732 0 0.334311
1 0 0.278592
0 0.0967742 0.333333
0 0.0967742 0.333333
0.0498534 0.0938416 0.333333
0.219941 0.0791789 0.333333
0.366569 0.0224829 0.332356
0.489736 0 0.333333
0.644184 0 0.334311
0.836755 0 0.334311
1 0 0.278592
0 0.213099 0.331378
0 0.213099 0.331378
0 0.212121 0.331378
0.198436 0.207234 0.331378
0.355816 0.196481 0.332356
0.482893 0.179863 0.332356
0.637341 0.146628 0.332356
0.832845 0.0224829 0.333333
1 0 0.276637
0 0.340176 0.329423
0 0.340176 0.329423
0 0.339198 0.329423
0.138807 0.336266 0.330401
0.330401 0.330401 0.330401
0.464321 0.321603 0.330401
0.624633 0.305963 0.330401
0.825024 0.277615 0.331378
1 0 0.273705
0 0.447703 0.326491
0 0.447703 0.326491
0 0.447703 0.326491
0 0.445748 0.326491
0.2913 0.44086 0.327468
0.439883 0.434995 0.327468
0.608993 0.42522 0.328446
0.813294 0.406647 0.329423
1 0 0.269795
0 0.585533 0.322581
0 0.585533 0.322581
0 0.585533 0.322581
0 0.583578 0.322581
0.205279 0.580645 0.322581
0.393939 0.576735 0.323558
0.57869 0.568915 0.324536
0.791789 0.556207 0.325513
1 0 0.262952
0 0.760508 0.314761
0 0.760508 0.314761
0 0.760508 0.314761
0 0.759531 0.314761
0 0.756598 0.315738
0.290323 0.753666 0.315738
0.520039 0.748778 0.316716
0.752688 0.739003 0.317693
1 0.369501 0.251222
0 1 0
0 1 0
0 1 0
0 1 0
0 1 0
0 1 0
0 1 0
0 1 0
1 1 0.0400782
0 0 0.438905
0 0 0.438905
0 0 0.438905
0.213099 0 0.438905
0.362659 0 0.438905
0.486804 0 0.438905
0.642229 0 0.439883
0.835777 0 0.439883
1 0 0.356794
0 0 0.438905
0 0 0.438905
0 0 0.438905
0.212121 0 0.438905
0.362659 0 0.438905
0.486804 0 0.438905
0.642229 0 0.439883
0.835777 0 0.439883
1 0 0.356794
0 0.0909091 0.438905
0 0.0909091 0.438905
0 0.0879765 0.438905
0.207234 0.0723363 0.438905
0.359726 0 0.438905
0.485826 0 0.438905
0.640274 0 0.438905
0.8348 0 0.438905
1 0 0.355816
0 0.211144 0.437928
0 0.211144 0.437928
0 0.210166 0.437928
0.183773 0.205279 0.437928
0.348974 0.193548 0.437928
0.477028 0.176931 0.437928
0.634409 0.142717 0.437928
0.83089 0 0.438905
1 0 0.354839
0 0.338221 0.435973
0 0.338221 0.435973
0 0.338221 0.43695
0.11437 0.335288 0.43695
0.322581 0.328446 0.43695
0.459433 0.319648 0.435973
0.621701 0.304985 0.43695
0.822092 0.27566 0.437928
1 0 0.350929
0 0.446725 0.434018
0 0.446725 0.434018
0 0.446725 0.434018
0 0.44477 0.434018
0.282502 0.439883 0.434018
0.434995 0.434018 0.434018
0.605083 0.424242 0.434995
0.810362 0.40567 0.435973
1 0 0.347019
0 0.584555 0.431085
0 0.584555 0.431085
0 0.584555 0.431085
0 0.583578 0.431085
0.191593 0.579668 0.431085
0.387097 0.575758 0.432063
0.57478 0.568915 0.432063
0.788856 0.55523 0.43304
1 0 0.339198
0 0.760508 0.426197
0 0.760508 0.426197
0 0.759531 0.426197
0 0.758553 0.426197
0 0.756598 0.426197
0.281525 0.753666 0.426197
0.515152 0.747801 0.427175
0.750733 0.739003 0.427175
1 0.368524 0.327468
0 1 0.159335
0 1 0.159335
0 1 0.159335
0 1 0.159335
0 1 0.159335
0 1 0.159335
0 1 0.159335
0 1 0.158358
1 1 0.15347
0 0 0.572825
0 0 0.572825
0 0 0.572825
0.187683 0 0.571847
0.350929 0 0.571847
0.478983 0 0.572825
0.635386 0 0.572825
0.83089 0 0.572825
1 0 0.457478
0 0 0.572825
0 0 0.572825
0 0 0.572825
0.187683 0 0.571847
0.349951 0 0.571847
0.478983 0 0.572825
0.635386 0 0.572825
0.83089 0 0.572825
1 0 0.457478
0 0.0791789 0.572825
0 0.0791789 0.572825
0 0.0752688 0.571847
0.181818 0.0557185 0.571847
0.347996 0 0.571847
0.477028 0 0.572825
0.634409 0 0.572825
0.829912 0 0.572825
1 0 0.456501
0 0.207234 0.571847
0 0.207234 0.571847
0 0.206256 0.571847
0.15347 0.200391 0.571847
0.336266 0.189638 0.571847
0.469208 0.172043 0.571847
0.627566 0.136852 0.57087
0.826002 0 0.571847
1 0 0.454545
0 0.336266 0.57087
0 0.336266 0.57087
0 0.335288 0.57087
0.0361681 0.333333 0.57087
0.307918 0.326491 0.57087
0.449658 0.317693 0.569892
0.614858 0.302053 0.57087
0.817204 0.272727 0.57087
1 0 0.450635
0 0.445748 0.567937
0 0.445748 0.567937
0 0.44477 0.567937
0 0.442815 0.567937
0.265885 0.438905 0.568915
0.42522 0.43304 0.568915
0.59824 0.422287 0.568915
0.805474 0.403715 0.569892
1 0 0.445748
0 0.583578 0.56696
0 0.583578 0.56696
0 0.583578 0.56696
0 0.581623 0.56696
0.163245 0.57869 0.56696
0.376344 0.57478 0.56696
0.567937 0.56696 0.567937
0.784946 0.554252 0.567937
1 0 0.437928
0 0.759531 0.56305
0 0.759531 0.56305
0 0.759531 0.56305
0 0.757576 0.56305
0 0.755621 0.56305
0.264907 0.752688 0.56305
0.507331 0.747801 0.564027
0.744868 0.738025 0.564027
1 0.367546 0.424242
0 1 0.26393
0 1 0.26393
0 1 0.26393
0 1 0.26393
0 1 0.262952
0 1 0.262952
0 1 0.261975
0 1 0.260997
1 1 0.239492
0 0 0.741935
0 0 0.741935
0 0 0.741935
0.131965 0 0.741935
0.328446 0 0.742913
0.463343 0 0.742913
0.624633 0 0.741935
0.824047 0 0.741935
1 0 0.58651
0 0 0.741935
0 0 0.741935
0 0 0.741935
0.130987 0 0.741935
0.327468 0 0.742913
0.463343 0 0.742913
0.623656 0 0.741935
0.823069 0 0.741935
1 0 0.58651
0 0.0518084 0.741935
0 0.0508309 0.741935
0 0.0449658 0.741935
0.12219 0 0.741935
0.324536 0 0.742913
0.461388 0 0.742913
0.622678 0 0.741935
0.823069 0 0.741935
1 0 0.585533
0 0.200391 0.741935
0 0.200391 0.741935
0 0.198436 0.741935
0.0674487 0.193548 0.741935
0.311828 0.180841 0.741935
0.45259 0.163245 0.741935
0.616813 0.124145 0.740958
0.818182 0 0.741935
1 0 0.583578
0 0.332356 0.740958
0 0.332356 0.740958
0 0.331378 0.740958
0 0.328446 0.740958
0.280547 0.321603 0.73998
0.43304 0.312805 0.73998
0.604106 0.298143 0.740958
0.809384 0.26784 0.740958
1 0 0.57869
0 0.442815 0.739003
0 0.442815 0.739003
0 0.441838 0.739003
0 0.439883 0.739003
0.233627 0.435973 0.739003
0.406647 0.430108 0.73998
0.58651 0.419355 0.73998
0.797654 0.400782 0.740958
1 0 0.573803
0 0.581623 0.738025
0 0.581623 0.738025
0 0.581623 0.738025
0 0.579668 0.738025
0.0889541 0.576735 0.738025
0.355816 0.572825 0.738025
0.55523 0.565005 0.739003
0.776149 0.552297 0.739003
1 0 0.564027
0 0.757576 0.735093
0 0.757576 0.735093
0 0.757576 0.735093
0 0.756598 0.735093
0 0.754643 0.73607
0.231672 0.750733 0.73607
0.493646 0.745846 0.73607
0.73607 0.73607 0.73607
1 0.364614 0.54741
0 1 0.374389
0 1 0.374389
0 1 0.374389
0 1 0.374389
0 1 0.373412
0 1 0.373412
0 1 0.371457
0 1 0.369501
1 1 0.334311
0 0 1
0 0 1
0 0 1
0 0 1
0 0 1
0 0 1
0.31085 0 1
0.640274 0 1
1 0 1
0 0 1
0 0 1
0 0 1
0 0 1
0 0 1
0 0 1
0.31085 0 1
0.640274 0 1
1 0 1
0 0 1
0 0 1
0 0 1
0 0 1
0 0 1
0 0 1
0.307918 0 1
0.639296 0 1
1 0 1
0 0 1
0 0 1
0 0 1
0 0 1
0 0 1
0 0 1
0.294233 0 1
0.633431 0 1
1 0 1
0 0.233627 1
0 0.233627 1
0 0.232649 1
0 0.228739 1
0 0.218964 1
0 0.204301 1
0.260997 0.176931 1
0.620723 0.109482 1
1 0 1
0 0.380254 1
0 0.380254 1
0 0.380254 1
0 0.377322 1
0 0.372434 1
0 0.364614 1
0.207234 0.351906 1
0.59433 0.322581 1
1 0 1
0 0.538612 1
0 0.538612 1
0 0.538612 1
0 0.536657 1
0 0.530792 1
0 0.521994 1
0 0.505376 1
0.5435 0.478983 1
1 0 1
0 0.684262 1
0 0.684262 1
0 0.684262 1
0 0.681329 1
0 0.674487 1
0 0.667644 1
0 0.653959 1
0.461388 0.632454 1
1 0.30694 1
0 1 1
0 1 1
0 1 1
0 1 1
0 1 1
0 1 1
0 1 1
0 1 1
0.999022 0.999022 0.999022
