proprietary/odm/etc/hdr3dlut_pq_qcom_grid_out_rgb.cube
LUT_3D_SIZE 5
0 0 0
0.116325 0 0.00684262
0.378299 0 0.0224829
0.650049 0 0.0391007
1 0 0.113392
0 0.103617 0
0.102639 0.100684 0
0.375367 0.0459433 0.0166178
0.648094 0 0.0361681
1 0 0.112414
0 0.341153 0
0 0.341153 0
0.339198 0.331378 0
0.629521 0.307918 0
1 0 0.105572
0 0.58651 0
0 0.585533 0
0.220919 0.581623 0
0.5826 0.569892 0
1 0 0.086999
0 1 0
0 1 0
0 1 0
0 1 0
1 1 0
0 0 0.109482
0.112414 0 0.101662
0.377322 0 0.102639
0.649071 0 0.106549
1 0 0.13392
0 0.103617 0.0997067
0.0997067 0.0997067 0.0997067
0.374389 0.0449658 0.101662
0.648094 0 0.105572
1 0 0.13392
0 0.341153 0.0879765
0 0.340176 0.0879765
0.339198 0.331378 0.0899316
0.628543 0.307918 0.0938416
1 0 0.128055
0 0.58651 0.0400782
0 0.585533 0.0400782
0.219941 0.581623 0.0449658
0.5826 0.569892 0.0537634
1 0 0.112414
0 1 0
0 1 0
0 1 0
0 1 0
1 1 0
0 0 0.333333
0.0733138 0 0.333333
0.369501 0 0.333333
0.645161 0 0.334311
1 0 0.278592
0 0.0967742 0.333333
0.0498534 0.0938416 0.333333
0.366569 0.0224829 0.332356
0.644184 0 0.334311
1 0 0.278592
0 0.340176 0.329423
0 0.339198 0.329423
0.330401 0.330401 0.330401
0.624633 0.305963 0.330401
1 0 0.273705
0 0.585533 0.322581
0 0.585533 0.322581
0.205279 0.580645 0.322581
0.57869 0.568915 0.324536
1 0 0.262952
0 1 0
0 1 0
0 1 0
0 1 0
1 1 0.0400782
0 0 0.572825
0 0 0.572825
0.350929 0 0.571847
0.635386 0 0.572825
1 0 0.457478
0 0.0791789 0.572825
0 0.0752688 0.571847
0.347996 0 0.571847
0.634409 0 0.572825
1 0 0.456501
0 0.336266 0.57087
0 0.335288 0.57087
0.307918 0.326491 0.57087
0.614858 0.302053 0.57087
1 0 0.450635
0 0.583578 0.56696
0 0.583578 0.56696
0.163245 0.57869 0.56696
0.567937 0.56696 0.567937
1 0 0.437928
0 1 0.26393
0 1 0.26393
0 1 0.262952
0 1 0.261975
1 1 0.239492
0 0 1
0 0 1
0 0 1
0.31085 0 1
1 0 1
0 0 1
0 0 1
0 0 1
0.307918 0 1
1 0 1
0 0.233627 1
0 0.232649 1
0 0.218964 1
0.260997 0.176931 1
1 0 1
0 0.538612 1
0 0.538612 1
0 0.530792 1
0 0.505376 1
1 0 1
0 1 1
0 1 1
0 1 1
0 1 1
0.999022 0.999022 0.999022
