proprietary/odm/etc/camera/filters_lut/dolby_preview_3dlut.cube
#Created by : Dolby Laboratories
#Copyright: (C) Copyright 2022 Dolby Laboratories
#is_rgb_input 1
#is_rgb_output 1
#input_offset 0.000000
#shape_order 1.000000
#format 6
# MaxLuma:800.00 MinLuma:0.00010 Eotf=Gamma
#LUT Size
LUT_3D_SIZE 5
#data domain
DOMAIN_MIN 0 0 0
DOMAIN_MAX 1.0 1.0 1.0
#LUT data points
0.0009775171 0.0009775171 0.0009775171
0.1554252207 0.0009775171 0.0097751711
0.3176930547 0.0009775171 0.0244379286
0.5532746911 0.0009775171 0.0527859256
0.9305962920 0.0009775171 0.1055718511
0.0009775171 0.1612903178 0.0009775171
0.1642228812 0.1632453501 0.0009775171
0.3470185697 0.1583577693 0.0009775171
0.5943304300 0.1290322542 0.0391006842
0.9667643905 0.0615835786 0.1006842628
0.0009775171 0.3431085050 0.0009775171
0.1026392952 0.3460410535 0.0009775171
0.3479960859 0.3460410535 0.0009775171
0.6285434961 0.3284457624 0.0009775171
1.0000000000 0.2570869923 0.0791788846
0.0009775171 0.6041055918 0.0009775171
0.0009775171 0.6060606241 0.0009775171
0.2541544437 0.6060606241 0.0009775171
0.5982404947 0.5962854624 0.0009775171
1.0000000000 0.5259041786 0.0009775171
0.0009775171 1.0000000000 0.0009775171
0.0009775171 1.0000000000 0.0009775171
0.0009775171 1.0000000000 0.0009775171
0.3470185697 1.0000000000 0.0009775171
0.9990224838 0.9951124191 0.0009775171
0.0009775171 0.0107526882 0.1212121248
0.1593352854 0.0009775171 0.1446725279
0.3284457624 0.0009775171 0.1612903178
0.5738025308 0.0009775171 0.1759530753
0.9589442611 0.0009775171 0.1896383166
0.0009775171 0.1622678339 0.1573802531
0.1622678339 0.1632453501 0.1632453501
0.3519061506 0.1583577693 0.1730205268
0.6099706888 0.1221896410 0.1808406711
0.9931573868 0.0009775171 0.1896383166
0.0009775171 0.3470185697 0.1749755591
0.0918866098 0.3489736021 0.1759530753
0.3489736021 0.3479960859 0.1788856238
0.6363636255 0.3304007947 0.1818181872
1.0000000000 0.2521994114 0.1867057681
0.0009775171 0.6109482050 0.1652003974
0.0009775171 0.6119257212 0.1652003974
0.2512218952 0.6119257212 0.1642228812
0.6011730433 0.6001955271 0.1632453501
1.0000000000 0.5288367271 0.1661779135
0.0009775171 1.0000000000 0.0488758571
0.0009775171 1.0000000000 0.0459433049
0.0009775171 1.0000000000 0.0351906158
0.3440860212 1.0000000000 0.0009775171
1.0000000000 0.9990224838 0.0009775171
0.0009775171 0.0254154447 0.2512218952
0.1564027369 0.0009775171 0.2795698941
0.3382209241 0.0009775171 0.3069403768
0.5943304300 0.0009775171 0.3235581517
0.9960899353 0.0009775171 0.3216031194
0.0009775171 0.1642228812 0.2971652150
0.1524926722 0.1642228812 0.3088954091
0.3519061506 0.1573802531 0.3274682164
0.6217008829 0.1124144644 0.3382209241
1.0000000000 0.0009775171 0.3264907002
0.0009775171 0.3479960859 0.3362658918
0.0557184741 0.3489736021 0.3401759565
0.3440860212 0.3470185697 0.3460410535
0.6392961740 0.3294232786 0.3509286344
1.0000000000 0.2434017658 0.3352883756
0.0009775171 0.6148582697 0.3460410535
0.0009775171 0.6158357859 0.3460410535
0.2424242496 0.6138807535 0.3470185697
0.6021505594 0.6011730433 0.3460410535
1.0000000000 0.5307917595 0.3333333433
0.0009775171 1.0000000000 0.2952101529
0.0009775171 1.0000000000 0.2952101529
0.0009775171 1.0000000000 0.2942326367
0.3391984403 1.0000000000 0.2913000882
1.0000000000 1.0000000000 0.2825024426
0.0009775171 0.0527859256 0.4662756622
0.1280547380 0.0009775171 0.4995112419
0.3401759565 0.0009775171 0.5395894647
0.6168133020 0.0009775171 0.5591397882
1.0000000000 0.0009775171 0.5327468514
0.0009775171 0.1710654944 0.5112414360
0.1085043997 0.1691104621 0.5317693353
0.3421309888 0.1554252207 0.5591397882
0.6275659800 0.0957966745 0.5747800469
1.0000000000 0.0009775171 0.5434995294
0.0009775171 0.3460410535 0.5669599175
0.0009775171 0.3470185697 0.5747800469
0.3264907002 0.3450635374 0.5865102410
0.6324535608 0.3255131841 0.5933528543
1.0000000000 0.2287390083 0.5620723367
0.0009775171 0.6119257212 0.5923753381
0.0009775171 0.6119257212 0.5943304300
0.2130987346 0.6099706888 0.5962854624
0.5913978219 0.5972629786 0.5953079462
1.0000000000 0.5317693353 0.5747800469
0.0009775171 1.0000000000 0.5493646264
0.0009775171 1.0000000000 0.5493646264
0.0009775171 1.0000000000 0.5493646264
0.3235581517 1.0000000000 0.5474095941
1.0000000000 1.0000000000 0.5337243676
0.0009775171 0.1280547380 0.9237536788
0.0009775171 0.0967741907 0.9550341964
0.2727272809 0.0009775171 1.0000000000
0.6031280756 0.0009775171 1.0000000000
1.0000000000 0.0009775171 0.9980449677
0.0009775171 0.2043010741 0.9511241317
0.0009775171 0.1925708652 0.9765396118
0.2639296055 0.1632453501 1.0000000000
0.6001955271 0.0606060624 1.0000000000
1.0000000000 0.0009775171 1.0000000000
0.0009775171 0.3479960859 1.0000000000
0.0009775171 0.3470185697 1.0000000000
0.2267839760 0.3391984403 1.0000000000
0.5904203057 0.3147605062 1.0000000000
1.0000000000 0.1994134933 1.0000000000
0.0009775171 0.5943304300 1.0000000000
0.0009775171 0.5953079462 1.0000000000
0.0009775171 0.5933528543 1.0000000000
0.5425220132 0.5826001763 1.0000000000
1.0000000000 0.5180840492 1.0000000000
0.0009775171 1.0000000000 1.0000000000
0.0009775171 1.0000000000 1.0000000000
0.0009775171 1.0000000000 1.0000000000
0.2404692024 1.0000000000 1.0000000000
0.9882698059 0.9970674515 0.9941349030
