proprietary/odm/etc/camera/filters_lut/dolby_preview_3dlut.cube
#Created by : Dolby Laboratories
#Copyright: (C) Copyright 2022 Dolby Laboratories
#is_rgb_input 1
#is_rgb_output 1
#input_offset 0.000000
#shape_order 1.000000
#format 6
# MaxLuma:800.00 MinLuma:0.00010 Eotf=Gamma
#LUT Size
LUT_3D_SIZE 33
#data domain
DOMAIN_MIN 0 0 0
DOMAIN_MAX 1.0 1.0 1.0
#LUT data points
0.0009775171 0.0009775171 0.0009775171
0.0175953079 0.0009775171 0.0009775171
0.0361681320 0.0009775171 0.0019550342
0.0557184741 0.0009775171 0.0029325513
0.0752688199 0.0009775171 0.0039100684
0.0948191583 0.0009775171 0.0048875855
0.1153470203 0.0009775171 0.0068426197
0.1358748823 0.0009775171 0.0078201368
0.1554252207 0.0009775171 0.0097751711
0.1759530753 0.0009775171 0.0117302053
0.1964809448 0.0009775171 0.0127077224
0.2170087993 0.0009775171 0.0146627566
0.2365591377 0.0009775171 0.0166177917
0.2570869923 0.0009775171 0.0185728259
0.2776148617 0.0009775171 0.0205278601
0.2971652150 0.0009775171 0.0224828944
0.3176930547 0.0009775171 0.0244379286
0.3382209241 0.0009775171 0.0273704790
0.3616813421 0.0009775171 0.0293255132
0.3870967627 0.0009775171 0.0322580636
0.4154447615 0.0009775171 0.0351906158
0.4467253089 0.0009775171 0.0391006842
0.4799608886 0.0009775171 0.0430107526
0.5151515007 0.0009775171 0.0478983372
0.5532746911 0.0009775171 0.0527859256
0.5933528543 0.0009775171 0.0576735102
0.6353861094 0.0009775171 0.0635386109
0.6793743968 0.0009775171 0.0703812316
0.7253177166 0.0009775171 0.0762463361
0.7732160091 0.0009775171 0.0830889568
0.8240469098 0.0009775171 0.0909090936
0.8758553267 0.0009775171 0.0977517143
0.9305962920 0.0009775171 0.1055718511
0.0009775171 0.0175953079 0.0009775171
0.0175953079 0.0175953079 0.0009775171
0.0361681320 0.0166177917 0.0009775171
0.0557184741 0.0146627566 0.0009775171
0.0762463361 0.0097751711 0.0029325513
0.0957966745 0.0009775171 0.0039100684
0.1163245365 0.0009775171 0.0058651026
0.1358748823 0.0009775171 0.0078201368
0.1564027369 0.0009775171 0.0087976540
0.1769305915 0.0009775171 0.0107526882
0.1974584609 0.0009775171 0.0127077224
0.2179863155 0.0009775171 0.0146627566
0.2375366539 0.0009775171 0.0166177917
0.2580645084 0.0009775171 0.0185728259
0.2785923779 0.0009775171 0.0205278601
0.2981427312 0.0009775171 0.0224828944
0.3186705709 0.0009775171 0.0244379286
0.3391984403 0.0009775171 0.0263929628
0.3626588583 0.0009775171 0.0293255132
0.3880742788 0.0009775171 0.0322580636
0.4164222777 0.0009775171 0.0351906158
0.4477028251 0.0009775171 0.0391006842
0.4809384048 0.0009775171 0.0430107526
0.5161290169 0.0009775171 0.0478983372
0.5542522073 0.0009775171 0.0527859256
0.5943304300 0.0009775171 0.0576735102
0.6363636255 0.0009775171 0.0635386109
0.6803519130 0.0009775171 0.0703812316
0.7262952328 0.0009775171 0.0762463361
0.7741935253 0.0009775171 0.0830889568
0.8250244260 0.0009775171 0.0909090936
0.8768328428 0.0009775171 0.0977517143
0.9315738082 0.0009775171 0.1055718511
0.0009775171 0.0361681320 0.0009775171
0.0107526882 0.0361681320 0.0009775171
0.0361681320 0.0361681320 0.0009775171
0.0566959940 0.0351906158 0.0009775171
0.0772238523 0.0351906158 0.0009775171
0.0977517143 0.0332355835 0.0009775171
0.1182795689 0.0312805474 0.0009775171
0.1378299147 0.0273704790 0.0048875855
0.1583577693 0.0215053763 0.0068426197
0.1788856238 0.0117302053 0.0087976540
0.1994134933 0.0009775171 0.0107526882
0.2199413478 0.0009775171 0.0127077224
0.2404692024 0.0009775171 0.0146627566
0.2609970570 0.0009775171 0.0166177917
0.2805474102 0.0009775171 0.0185728259
0.3010752797 0.0009775171 0.0215053763
0.3206256032 0.0009775171 0.0234604105
0.3421309888 0.0009775171 0.0254154447
0.3655914068 0.0009775171 0.0283479970
0.3910068572 0.0009775171 0.0312805474
0.4193548262 0.0009775171 0.0342130996
0.4506353736 0.0009775171 0.0381231681
0.4838709533 0.0009775171 0.0420332365
0.5190615654 0.0009775171 0.0469208211
0.5571847558 0.0009775171 0.0518084057
0.5962854624 0.0009775171 0.0566959940
0.6383186579 0.0009775171 0.0625610948
0.6823069453 0.0009775171 0.0694037154
0.7282502651 0.0009775171 0.0762463361
0.7771260738 0.0009775171 0.0830889568
0.8269794583 0.0009775171 0.0899315774
0.8787878752 0.0009775171 0.0977517143
0.9335288405 0.0009775171 0.1055718511
0.0009775171 0.0557184741 0.0009775171
0.0009775171 0.0557184741 0.0009775171
0.0322580636 0.0557184741 0.0009775171
0.0557184741 0.0557184741 0.0009775171
0.0782013685 0.0557184741 0.0009775171
0.0987292305 0.0547409579 0.0009775171
0.1192570850 0.0537634417 0.0009775171
0.1397849470 0.0527859256 0.0009775171
0.1612903178 0.0508308895 0.0009775171
0.1818181872 0.0478983372 0.0029325513
0.2023460418 0.0449657887 0.0068426197
0.2228738964 0.0410557203 0.0097751711
0.2434017658 0.0361681320 0.0117302053
0.2639296055 0.0283479970 0.0146627566
0.2844574749 0.0175953079 0.0166177917
0.3049853444 0.0009775171 0.0195503421
0.3245356679 0.0009775171 0.0215053763
0.3460410535 0.0009775171 0.0234604105
0.3695014715 0.0009775171 0.0263929628
0.3958944380 0.0009775171 0.0303030312
0.4242424369 0.0009775171 0.0332355835
0.4555229843 0.0009775171 0.0371456519
0.4887585640 0.0009775171 0.0410557203
0.5239491463 0.0009775171 0.0459433049
0.5610948205 0.0009775171 0.0508308895
0.6011730433 0.0009775171 0.0566959940
0.6422287226 0.0009775171 0.0625610948
0.6862170100 0.0009775171 0.0684261993
0.7321603298 0.0009775171 0.0752688199
0.7800586224 0.0009775171 0.0821114406
0.8299120069 0.0009775171 0.0899315774
0.8817204237 0.0009775171 0.0977517143
0.9364613891 0.0009775171 0.1055718511
0.0009775171 0.0762463361 0.0009775171
0.0009775171 0.0762463361 0.0009775171
0.0224828944 0.0762463361 0.0009775171
0.0527859256 0.0762463361 0.0009775171
0.0772238523 0.0762463361 0.0009775171
0.0987292305 0.0762463361 0.0009775171
0.1202346012 0.0762463361 0.0009775171
0.1417399794 0.0752688199 0.0009775171
0.1632453501 0.0742913038 0.0009775171
0.1847507358 0.0733137801 0.0009775171
0.2052785903 0.0713587478 0.0009775171
0.2267839760 0.0694037154 0.0009775171
0.2473118305 0.0664711669 0.0058651026
0.2678397000 0.0635386109 0.0097751711
0.2893450558 0.0596285425 0.0127077224
0.3088954091 0.0557184741 0.0156402737
0.3294232786 0.0508308895 0.0185728259
0.3509286344 0.0449657887 0.0215053763
0.3743890524 0.0361681320 0.0244379286
0.4007820189 0.0224828944 0.0273704790
0.4301075339 0.0009775171 0.0312805474
0.4604105651 0.0009775171 0.0351906158
0.4936461449 0.0009775171 0.0400782004
0.5288367271 0.0009775171 0.0449657887
0.5669599175 0.0009775171 0.0498533733
0.6060606241 0.0009775171 0.0547409579
0.6480938196 0.0009775171 0.0606060624
0.6920821071 0.0009775171 0.0674486831
0.7370479107 0.0009775171 0.0742913038
0.7849462628 0.0009775171 0.0811339170
0.8347995877 0.0009775171 0.0889540538
0.8866080046 0.0009775171 0.0967741907
0.9403714538 0.0009775171 0.1045943275
0.0009775171 0.0967741907 0.0009775171
0.0009775171 0.0967741907 0.0009775171
0.0009775171 0.0967741907 0.0009775171
0.0469208211 0.0967741907 0.0009775171
0.0742913038 0.0977517143 0.0009775171
0.0977517143 0.0977517143 0.0009775171
0.1202346012 0.0977517143 0.0009775171
0.1427174956 0.0977517143 0.0009775171
0.1642228812 0.0967741907 0.0009775171
0.1867057681 0.0957966745 0.0009775171
0.2082111388 0.0948191583 0.0009775171
0.2297165245 0.0938416421 0.0009775171
0.2512218952 0.0918866098 0.0009775171
0.2717497647 0.0899315774 0.0009775171
0.2932551205 0.0879765376 0.0048875855
0.3137829900 0.0850439891 0.0097751711
0.3343108594 0.0821114406 0.0136852395
0.3567937315 0.0791788846 0.0175953079
0.3802541494 0.0742913038 0.0205278601
0.4066471159 0.0694037154 0.0244379286
0.4359726310 0.0625610948 0.0283479970
0.4672531784 0.0537634417 0.0332355835
0.5004887581 0.0420332365 0.0371456519
0.5356794000 0.0215053763 0.0420332365
0.5728250146 0.0009775171 0.0478983372
0.6129032373 0.0009775171 0.0537634417
0.6539589167 0.0009775171 0.0596285425
0.6979472041 0.0009775171 0.0664711669
0.7438905239 0.0009775171 0.0733137801
0.7908113599 0.0009775171 0.0801564008
0.8406646848 0.0009775171 0.0879765376
0.8924731016 0.0009775171 0.0957966745
0.9462365508 0.0009775171 0.1036168113
0.0009775171 0.1173020527 0.0009775171
0.0009775171 0.1182795689 0.0009775171
0.0009775171 0.1182795689 0.0009775171
0.0351906158 0.1182795689 0.0009775171
0.0694037154 0.1182795689 0.0009775171
0.0957966745 0.1192570850 0.0009775171
0.1192570850 0.1192570850 0.0009775171
0.1427174956 0.1192570850 0.0009775171
0.1652003974 0.1192570850 0.0009775171
0.1876832843 0.1182795689 0.0009775171
0.2101661712 0.1182795689 0.0009775171
0.2316715568 0.1173020527 0.0009775171
0.2531769276 0.1163245365 0.0009775171
0.2756598294 0.1143695042 0.0009775171
0.2971652150 0.1124144644 0.0009775171
0.3186705709 0.1104594320 0.0009775171
0.3391984403 0.1085043997 0.0009775171
0.3616813421 0.1065493673 0.0097751711
0.3861192465 0.1036168113 0.0156402737
0.4134897292 0.0997067466 0.0205278601
0.4418377280 0.0957966745 0.0244379286
0.4740957916 0.0899315774 0.0293255132
0.5073313713 0.0830889568 0.0351906158
0.5425220132 0.0752688199 0.0400782004
0.5806451440 0.0654936433 0.0459433049
0.6197458506 0.0508308895 0.0518084057
0.6617791057 0.0322580636 0.0576735102
0.7047898173 0.0009775171 0.0645161271
0.7507331371 0.0009775171 0.0713587478
0.7986314893 0.0009775171 0.0791788846
0.8475073576 0.0009775171 0.0869990215
0.8993157148 0.0009775171 0.0948191583
0.9521016479 0.0009775171 0.1026392952
0.0009775171 0.1397849470 0.0009775171
0.0009775171 0.1397849470 0.0009775171
0.0009775171 0.1397849470 0.0009775171
0.0009775171 0.1397849470 0.0009775171
0.0615835786 0.1397849470 0.0009775171
0.0918866098 0.1407624632 0.0009775171
0.1173020527 0.1407624632 0.0009775171
0.1417399794 0.1407624632 0.0009775171
0.1652003974 0.1407624632 0.0009775171
0.1886608005 0.1407624632 0.0009775171
0.2111437023 0.1407624632 0.0009775171
0.2336265892 0.1397849470 0.0009775171
0.2561094761 0.1388074309 0.0009775171
0.2785923779 0.1378299147 0.0009775171
0.3000977635 0.1368523985 0.0009775171
0.3225806355 0.1358748823 0.0009775171
0.3440860212 0.1339198500 0.0009775171
0.3665689230 0.1319648027 0.0009775171
0.3910068572 0.1300097704 0.0009775171
0.4183773100 0.1270772219 0.0127077224
0.4477028251 0.1231671572 0.0195503421
0.4799608886 0.1192570850 0.0254154447
0.5141739845 0.1133919880 0.0312805474
0.5493646264 0.1075268835 0.0361681320
0.5874877572 0.0997067466 0.0430107526
0.6275659800 0.0918866098 0.0488758571
0.6695992351 0.0821114406 0.0557184741
0.7126099467 0.0723362640 0.0625610948
0.7585532665 0.0586510263 0.0694037154
0.8064516187 0.0420332365 0.0772238523
0.8553274870 0.0185728259 0.0850439891
0.9061583281 0.0009775171 0.0938416421
0.9589442611 0.0009775171 0.1016617790
0.0009775171 0.1612903178 0.0009775171
0.0009775171 0.1612903178 0.0009775171
0.0009775171 0.1612903178 0.0009775171
0.0009775171 0.1622678339 0.0009775171
0.0488758571 0.1622678339 0.0009775171
0.0850439891 0.1622678339 0.0009775171
0.1133919880 0.1632453501 0.0009775171
0.1397849470 0.1632453501 0.0009775171
0.1642228812 0.1632453501 0.0009775171
0.1876832843 0.1632453501 0.0009775171
0.2111437023 0.1632453501 0.0009775171
0.2346041054 0.1632453501 0.0009775171
0.2580645084 0.1622678339 0.0009775171
0.2805474102 0.1612903178 0.0009775171
0.3030303121 0.1612903178 0.0009775171
0.3255131841 0.1593352854 0.0009775171
0.3470185697 0.1583577693 0.0009775171
0.3704789877 0.1573802531 0.0009775171
0.3958944380 0.1554252207 0.0009775171
0.4232649207 0.1524926722 0.0009775171
0.4535679519 0.1495601237 0.0078201368
0.4858260155 0.1456500441 0.0185728259
0.5200390816 0.1407624632 0.0254154447
0.5562072396 0.1358748823 0.0322580636
0.5943304300 0.1290322542 0.0391006842
0.6353861094 0.1221896410 0.0459433049
0.6774193645 0.1143695042 0.0527859256
0.7214076519 0.1055718511 0.0596285425
0.7673509121 0.0957966745 0.0674486831
0.8142717481 0.0860215053 0.0752688199
0.8631476164 0.0782013685 0.0830889568
0.9149560332 0.0703812316 0.0918866098
0.9667643905 0.0615835786 0.1006842628
0.0009775171 0.1837732196 0.0009775171
0.0009775171 0.1837732196 0.0009775171
0.0009775171 0.1837732196 0.0009775171
0.0009775171 0.1837732196 0.0009775171
0.0205278601 0.1847507358 0.0009775171
0.0762463361 0.1847507358 0.0009775171
0.1085043997 0.1847507358 0.0009775171
0.1358748823 0.1857282519 0.0009775171
0.1622678339 0.1857282519 0.0009775171
0.1867057681 0.1857282519 0.0009775171
0.2111437023 0.1857282519 0.0009775171
0.2346041054 0.1857282519 0.0009775171
0.2580645084 0.1857282519 0.0009775171
0.2815249264 0.1847507358 0.0009775171
0.3049853444 0.1847507358 0.0009775171
0.3274682164 0.1837732196 0.0009775171
0.3499511182 0.1827957034 0.0009775171
0.3734115362 0.1818181872 0.0009775171
0.3998045027 0.1798631549 0.0009775171
0.4281525016 0.1779081076 0.0009775171
0.4584555328 0.1749755591 0.0009775171
0.4907135963 0.1710654944 0.0009775171
0.5259041786 0.1671554297 0.0166177917
0.5630498528 0.1612903178 0.0263929628
0.6021505594 0.1564027369 0.0342130996
0.6422287226 0.1495601237 0.0410557203
0.6852394938 0.1417399794 0.0488758571
0.7292277813 0.1339198500 0.0566959940
0.7751710415 0.1260997057 0.0654936433
0.8230693936 0.1182795689 0.0733137801
0.8719452620 0.1094819158 0.0811339170
0.9227761626 0.1016617790 0.0899315774
0.9755620956 0.0938416421 0.0987292305
0.0009775171 0.2052785903 0.0009775171
0.0009775171 0.2062561065 0.0009775171
0.0009775171 0.2062561065 0.0009775171
0.0009775171 0.2062561065 0.0009775171
0.0009775171 0.2072336227 0.0009775171
0.0615835786 0.2072336227 0.0009775171
0.1006842628 0.2072336227 0.0009775171
0.1309872866 0.2082111388 0.0009775171
0.1593352854 0.2082111388 0.0009775171
0.1847507358 0.2091886550 0.0009775171
0.2101661712 0.2091886550 0.0009775171
0.2346041054 0.2091886550 0.0009775171
0.2580645084 0.2091886550 0.0009775171
0.2825024426 0.2082111388 0.0009775171
0.3059628606 0.2082111388 0.0009775171
0.3294232786 0.2072336227 0.0009775171
0.3528836668 0.2072336227 0.0009775171
0.3763440847 0.2052785903 0.0009775171
0.4027370512 0.2043010741 0.0009775171
0.4310850501 0.2023460418 0.0009775171
0.4623655975 0.1994134933 0.0009775171
0.4956011772 0.1964809448 0.0009775171
0.5307917595 0.1925708652 0.0009775171
0.5679374337 0.1876832843 0.0166177917
0.6080156565 0.1818181872 0.0273704790
0.6490713358 0.1759530753 0.0361681320
0.6920821071 0.1681329459 0.0449657887
0.7370479107 0.1612903178 0.0527859256
0.7839687467 0.1534701884 0.0615835786
0.8318670392 0.1446725279 0.0703812316
0.8807429075 0.1368523985 0.0791788846
0.9315738082 0.1280547380 0.0879765376
0.9843597412 0.1212121248 0.0967741907
0.0009775171 0.2287390083 0.0009775171
0.0009775171 0.2287390083 0.0009775171
0.0009775171 0.2287390083 0.0009775171
0.0009775171 0.2287390083 0.0009775171
0.0009775171 0.2297165245 0.0009775171
0.0342130996 0.2297165245 0.0009775171
0.0899315774 0.2306940407 0.0009775171
0.1251221895 0.2306940407 0.0009775171
0.1544477046 0.2316715568 0.0009775171
0.1818181872 0.2316715568 0.0009775171
0.2082111388 0.2316715568 0.0009775171
0.2336265892 0.2316715568 0.0009775171
0.2580645084 0.2326490730 0.0009775171
0.2825024426 0.2316715568 0.0009775171
0.3069403768 0.2316715568 0.0009775171
0.3304007947 0.2316715568 0.0009775171
0.3538611829 0.2306940407 0.0009775171
0.3782991171 0.2297165245 0.0009775171
0.4046920836 0.2287390083 0.0009775171
0.4340175986 0.2267839760 0.0009775171
0.4652981460 0.2238514125 0.0009775171
0.4985337257 0.2209188640 0.0009775171
0.5347018838 0.2170087993 0.0009775171
0.5738025308 0.2121212184 0.0009775171
0.6129032373 0.2072336227 0.0166177917
0.6559139490 0.2013685256 0.0303030312
0.6989247203 0.1945258975 0.0391006842
0.7448680401 0.1867057681 0.0488758571
0.7917888761 0.1788856238 0.0576735102
0.8406646848 0.1700879782 0.0674486831
0.8895405531 0.1622678339 0.0762463361
0.9413489699 0.1534701884 0.0850439891
0.9941349030 0.1466275603 0.0948191583
0.0009775171 0.2512218952 0.0009775171
0.0009775171 0.2512218952 0.0009775171
0.0009775171 0.2512218952 0.0009775171
0.0009775171 0.2521994114 0.0009775171
0.0009775171 0.2521994114 0.0009775171
0.0009775171 0.2531769276 0.0009775171
0.0752688199 0.2531769276 0.0009775171
0.1163245365 0.2541544437 0.0009775171
0.1485826075 0.2541544437 0.0009775171
0.1779081076 0.2551319599 0.0009775171
0.2043010741 0.2551319599 0.0009775171
0.2316715568 0.2551319599 0.0009775171
0.2570869923 0.2551319599 0.0009775171
0.2815249264 0.2551319599 0.0009775171
0.3059628606 0.2551319599 0.0009775171
0.3304007947 0.2551319599 0.0009775171
0.3538611829 0.2541544437 0.0009775171
0.3782991171 0.2531769276 0.0009775171
0.4056695998 0.2521994114 0.0009775171
0.4349951148 0.2502443790 0.0009775171
0.4672531784 0.2482893467 0.0009775171
0.5014662743 0.2453567982 0.0009775171
0.5386119485 0.2414467186 0.0009775171
0.5767350793 0.2375366539 0.0009775171
0.6177908182 0.2326490730 0.0009775171
0.6608015895 0.2258064449 0.0195503421
0.7057673335 0.2189638317 0.0322580636
0.7517106533 0.2111437023 0.0439882688
0.7996090055 0.2033235580 0.0527859256
0.8484848738 0.1945258975 0.0625610948
0.8983381987 0.1847507358 0.0733137801
0.9501466155 0.1769305915 0.0830889568
1.0000000000 0.1691104621 0.0928641260
0.0009775171 0.2746823132 0.0009775171
0.0009775171 0.2746823132 0.0009775171
0.0009775171 0.2746823132 0.0009775171
0.0009775171 0.2746823132 0.0009775171
0.0009775171 0.2756598294 0.0009775171
0.0009775171 0.2756598294 0.0009775171
0.0518084057 0.2766373456 0.0009775171
0.1045943275 0.2776148617 0.0009775171
0.1407624632 0.2776148617 0.0009775171
0.1720430106 0.2776148617 0.0009775171
0.2013685256 0.2785923779 0.0009775171
0.2287390083 0.2785923779 0.0009775171
0.2551319599 0.2785923779 0.0009775171
0.2795698941 0.2785923779 0.0009775171
0.3049853444 0.2785923779 0.0009775171
0.3294232786 0.2785923779 0.0009775171
0.3538611829 0.2776148617 0.0009775171
0.3782991171 0.2766373456 0.0009775171
0.4066471159 0.2756598294 0.0009775171
0.4359726310 0.2737047970 0.0009775171
0.4682306945 0.2717497647 0.0009775171
0.5034213066 0.2688172162 0.0009775171
0.5405669808 0.2658846676 0.0009775171
0.5806451440 0.2619745731 0.0009775171
0.6217008829 0.2570869923 0.0009775171
0.6656891704 0.2502443790 0.0009775171
0.7116324306 0.2434017658 0.0224828944
0.7585532665 0.2355816215 0.0361681320
0.8064516187 0.2267839760 0.0478983372
0.8563050032 0.2179863155 0.0586510263
0.9071359038 0.2101661712 0.0694037154
0.9589442611 0.2003910094 0.0791788846
1.0000000000 0.1915933490 0.0899315774
0.0009775171 0.2971652150 0.0009775171
0.0009775171 0.2981427312 0.0009775171
0.0009775171 0.2981427312 0.0009775171
0.0009775171 0.2981427312 0.0009775171
0.0009775171 0.2991202474 0.0009775171
0.0009775171 0.2991202474 0.0009775171
0.0009775171 0.3000977635 0.0009775171
0.0889540538 0.3000977635 0.0009775171
0.1309872866 0.3010752797 0.0009775171
0.1652003974 0.3010752797 0.0009775171
0.1955034286 0.3010752797 0.0009775171
0.2238514125 0.3020527959 0.0009775171
0.2512218952 0.3020527959 0.0009775171
0.2776148617 0.3020527959 0.0009775171
0.3030303121 0.3020527959 0.0009775171
0.3284457624 0.3010752797 0.0009775171
0.3519061506 0.3010752797 0.0009775171
0.3782991171 0.3000977635 0.0009775171
0.4056695998 0.2991202474 0.0009775171
0.4359726310 0.2971652150 0.0009775171
0.4692082107 0.2952101529 0.0009775171
0.5043988228 0.2932551205 0.0009775171
0.5425220132 0.2893450558 0.0009775171
0.5826001763 0.2854349911 0.0009775171
0.6246334314 0.2805474102 0.0009775171
0.6695992351 0.2746823132 0.0009775171
0.7165200114 0.2678397000 0.0009775171
0.7644183636 0.2600195408 0.0273704790
0.8132942319 0.2512218952 0.0420332365
0.8641251326 0.2424242496 0.0537634417
0.9149560332 0.2326490730 0.0654936433
0.9677419066 0.2228738964 0.0762463361
1.0000000000 0.2140762508 0.0869990215
0.0009775171 0.3206256032 0.0009775171
0.0009775171 0.3206256032 0.0009775171
0.0009775171 0.3206256032 0.0009775171
0.0009775171 0.3216031194 0.0009775171
0.0009775171 0.3216031194 0.0009775171
0.0009775171 0.3225806355 0.0009775171
0.0009775171 0.3225806355 0.0009775171
0.0664711669 0.3235581517 0.0009775171
0.1182795689 0.3235581517 0.0009775171
0.1564027369 0.3245356679 0.0009775171
0.1896383166 0.3245356679 0.0009775171
0.2189638317 0.3245356679 0.0009775171
0.2463343143 0.3245356679 0.0009775171
0.2746823132 0.3245356679 0.0009775171
0.3000977635 0.3245356679 0.0009775171
0.3255131841 0.3245356679 0.0009775171
0.3509286344 0.3235581517 0.0009775171
0.3763440847 0.3225806355 0.0009775171
0.4046920836 0.3216031194 0.0009775171
0.4359726310 0.3206256032 0.0009775171
0.4692082107 0.3186705709 0.0009775171
0.5043988228 0.3167155385 0.0009775171
0.5425220132 0.3137829900 0.0009775171
0.5835776925 0.3088954091 0.0009775171
0.6275659800 0.3049853444 0.0009775171
0.6725317836 0.2991202474 0.0009775171
0.7204301357 0.2913000882 0.0009775171
0.7693059444 0.2834799588 0.0068426197
0.8191593289 0.2756598294 0.0322580636
0.8709677458 0.2658846676 0.0478983372
0.9227761626 0.2561094761 0.0596285425
0.9765396118 0.2453567982 0.0723362640
1.0000000000 0.2346041054 0.0830889568
0.0009775171 0.3431085050 0.0009775171
0.0009775171 0.3431085050 0.0009775171
0.0009775171 0.3440860212 0.0009775171
0.0009775171 0.3440860212 0.0009775171
0.0009775171 0.3440860212 0.0009775171
0.0009775171 0.3450635374 0.0009775171
0.0009775171 0.3450635374 0.0009775171
0.0009775171 0.3460410535 0.0009775171
0.1026392952 0.3460410535 0.0009775171
0.1456500441 0.3470185697 0.0009775171
0.1808406711 0.3470185697 0.0009775171
0.2130987346 0.3470185697 0.0009775171
0.2424242496 0.3470185697 0.0009775171
0.2697947323 0.3470185697 0.0009775171
0.2971652150 0.3470185697 0.0009775171
0.3225806355 0.3470185697 0.0009775171
0.3479960859 0.3460410535 0.0009775171
0.3743890524 0.3460410535 0.0009775171
0.4037145674 0.3440860212 0.0009775171
0.4340175986 0.3431085050 0.0009775171
0.4682306945 0.3411534727 0.0009775171
0.5043988228 0.3391984403 0.0009775171
0.5425220132 0.3362658918 0.0009775171
0.5845552087 0.3323558271 0.0009775171
0.6285434961 0.3284457624 0.0009775171
0.6754643321 0.3225806355 0.0009775171
0.7233626842 0.3157380223 0.0009775171
0.7732160091 0.3079178929 0.0009775171
0.8250244260 0.2981427312 0.0195503421
0.8768328428 0.2893450558 0.0391006842
0.9305962920 0.2785923779 0.0547409579
0.9843597412 0.2678397000 0.0674486831
1.0000000000 0.2570869923 0.0791788846
0.0009775171 0.3675464392 0.0009775171
0.0009775171 0.3675464392 0.0009775171
0.0009775171 0.3675464392 0.0009775171
0.0009775171 0.3675464392 0.0009775171
0.0009775171 0.3685239553 0.0009775171
0.0009775171 0.3685239553 0.0009775171
0.0009775171 0.3695014715 0.0009775171
0.0009775171 0.3695014715 0.0009775171
0.0782013685 0.3695014715 0.0009775171
0.1319648027 0.3704789877 0.0009775171
0.1710654944 0.3704789877 0.0009775171
0.2043010741 0.3704789877 0.0009775171
0.2355816215 0.3704789877 0.0009775171
0.2639296055 0.3704789877 0.0009775171
0.2922776043 0.3704789877 0.0009775171
0.3186705709 0.3704789877 0.0009775171
0.3440860212 0.3695014715 0.0009775171
0.3714565039 0.3695014715 0.0009775171
0.4007820189 0.3685239553 0.0009775171
0.4320625663 0.3675464392 0.0009775171
0.4662756622 0.3655914068 0.0009775171
0.5034213066 0.3636363745 0.0009775171
0.5425220132 0.3607038260 0.0009775171
0.5845552087 0.3567937315 0.0009775171
0.6295210123 0.3528836668 0.0009775171
0.6764418483 0.3470185697 0.0009775171
0.7262952328 0.3401759565 0.0009775171
0.7771260738 0.3323558271 0.0009775171
0.8289344907 0.3235581517 0.0009775171
0.8826979399 0.3137829900 0.0283479970
0.9374389052 0.3030303121 0.0459433049
0.9921798706 0.2913000882 0.0606060624
1.0000000000 0.2795698941 0.0752688199
0.0009775171 0.3939394057 0.0009775171
0.0009775171 0.3939394057 0.0009775171
0.0009775171 0.3939394057 0.0009775171
0.0009775171 0.3939394057 0.0009775171
0.0009775171 0.3939394057 0.0009775171
0.0009775171 0.3949169219 0.0009775171
0.0009775171 0.3949169219 0.0009775171
0.0009775171 0.3958944380 0.0009775171
0.0009775171 0.3958944380 0.0009775171
0.1104594320 0.3958944380 0.0009775171
0.1564027369 0.3968719542 0.0009775171
0.1935483813 0.3968719542 0.0009775171
0.2267839760 0.3968719542 0.0009775171
