proprietary/odm/etc/camera/filters_lut/empty_33.cube
#Created by: Adobe Photoshop Export Color Lookup Plugin
TITLE "1.png"
#LUT size
LUT_3D_SIZE 32
#data domain
DOMAIN_MIN 0.0 0.0 0.0
DOMAIN_MAX 1.0 1.0 1.0
#LUT data points
0.000000 0.000000 0.000000
0.024719 0.001068 0.000000
0.049164 0.003693 0.000671
0.072205 0.006897 0.002625
0.093719 0.010010 0.004974
0.114960 0.013397 0.007568
0.135681 0.016663 0.009125
0.156647 0.019562 0.011719
0.177765 0.022339 0.013428
0.199371 0.024628 0.013550
0.223846 0.025421 0.014069
0.250916 0.025360 0.011780
0.280029 0.024384 0.007629
0.308655 0.023376 0.007050
0.335663 0.022797 0.004852
0.361877 0.021851 0.002380
0.386658 0.021545 0.000000
0.411041 0.020386 0.000000
0.432983 0.020020 0.000000
0.454193 0.020050 0.000000
0.474548 0.020477 0.000000
0.494537 0.020874 0.000000
0.512970 0.022125 0.000000
0.529633 0.023773 0.000000
0.544556 0.026215 0.000000
0.555756 0.030060 0.000244
0.565369 0.034210 0.003784
0.573212 0.039001 0.008423
0.579803 0.044678 0.009491
0.587982 0.049194 0.017609
0.594208 0.055450 0.018921
0.601135 0.060822 0.024170
0.002747 0.030640 0.004211
0.032166 0.031738 0.004700
0.060425 0.033142 0.006622
0.082977 0.035400 0.009979
0.104218 0.038177 0.012146
0.125458 0.040985 0.014465
0.146851 0.043823 0.017029
0.168396 0.046753 0.019714
0.189697 0.048950 0.021515
0.211487 0.050598 0.022430
0.235504 0.051178 0.021851
0.262451 0.050354 0.019470
0.292145 0.048492 0.015839
0.320190 0.047241 0.013092
0.346832 0.046265 0.010651
0.372772 0.045380 0.008179
0.398163 0.044281 0.005371
0.421478 0.043427 0.002991
0.443359 0.042999 0.001160
0.464264 0.042938 0.000214
0.484619 0.043152 0.000153
0.504425 0.044006 0.000122
0.522583 0.045135 0.000153
0.539307 0.046967 0.000214
0.554047 0.049377 0.000732
0.565521 0.052917 0.003601
0.574646 0.057465 0.007812
0.582520 0.062378 0.012543
0.590118 0.067505 0.017487
0.597717 0.072998 0.022827
0.604950 0.078522 0.028198
0.612152 0.084167 0.033752
0.007385 0.061127 0.010162
0.035919 0.062012 0.009979
0.063660 0.062866 0.010559
0.089996 0.064056 0.011780
0.114685 0.065521 0.015106
0.136871 0.067810 0.019409
0.157745 0.070801 0.023315
0.178497 0.073578 0.025909
0.200104 0.075928 0.027740
0.222198 0.077179 0.028717
0.246246 0.077087 0.028412
0.273621 0.075531 0.026611
0.304077 0.072815 0.023682
0.332733 0.070892 0.021606
0.359894 0.069885 0.019897
0.385498 0.068726 0.017548
0.410614 0.067413 0.014709
0.433868 0.066376 0.012207
0.455688 0.065826 0.010315
0.476685 0.065887 0.009033
0.496948 0.066223 0.008026
0.516266 0.066803 0.007324
0.534454 0.068054 0.007385
0.551056 0.069855 0.008118
0.565857 0.072388 0.009766
0.577515 0.076172 0.013000
0.586670 0.080811 0.017273
0.594849 0.086121 0.022400
0.602722 0.091614 0.027679
0.610382 0.097168 0.033081
0.617798 0.102936 0.038727
0.625183 0.108856 0.044495
0.012268 0.089447 0.016266
0.038635 0.090485 0.016266
0.067047 0.091125 0.015625
0.093170 0.092041 0.016876
0.118256 0.093536 0.018219
0.143616 0.095215 0.021301
0.168030 0.096954 0.025330
0.190918 0.099213 0.030090
0.212555 0.101410 0.034180
0.234161 0.103058 0.036560
0.257904 0.103424 0.036499
0.284973 0.101776 0.033936
0.315552 0.098663 0.030487
0.344910 0.096161 0.028687
0.372345 0.094482 0.027802
0.398346 0.093079 0.026489
0.423615 0.091461 0.024231
0.447083 0.090210 0.022064
0.469147 0.089600 0.020477
0.490082 0.089478 0.019257
0.510101 0.089600 0.018311
0.529388 0.090271 0.017792
0.547516 0.091492 0.017914
0.564240 0.093414 0.018799
0.579407 0.096313 0.020813
0.591187 0.100250 0.024231
0.600739 0.105347 0.028961
0.609100 0.110901 0.034302
0.617279 0.116730 0.039917
0.625427 0.122803 0.045868
0.633362 0.129089 0.052002
0.641205 0.135468 0.058258
0.017487 0.116455 0.022583
0.042847 0.117310 0.022247
0.071289 0.118042 0.021484
0.096375 0.119568 0.022156
0.121948 0.120453 0.023895
0.146729 0.122070 0.025391
0.172485 0.123871 0.028412
0.198395 0.125732 0.032562
0.223816 0.127686 0.037476
0.248138 0.129181 0.042084
0.272339 0.129425 0.044464
0.298737 0.128296 0.043762
0.328674 0.125214 0.040100
0.357758 0.122314 0.037506
0.385193 0.120392 0.036316
0.411011 0.118744 0.034943
0.436401 0.117065 0.032898
0.460419 0.115784 0.031219
0.482544 0.114716 0.029877
0.503479 0.114227 0.029053
0.523621 0.114288 0.028503
0.543121 0.115021 0.028473
0.561676 0.116547 0.029144
0.578766 0.118744 0.030457
0.593994 0.121582 0.032623
0.606293 0.126038 0.036591
0.616211 0.131439 0.041718
0.625122 0.137543 0.047607
0.633850 0.143921 0.053802
0.642487 0.150482 0.060211
0.651306 0.157654 0.067261
0.660248 0.165131 0.074554
0.022400 0.142639 0.028595
0.046997 0.143341 0.027893
0.073486 0.144867 0.027893
0.101379 0.146027 0.027954
0.125183 0.147675 0.029144
0.150726 0.148926 0.031464
0.176270 0.151093 0.033691
0.202911 0.153290 0.037079
0.230408 0.155243 0.041473
0.257996 0.156372 0.045929
0.286072 0.156525 0.049530
0.314362 0.155060 0.051239
0.343994 0.152252 0.050385
0.372284 0.149384 0.048584
0.399231 0.147217 0.046906
0.424835 0.145569 0.045227
0.450226 0.143951 0.043030
0.473969 0.142456 0.040955
0.496246 0.141479 0.039551
0.517303 0.140991 0.038727
0.537720 0.141205 0.038574
0.557434 0.142120 0.038940
0.576324 0.143799 0.040070
0.593750 0.146149 0.041840
0.609589 0.149445 0.044678
0.622345 0.154236 0.049133
0.632996 0.160339 0.054993
0.642792 0.167236 0.061737
0.652313 0.174347 0.068665
0.661987 0.181885 0.076080
0.671600 0.189819 0.083862
0.681458 0.198151 0.092072
0.027496 0.168945 0.034790
0.051758 0.169922 0.034088
0.076660 0.171539 0.034332
0.105347 0.173187 0.034363
0.130005 0.175262 0.035706
0.154907 0.177002 0.037598
0.181061 0.178925 0.040710
0.207153 0.181244 0.043335
0.234955 0.183289 0.046692
0.264099 0.184601 0.050690
0.295166 0.184601 0.053772
0.327728 0.183228 0.056488
0.360260 0.180206 0.058258
0.388855 0.177246 0.059235
0.415405 0.175385 0.059174
0.440521 0.173920 0.057831
0.465454 0.172302 0.055298
0.489258 0.170959 0.052979
0.511475 0.170013 0.051331
0.532837 0.169861 0.050598
0.553558 0.170471 0.050659
0.573364 0.171570 0.051117
0.592346 0.173462 0.052307
0.610321 0.176300 0.054535
0.626862 0.180267 0.057953
0.640656 0.186035 0.063324
0.652161 0.192963 0.069977
0.662628 0.200500 0.077362
0.673431 0.208862 0.085541
0.684174 0.217407 0.093903
0.695038 0.226532 0.102875
0.706146 0.236084 0.112244
0.032471 0.195129 0.040863
0.056427 0.196503 0.040314
0.080872 0.198456 0.040833
0.107697 0.200989 0.041534
0.135834 0.203247 0.042847
0.159515 0.206116 0.044983
0.185699 0.207703 0.047424
0.211914 0.209473 0.050537
0.239044 0.211578 0.053253
0.268921 0.213470 0.056396
0.301422 0.213989 0.059174
0.337189 0.212769 0.061615
0.374176 0.209900 0.064636
0.406250 0.207001 0.068329
0.433777 0.204926 0.070587
0.458984 0.203857 0.071136
0.483398 0.202637 0.069580
0.506744 0.201538 0.067474
0.529114 0.200958 0.065918
0.550781 0.201233 0.065277
0.571625 0.202087 0.065369
0.591919 0.203827 0.066223
0.611450 0.206360 0.067810
0.630310 0.210175 0.070770
0.647614 0.214905 0.074829
0.662323 0.221588 0.081024
0.674835 0.229492 0.088623
0.686676 0.238403 0.097290
0.698669 0.247864 0.106537
0.711273 0.258301 0.116699
0.723999 0.269226 0.127441
0.736908 0.280487 0.138519
0.036591 0.221222 0.046112
0.060425 0.223022 0.045868
0.084595 0.225342 0.046600
0.109955 0.228790 0.048370
0.138885 0.231964 0.049866
0.165436 0.234863 0.052216
0.189117 0.237793 0.054535
0.216400 0.239166 0.057343
0.243835 0.241058 0.060699
0.273163 0.243195 0.063171
0.306427 0.244415 0.065125
0.343658 0.243866 0.067444
0.384583 0.241547 0.070801
0.421387 0.239014 0.076080
0.452759 0.237213 0.080566
0.479706 0.236115 0.083008
0.504669 0.235260 0.083435
0.528381 0.235107 0.083313
0.550629 0.235199 0.082947
0.572083 0.235870 0.082916
0.593201 0.237488 0.083588
0.613922 0.239929 0.084961
0.634460 0.243622 0.087433
0.654236 0.248413 0.091125
0.672516 0.254211 0.096008
0.688324 0.261993 0.103180
0.702637 0.271637 0.112427
0.716431 0.282440 0.122894
0.730530 0.294037 0.134186
0.744263 0.305573 0.145416
0.757721 0.317200 0.156830
0.771606 0.329529 0.168884
0.038361 0.247467 0.049164
0.062439 0.249451 0.049530
0.086761 0.252197 0.050903
0.111359 0.256104 0.053345
0.138763 0.260590 0.055939
0.168518 0.264374 0.058563
0.194458 0.267944 0.061676
0.219086 0.271271 0.064362
0.248230 0.272736 0.067322
0.277618 0.274475 0.070099
0.310181 0.276031 0.071686
0.348755 0.276733 0.073700
0.392120 0.275665 0.077728
0.433533 0.274017 0.083771
0.469818 0.272949 0.089722
0.500671 0.272278 0.093750
0.528473 0.272095 0.096283
0.553314 0.272278 0.098175
0.576599 0.273376 0.100189
0.598572 0.274963 0.102020
0.619934 0.277313 0.104126
0.641357 0.281128 0.107147
0.662750 0.286255 0.111176
0.683563 0.292511 0.116302
0.703339 0.300018 0.122803
0.720612 0.309357 0.131378
0.736389 0.320587 0.142059
0.750885 0.332123 0.153259
0.765228 0.343994 0.164795
0.779297 0.355896 0.176392
0.793274 0.368134 0.188324
0.806885 0.380188 0.200104
0.036926 0.274139 0.049194
0.061188 0.276733 0.050018
0.085571 0.279724 0.051788
0.110046 0.283905 0.054871
0.136108 0.289276 0.058716
0.165985 0.294617 0.062286
0.196472 0.299438 0.066193
0.223053 0.303986 0.069946
0.249084 0.307404 0.072571
0.280792 0.308807 0.075470
0.313934 0.310364 0.078308
0.352356 0.312103 0.080627
0.397919 0.312927 0.085083
0.442383 0.312622 0.091888
0.482971 0.312469 0.098358
0.519165 0.313324 0.103851
0.551147 0.313995 0.107849
0.579590 0.315308 0.112000
0.605316 0.317108 0.116058
0.629669 0.320099 0.120697
0.653412 0.324432 0.125916
0.676300 0.329590 0.131226
0.698334 0.335632 0.136932
0.719574 0.342743 0.143402
0.739410 0.350739 0.150726
0.757294 0.361023 0.160400
0.773102 0.372467 0.171387
0.787537 0.384094 0.182678
0.801514 0.395721 0.194031
0.815277 0.407440 0.205444
0.828674 0.419189 0.216949
0.842133 0.431274 0.228729
0.033264 0.302277 0.047150
0.056732 0.305145 0.047699
0.080994 0.308807 0.049622
0.105164 0.313171 0.052704
0.130127 0.318787 0.057037
0.158386 0.325562 0.061981
0.190704 0.332184 0.066833
0.222626 0.338196 0.072021
0.251434 0.343811 0.076782
0.280151 0.347961 0.080139
0.316498 0.349945 0.083923
0.355713 0.351624 0.088043
0.400970 0.353363 0.092773
0.448456 0.355408 0.100037
0.492767 0.357361 0.107574
0.533264 0.359833 0.113831
0.570618 0.362885 0.119659
0.603943 0.365967 0.125824
0.634094 0.369385 0.132080
0.661926 0.373352 0.138458
0.687866 0.377777 0.144653
0.712463 0.383240 0.151154
0.735504 0.389435 0.157867
0.756989 0.396362 0.165070
0.777252 0.404755 0.173431
0.794556 0.414459 0.183014
0.809662 0.425232 0.193604
0.823669 0.436493 0.204712
0.837189 0.447723 0.215759
0.850708 0.459351 0.227112
0.863220 0.470337 0.237885
0.875214 0.480988 0.248383
0.029144 0.332062 0.044769
0.051605 0.335663 0.045074
0.074554 0.339569 0.046326
0.098053 0.344604 0.049164
0.122437 0.350922 0.053528
0.148804 0.358246 0.058929
0.179230 0.366577 0.065033
0.213898 0.374908 0.071411
0.249023 0.382629 0.078278
0.281952 0.390015 0.084991
0.315155 0.395447 0.090057
0.357117 0.397278 0.095184
0.403809 0.399231 0.101807
0.452301 0.403259 0.109283
0.500732 0.408783 0.117767
0.544739 0.414032 0.125061
0.584473 0.418060 0.131226
0.620697 0.421875 0.137360
0.654144 0.425964 0.143890
0.684906 0.430084 0.150330
0.713959 0.434875 0.156891
0.740540 0.439941 0.163147
0.765076 0.445709 0.169861
0.787689 0.452332 0.177155
0.808044 0.459686 0.185059
0.825134 0.468597 0.194214
0.839813 0.478668 0.204315
0.852966 0.488922 0.214569
0.866089 0.499786 0.225250
0.878601 0.510315 0.235657
0.890381 0.520538 0.245758
0.901855 0.530579 0.255737
0.027679 0.365662 0.045135
0.050232 0.369446 0.046204
0.072968 0.373688 0.047974
0.096008 0.379028 0.050995
0.119843 0.385620 0.055481
0.145538 0.393860 0.061584
0.173981 0.403076 0.068451
0.206848 0.413269 0.076111
0.245056 0.423889 0.084534
0.284607 0.434082 0.093781
0.322906 0.443512 0.102814
0.362488 0.450531 0.109833
0.412384 0.452667 0.116241
0.462067 0.456940 0.124268
0.509003 0.462189 0.130676
0.553650 0.468048 0.136261
0.594757 0.473450 0.142395
0.632202 0.478088 0.148590
0.666687 0.482269 0.154602
0.698853 0.486359 0.160156
0.728821 0.490204 0.165100
0.756805 0.494843 0.170471
0.782532 0.500153 0.176392
0.805664 0.505768 0.182678
0.826355 0.512207 0.189667
0.843323 0.520233 0.197968
0.857544 0.529449 0.207275
0.870789 0.539764 0.217468
0.883087 0.549530 0.227173
0.894867 0.559143 0.236725
0.906250 0.568848 0.246368
0.917358 0.578522 0.255920
0.027039 0.401855 0.046387
0.051483 0.406647 0.049683
0.075897 0.412140 0.053558
0.100006 0.418335 0.058197
0.124634 0.425873 0.064026
0.150513 0.434509 0.070923
0.179108 0.445190 0.079590
0.211365 0.457306 0.089325
0.248596 0.470032 0.099396
0.291016 0.482391 0.109650
0.334839 0.493866 0.120148
0.377319 0.503540 0.129181
0.423248 0.509674 0.135132
0.475098 0.511566 0.140686
0.520905 0.515228 0.145538
0.562927 0.519928 0.149628
0.603119 0.524811 0.153931
0.640869 0.529755 0.159119
0.675812 0.534424 0.164459
0.707916 0.538116 0.169006
0.737885 0.541626 0.172913
0.765533 0.545349 0.176788
0.791016 0.549561 0.181213
0.814484 0.554626 0.186462
0.835266 0.560425 0.192444
0.852203 0.567902 0.200043
0.866211 0.576782 0.208832
0.878662 0.585999 0.217987
0.890503 0.595184 0.227112
0.901886 0.604279 0.236115
0.912659 0.613312 0.245026
0.923615 0.622864 0.254395
0.030212 0.440277 0.051392
0.055817 0.446381 0.055969
0.082458 0.453979 0.062195
0.108917 0.462341 0.069366
0.135559 0.471405 0.077454
0.163055 0.481354 0.086304
0.191803 0.492188 0.095795
0.223053 0.504211 0.106110
0.258942 0.517731 0.117279
0.300446 0.531158 0.128174
0.347168 0.543579 0.138763
0.394318 0.554688 0.148712
0.439514 0.562073 0.154510
0.486328 0.564697 0.156830
0.534546 0.565765 0.160461
0.574982 0.568756 0.163940
0.613312 0.573059 0.167694
0.648895 0.576416 0.170563
0.682709 0.579895 0.173645
0.714691 0.583496 0.176849
0.744537 0.586975 0.179810
0.772156 0.590637 0.183167
0.797516 0.594818 0.187103
0.820435 0.599213 0.191498
0.841187 0.604706 0.196991
0.857849 0.611847 0.204010
0.871246 0.619843 0.211945
0.883087 0.628448 0.220428
0.894409 0.637115 0.228912
0.905334 0.645691 0.237396
0.916138 0.654999 0.246338
0.926147 0.663452 0.254700
0.039764 0.482239 0.062622
0.067871 0.491150 0.069824
0.095398 0.499847 0.076965
0.122375 0.508881 0.084747
0.149414 0.518494 0.093262
0.177032 0.528687 0.102325
0.205872 0.539551 0.112030
0.236755 0.551605 0.122681
0.270691 0.564178 0.133423
0.310272 0.577667 0.144501
0.356812 0.590424 0.154785
0.407104 0.601349 0.164276
0.455353 0.609467 0.170746
0.499146 0.613464 0.172821
0.544647 0.613281 0.173859
0.586853 0.614136 0.176910
0.622803 0.616058 0.179230
0.656464 0.618530 0.181335
0.688904 0.621307 0.183044
0.720123 0.624268 0.184509
0.749939 0.627716 0.186523
0.777649 0.631714 0.189331
0.802673 0.635620 0.192627
0.825500 0.640106 0.196625
0.845642 0.645050 0.201355
0.861786 0.651581 0.207764
0.874908 0.659363 0.215363
0.886292 0.667542 0.223328
0.897186 0.675781 0.231415
0.907715 0.684204 0.239532
0.917664 0.692383 0.247589
0.927246 0.700500 0.255524
0.054779 0.527863 0.079193
0.082916 0.536560 0.086426
0.110687 0.545441 0.093964
0.137848 0.554749 0.101990
0.164764 0.564331 0.110443
0.192322 0.574524 0.119446
0.220459 0.584808 0.128479
0.249878 0.595551 0.138000
0.282410 0.607483 0.148254
0.319550 0.619934 0.158508
0.363983 0.632263 0.168182
0.415710 0.643066 0.176910
0.467316 0.651062 0.183533
0.511536 0.655823 0.186401
0.553314 0.657166 0.186707
0.595367 0.655945 0.187866
0.632111 0.656097 0.189697
0.664703 0.657532 0.191101
0.695770 0.659668 0.192078
0.726196 0.662659 0.193024
0.754974 0.665405 0.193726
0.781952 0.668701 0.195343
0.806885 0.672638 0.198029
0.829437 0.676880 0.201416
0.849426 0.681793 0.205750
0.865173 0.688110 0.211639
0.877655 0.695282 0.218567
0.888702 0.703094 0.226166
0.899170 0.711060 0.233826
0.909027 0.718628 0.241211
0.918335 0.726288 0.248627
0.927399 0.733856 0.256012
0.070129 0.573273 0.096100
0.098572 0.581543 0.103607
0.126221 0.589783 0.111053
0.153046 0.598419 0.118744
0.179810 0.607788 0.127106
0.206543 0.617065 0.135345
0.233734 0.626343 0.143555
0.261993 0.635956 0.151978
0.292419 0.646149 0.160797
0.327484 0.657501 0.170135
0.369873 0.669525 0.179535
0.421326 0.680359 0.187714
0.476532 0.688782 0.194641
0.523132 0.694031 0.198242
0.562927 0.696167 0.198608
0.601624 0.695526 0.198242
0.640076 0.694153 0.199127
0.673187 0.694366 0.199951
0.703735 0.696106 0.200500
0.732483 0.698029 0.200653
0.760162 0.700409 0.201019
0.786255 0.703247 0.201874
0.810486 0.706604 0.203613
0.832825 0.710724 0.206421
0.852661 0.715546 0.210266
0.867981 0.721375 0.215546
0.880066 0.728333 0.222046
0.890442 0.735504 0.228943
0.900360 0.742828 0.235992
0.909821 0.750061 0.242950
0.918671 0.757233 0.249878
0.927307 0.764435 0.256836
0.084839 0.617035 0.112305
0.112885 0.624573 0.119385
0.140289 0.632111 0.126495
0.167145 0.640320 0.134186
0.192719 0.647919 0.141388
0.218414 0.655762 0.148682
0.244843 0.663971 0.156189
0.272369 0.672668 0.164001
0.302002 0.682159 0.172363
0.335327 0.692383 0.180878
0.375397 0.703400 0.189453
0.425812 0.714508 0.197662
0.483185 0.723022 0.204193
0.532745 0.728668 0.208435
0.572754 0.731567 0.209290
0.608673 0.731812 0.208191
0.645813 0.730377 0.207489
0.681122 0.729797 0.208008
0.711456 0.730103 0.207916
0.739349 0.731293 0.207733
0.765961 0.733093 0.207794
0.791107 0.735596 0.208466
0.814789 0.738861 0.209930
0.836243 0.742310 0.211853
0.855316 0.746429 0.214813
0.870331 0.752045 0.219635
0.881958 0.758453 0.225525
0.891907 0.765320 0.232025
0.901276 0.772125 0.238495
0.910217 0.778839 0.244904
0.918732 0.785675 0.251434
0.926971 0.792603 0.257996
0.098785 0.657990 0.127655
0.126007 0.664612 0.133850
0.152893 0.671448 0.140320
0.178528 0.678192 0.146820
0.203613 0.685059 0.153503
0.228821 0.692017 0.160248
0.254730 0.699341 0.167267
0.281860 0.707306 0.174774
0.310699 0.715759 0.182526
0.342804 0.724945 0.190521
0.381378 0.735229 0.198761
0.429779 0.745819 0.206482
0.488373 0.754730 0.212921
0.540833 0.760712 0.217438
0.582214 0.764069 0.218689
0.617401 0.765503 0.217773
0.651672 0.764740 0.215851
0.687012 0.763123 0.215118
0.718567 0.762421 0.214905
0.746521 0.762756 0.214539
0.772430 0.763977 0.214386
0.796936 0.766144 0.214966
0.819397 0.768677 0.215912
0.840088 0.771790 0.217499
0.858521 0.775482 0.219971
0.872833 0.780487 0.224060
0.884064 0.786560 0.229584
0.893585 0.792969 0.235565
0.902374 0.799225 0.241425
0.910858 0.805603 0.247437
0.918701 0.811798 0.253326
0.926300 0.818024 0.259277
0.112183 0.695740 0.142334
0.138977 0.701843 0.148010
0.164886 0.707611 0.153473
0.189941 0.713654 0.159302
0.214447 0.719849 0.165344
0.239258 0.726318 0.171692
0.264954 0.733246 0.178436
0.291138 0.740021 0.184998
0.319214 0.747437 0.191986
0.350403 0.755707 0.199493
0.387695 0.765167 0.207367
0.434814 0.775513 0.215118
0.493347 0.784424 0.221252
0.548126 0.790466 0.225616
0.591705 0.794403 0.227448
0.626678 0.796326 0.226654
0.659180 0.796173 0.224365
0.692413 0.794525 0.222443
0.725098 0.792908 0.221771
0.753876 0.792480 0.221466
0.779968 0.793365 0.221466
0.803467 0.794647 0.221497
0.825134 0.796570 0.222107
0.845032 0.799194 0.223358
0.862823 0.802582 0.225555
0.876587 0.807251 0.229340
0.886993 0.812592 0.234131
0.895813 0.818329 0.239441
0.904144 0.824219 0.244934
0.911926 0.829895 0.250244
0.919189 0.835571 0.255615
0.926056 0.841034 0.260803
0.125977 0.731049 0.157227
0.152161 0.736450 0.162231
0.177460 0.741577 0.167053
0.201874 0.746918 0.172180
0.225952 0.752655 0.177765
0.250366 0.758636 0.183655
0.275146 0.764557 0.189453
0.300842 0.770721 0.195435
0.328278 0.777374 0.201782
0.358704 0.784851 0.208710
0.395050 0.793671 0.216217
0.440704 0.803375 0.223602
0.498688 0.812347 0.229584
0.555542 0.818573 0.233917
0.600769 0.822449 0.235870
0.636505 0.824860 0.235565
0.668121 0.825134 0.233337
0.699188 0.823792 0.230682
0.731598 0.821960 0.229431
0.761414 0.820740 0.228912
0.787537 0.820526 0.228546
0.810699 0.821198 0.228333
0.831696 0.822540 0.228577
0.851013 0.824677 0.229553
0.868103 0.827606 0.231384
0.881012 0.831573 0.234589
0.890839 0.836426 0.238922
0.898987 0.841583 0.243652
0.906555 0.846741 0.248444
0.913849 0.851990 0.253357
0.920502 0.857056 0.258118
0.926727 0.861938 0.262726
0.140289 0.764038 0.172485
0.165680 0.768646 0.176697
0.190552 0.773285 0.181030
0.214600 0.778198 0.185730
0.238251 0.783478 0.190826
0.261871 0.788635 0.195923
0.286133 0.794006 0.201141
0.311340 0.799591 0.206604
0.338440 0.805786 0.212524
0.368347 0.812714 0.218994
0.403381 0.820465 0.225647
0.447662 0.829498 0.232544
0.504974 0.838470 0.238434
0.563080 0.844788 0.242615
0.610321 0.848907 0.244904
0.646667 0.851166 0.244720
0.677917 0.851807 0.242706
0.707825 0.850922 0.239929
0.738495 0.848907 0.237701
0.768585 0.846832 0.236572
0.795105 0.845764 0.235870
0.818329 0.845764 0.235474
0.838959 0.846619 0.235443
0.857635 0.848236 0.236053
0.873810 0.850281 0.237213
0.886078 0.853638 0.239899
0.895264 0.857941 0.243652
0.902893 0.862640 0.248016
0.909912 0.867310 0.252319
0.916473 0.871796 0.256500
0.922546 0.876343 0.260773
0.928436 0.880920 0.265106
0.155487 0.794739 0.188507
0.180389 0.798798 0.192169
0.204987 0.803131 0.196167
0.228516 0.807526 0.200348
0.251617 0.812195 0.204865
0.274719 0.816803 0.209381
0.298431 0.821564 0.214020
0.323334 0.826782 0.219116
0.349945 0.832428 0.224518
0.378998 0.838470 0.230164
0.413300 0.845642 0.236359
0.456635 0.854156 0.242828
0.512970 0.862976 0.248535
0.572205 0.869476 0.252686
0.620514 0.873413 0.254883
0.657684 0.875580 0.254852
0.688873 0.876404 0.252930
0.717804 0.875488 0.249878
0.746887 0.873505 0.247009
0.776306 0.870850 0.245056
0.803131 0.868896 0.243866
0.826477 0.868225 0.243225
0.846863 0.868378 0.242859
0.864777 0.869171 0.242859
0.880310 0.870667 0.243561
0.891998 0.873474 0.245728
0.900909 0.877533 0.249329
0.908203 0.881927 0.253387
0.914825 0.886200 0.257324
0.921021 0.890350 0.261200
0.926605 0.894409 0.264984
0.931763 0.898285 0.268616
0.174225 0.823486 0.207733
0.198486 0.826843 0.210724
0.222382 0.830475 0.214020
0.245605 0.834503 0.217865
0.268127 0.838562 0.221771
0.290955 0.842865 0.225952
0.314331 0.847229 0.230225
0.338776 0.851959 0.234833
0.364746 0.856934 0.239594
0.393402 0.862549 0.244843
0.427124 0.869232 0.250549
0.470093 0.877502 0.256866
0.525848 0.886078 0.262360
0.584808 0.892212 0.265991
0.633820 0.895966 0.268036
0.671539 0.898010 0.267975
0.702362 0.898499 0.265808
0.730804 0.897461 0.262512
0.758484 0.895020 0.258881
0.787109 0.892059 0.256317
0.813934 0.889465 0.254639
0.837036 0.887970 0.253448
0.857025 0.887390 0.252563
0.874512 0.887604 0.252136
0.889618 0.888672 0.252441
0.901276 0.891449 0.254669
0.909790 0.895142 0.257935
0.916412 0.898865 0.261322
0.922363 0.902435 0.264618
0.927612 0.905670 0.267609
0.932007 0.908569 0.270294
0.935822 0.911102 0.272644
0.195404 0.850586 0.229248
0.218353 0.852570 0.230865
0.242188 0.856018 0.234070
0.264740 0.859406 0.237244
0.286926 0.863098 0.240784
0.309448 0.867065 0.244629
0.332458 0.871033 0.248505
0.356415 0.875244 0.252594
0.381897 0.879700 0.256836
0.410065 0.884827 0.261566
0.443604 0.891235 0.267120
0.485901 0.899017 0.272980
0.540955 0.907196 0.278076
0.599945 0.913147 0.281403
0.649139 0.916534 0.283112
0.686798 0.918213 0.282715
0.717651 0.918488 0.280426
0.745239 0.916931 0.276581
0.772156 0.914124 0.272430
0.799957 0.910675 0.269196
0.826416 0.907440 0.266907
0.849274 0.905334 0.265259
0.868744 0.904053 0.263794
0.885742 0.903625 0.262848
0.900543 0.904358 0.262909
0.911652 0.906586 0.264618
0.919006 0.909119 0.266754
0.924347 0.911560 0.268921
0.928955 0.913788 0.270905
0.933075 0.915924 0.272858
0.936493 0.917847 0.274628
0.939362 0.919434 0.276062
0.216736 0.875763 0.250763
0.239044 0.877014 0.251740
0.262054 0.879669 0.254089
0.284363 0.882782 0.256989
0.306183 0.886078 0.260132
0.328064 0.889374 0.263336
0.350708 0.892944 0.266815
0.374176 0.896637 0.270416
0.399445 0.900818 0.274414
0.427246 0.905487 0.278717
0.460083 0.911255 0.283630
0.501678 0.918488 0.288940
0.556366 0.926453 0.293793
0.615173 0.932190 0.296875
0.664764 0.935394 0.298462
0.702209 0.936584 0.297638
0.732361 0.936249 0.294708
0.759552 0.934357 0.290497
