proprietary/odm/etc/camera/filters_lut/empty_33.cube
#Created by: Adobe Photoshop Export Color Lookup Plugin
TITLE "1.png"
#LUT size
LUT_3D_SIZE 8
#data domain
#LUT data points
DOMAIN_MIN 0.000000 0.000000 0.000000
DOMAIN_MAX 0.903226 0.903226 0.903226
0.000000 0.000000 0.000000
0.093719 0.010010 0.004974
0.177765 0.022339 0.013428
0.280029 0.024384 0.007629
0.386658 0.021545 0.000000
0.474548 0.020477 0.000000
0.544556 0.026215 0.000000
0.579803 0.044678 0.009491
0.017487 0.116455 0.022583
0.121948 0.120453 0.023895
0.223816 0.127686 0.037476
0.328674 0.125214 0.040100
0.436401 0.117065 0.032898
0.523621 0.114288 0.028503
0.593994 0.121582 0.032623
0.633850 0.143921 0.053802
0.036591 0.221222 0.046112
0.138885 0.231964 0.049866
0.243835 0.241058 0.060699
0.384583 0.241547 0.070801
0.504669 0.235260 0.083435
0.593201 0.237488 0.083588
0.672516 0.254211 0.096008
0.730530 0.294037 0.134186
0.029144 0.332062 0.044769
0.122437 0.350922 0.053528
0.249023 0.382629 0.078278
0.403809 0.399231 0.101807
0.584473 0.418060 0.131226
0.713959 0.434875 0.156891
0.808044 0.459686 0.185059
0.866089 0.499786 0.225250
0.039764 0.482239 0.062622
0.149414 0.518494 0.093262
0.270691 0.564178 0.133423
0.455353 0.609467 0.170746
0.622803 0.616058 0.179230
0.749939 0.627716 0.186523
0.845642 0.645050 0.201355
0.897186 0.675781 0.231415
0.098785 0.657990 0.127655
0.203613 0.685059 0.153503
0.310699 0.715759 0.182526
0.488373 0.754730 0.212921
0.651672 0.764740 0.215851
0.772430 0.763977 0.214386
0.858521 0.775482 0.219971
0.902374 0.799225 0.241425
0.155487 0.794739 0.188507
0.251617 0.812195 0.204865
0.349945 0.832428 0.224518
0.512970 0.862976 0.248535
0.688873 0.876404 0.252930
0.803131 0.868896 0.243866
0.880310 0.870667 0.243561
0.914825 0.886200 0.257324
0.237152 0.899414 0.271362
0.324188 0.907166 0.278198
0.415619 0.919952 0.290588
0.570557 0.943817 0.308197
0.745819 0.952057 0.307678
0.848450 0.935638 0.288513
0.915161 0.924103 0.276855
0.936340 0.926361 0.278015
0.000122 0.002899 0.089020
0.108459 0.010345 0.095856
0.194000 0.023285 0.098999
0.294861 0.026093 0.090118
0.397522 0.023804 0.075439
0.483246 0.023621 0.069305
0.550812 0.029846 0.072205
0.586884 0.047760 0.089417
0.027710 0.113770 0.119263
0.126495 0.126495 0.126495
0.213715 0.127411 0.122467
0.325836 0.127960 0.116089
0.435486 0.121674 0.103699
0.521667 0.121765 0.098846
0.588013 0.130920 0.101349
0.629211 0.153656 0.126404
0.039948 0.223816 0.137695
0.131653 0.233032 0.136902
0.242371 0.240845 0.142273
0.387024 0.247253 0.160614
0.502808 0.240509 0.155090
0.597351 0.246429 0.160645
0.676300 0.265503 0.178467
0.735443 0.307129 0.219147
0.034454 0.343628 0.133331
0.131653 0.364960 0.143707
0.245941 0.393768 0.166626
0.421936 0.418427 0.190033
0.609100 0.438721 0.227539
0.731689 0.458435 0.259430
0.813110 0.481201 0.285858
0.866913 0.519226 0.323700
0.057220 0.501984 0.156799
0.167511 0.539185 0.186737
0.277435 0.575134 0.215210
0.467529 0.626709 0.256042
0.646912 0.641296 0.276337
0.778839 0.656067 0.290771
0.871216 0.670837 0.308105
0.921600 0.700531 0.337555
0.118408 0.676208 0.223450
0.224152 0.705200 0.248993
0.325867 0.731567 0.270966
0.489929 0.769684 0.301025
0.676453 0.791992 0.316620
0.796722 0.789459 0.318207
0.881683 0.799530 0.323456
0.925018 0.822632 0.344421
0.172180 0.810089 0.281952
0.270111 0.829010 0.298950
0.365936 0.845520 0.314972
0.514496 0.871368 0.336792
0.712738 0.897980 0.354584
0.823334 0.891235 0.345612
0.899200 0.890778 0.343323
0.932007 0.904572 0.355408
0.250214 0.911102 0.361572
0.341217 0.922607 0.371246
0.429810 0.931305 0.379608
0.570496 0.948486 0.394257
0.766785 0.970459 0.407166
0.864380 0.954407 0.386841
0.928558 0.938751 0.371399
0.946747 0.937958 0.369598
0.001953 0.007050 0.165894
0.117340 0.011810 0.184479
0.207031 0.025330 0.183746
0.315796 0.028168 0.171082
0.414215 0.026337 0.149780
0.497833 0.026367 0.142609
0.563324 0.033203 0.146027
0.599518 0.051575 0.164032
0.027283 0.105316 0.192932
0.118378 0.121246 0.209930
0.228943 0.127899 0.216003
0.343445 0.132507 0.204865
0.452087 0.125854 0.184387
0.535217 0.128357 0.179199
0.601227 0.137787 0.184662
0.642059 0.162628 0.208588
0.052551 0.213989 0.224304
0.141663 0.229736 0.235352
0.253052 0.253052 0.253052
0.379608 0.248444 0.240631
0.506439 0.244080 0.227753
0.600555 0.257843 0.238220
0.682739 0.281097 0.258087
0.742004 0.324646 0.298584
0.037964 0.341064 0.215637
0.143372 0.377319 0.243134
0.252441 0.405792 0.260376
0.435211 0.432892 0.283478
0.629303 0.454224 0.320038
0.734406 0.474487 0.349274
0.815826 0.497162 0.370026
0.869232 0.534271 0.406250
0.072479 0.516815 0.250549
0.184692 0.560150 0.283386
0.289856 0.596466 0.305695
0.462433 0.639221 0.334015
0.664795 0.660187 0.360626
0.806610 0.681854 0.391663
0.900787 0.698029 0.412933
0.950378 0.727844 0.444000
0.135651 0.691895 0.318237
0.243469 0.726135 0.345673
0.344452 0.752686 0.365540
0.486603 0.773956 0.379883
0.698059 0.815155 0.412537
0.823364 0.817200 0.418213
0.910492 0.828369 0.428284
0.953644 0.851349 0.450714
0.187164 0.823273 0.374817
0.289459 0.846649 0.395294
0.386017 0.865570 0.410797
0.520538 0.880096 0.419281
0.733734 0.920441 0.450043
0.847260 0.918671 0.447083
0.923279 0.916077 0.447052
0.955048 0.928772 0.458801
0.263550 0.922729 0.453186
0.358948 0.938599 0.466309
0.449066 0.949371 0.474884
0.576141 0.955444 0.475891
0.783813 0.989960 0.500488
0.884430 0.978241 0.486237
0.947876 0.959290 0.471313
0.964935 0.957397 0.468872
0.000000 0.006897 0.267365
0.102692 0.010834 0.293610
0.213318 0.020172 0.304688
0.326233 0.027405 0.287933
0.439178 0.025940 0.261932
0.524994 0.025604 0.253723
0.588654 0.032715 0.256622
0.625031 0.052094 0.275909
0.014709 0.089294 0.287628
0.104858 0.111389 0.313782
0.226959 0.121704 0.342590
0.365234 0.133240 0.335480
0.483612 0.130920 0.308838
0.563690 0.133698 0.298798
0.627869 0.143799 0.303406
0.670349 0.170959 0.329681
0.024567 0.169983 0.300751
0.118652 0.196228 0.328033
0.231415 0.235748 0.370697
0.406128 0.252869 0.386475
0.542419 0.256592 0.369781
0.632965 0.271423 0.371063
0.714783 0.299133 0.393097
0.777191 0.345123 0.438324
0.048920 0.316071 0.333130
0.148987 0.352173 0.365112
0.264679 0.398315 0.406830
0.451447 0.451447 0.451447
0.618835 0.458160 0.448517
0.731903 0.473785 0.457733
0.814453 0.502350 0.484467
0.867523 0.541229 0.522522
0.076935 0.504639 0.360870
0.186310 0.554565 0.404938
0.302704 0.613525 0.452423
0.469696 0.657043 0.479370
0.684296 0.681488 0.499237
0.836426 0.700928 0.526886
0.923096 0.717987 0.556946
0.969482 0.748627 0.590118
0.140869 0.685303 0.438080
0.254395 0.733429 0.479034
0.363007 0.772827 0.509369
0.490326 0.790405 0.505829
0.706879 0.832214 0.533691
0.845520 0.841003 0.548401
0.944824 0.860229 0.574585
0.990723 0.885559 0.601501
0.194305 0.820770 0.500793
0.304810 0.857788 0.532990
0.408112 0.889648 0.556458
0.536377 0.899750 0.555145
0.719757 0.925934 0.564911
0.868683 0.947876 0.585663
0.955170 0.949707 0.594788
0.988647 0.963531 0.608582
0.269073 0.919312 0.578796
0.373688 0.948914 0.603851
0.471161 0.972687 0.620514
0.593903 0.976379 0.613647
0.763794 0.990509 0.613800
0.906403 1.000000 0.625885
0.976654 0.990479 0.617096
0.995209 0.989471 0.616302
0.000000 0.006195 0.378052
0.084259 0.012024 0.402008
0.193237 0.013855 0.420227
0.327393 0.019928 0.418823
0.451843 0.019287 0.396393
0.543701 0.021942 0.385193
0.614410 0.029572 0.390503
0.653046 0.049927 0.411621
0.012543 0.085480 0.397736
0.090851 0.101105 0.420227
0.193054 0.110657 0.452393
0.361542 0.121948 0.470093
0.496582 0.130219 0.449585
0.591705 0.135986 0.440033
0.662720 0.148193 0.446960
0.709320 0.177582 0.476318
0.019440 0.154480 0.408936
0.100159 0.174561 0.433502
0.198639 0.207275 0.475830
0.395416 0.233856 0.528259
0.571381 0.266052 0.532227
0.678925 0.289642 0.533478
0.769958 0.320221 0.558990
0.835083 0.368408 0.606720
0.028961 0.265808 0.420471
0.095703 0.276001 0.432892
0.192841 0.310547 0.471222
0.412506 0.417847 0.582764
0.666290 0.478699 0.642242
0.795288 0.506134 0.654205
0.871887 0.529388 0.667084
0.923492 0.568085 0.703247
0.091187 0.476715 0.501312
0.195831 0.520691 0.541443
0.293488 0.563385 0.580597
0.471191 0.634613 0.645050
0.696899 0.696899 0.696899
0.812256 0.688385 0.681244
0.899048 0.707886 0.696930
0.943359 0.734802 0.722809
0.140686 0.653534 0.564423
0.244324 0.695099 0.599091
0.346588 0.734985 0.631256
0.491730 0.789062 0.670471
0.690582 0.834930 0.698029
0.854187 0.852051 0.711731
0.973846 0.880035 0.745483
1.000000 0.904236 0.771851
0.186066 0.785614 0.618530
0.290466 0.820953 0.648346
0.395172 0.861023 0.683777
0.540314 0.907196 0.719421
0.716980 0.940491 0.728516
0.884064 0.970337 0.750580
0.977509 0.974152 0.756378
1.000000 0.986694 0.768738
0.255066 0.879089 0.691040
0.355743 0.908661 0.716339
0.456299 0.943268 0.748444
0.599976 0.984833 0.779053
0.755798 0.999390 0.768402
0.912201 1.000000 0.780914
0.992584 1.000000 0.772614
1.000000 1.000000 0.771637
0.000000 0.006165 0.466766
0.076721 0.012054 0.488159
0.179718 0.012573 0.508728
0.325928 0.010895 0.512238
0.460114 0.013123 0.496216
0.557068 0.016174 0.487701
0.629761 0.025940 0.490875
0.668640 0.047058 0.511719
0.008575 0.083862 0.484070
0.084686 0.097778 0.504517
0.179840 0.108307 0.533752
0.345764 0.108795 0.553680
0.502808 0.123444 0.549957
0.602295 0.132233 0.542023
0.679199 0.148682 0.549438
0.728546 0.180450 0.580841
0.019196 0.153870 0.498749
0.100342 0.175446 0.520355
0.193207 0.204468 0.554321
0.367371 0.223267 0.603271
0.574921 0.265350 0.634308
0.698090 0.295013 0.646393
0.795319 0.331482 0.672699
0.861969 0.381226 0.721436
0.012695 0.246918 0.495239
0.094025 0.267029 0.515381
0.193665 0.304871 0.555969
0.378418 0.386902 0.650696
0.672943 0.474060 0.759094
0.822571 0.521484 0.783966
0.913025 0.555267 0.800873
0.968018 0.595642 0.838318
0.083588 0.444763 0.572235
0.176697 0.477173 0.601471
0.258301 0.500336 0.623108
0.371399 0.518677 0.642731
0.651154 0.655273 0.782684
0.849365 0.704681 0.830811
0.951050 0.736877 0.851440
0.997070 0.767059 0.879486
0.148468 0.630127 0.660858
0.248260 0.665710 0.692322
0.348572 0.702637 0.725220
0.475006 0.738251 0.755035
0.691498 0.817078 0.825104
0.875671 0.875671 0.875671
0.936035 0.850983 0.845856
0.980743 0.875824 0.869568
0.191620 0.761719 0.719574
0.290558 0.791687 0.744629
0.388397 0.826477 0.773682
0.516632 0.860260 0.796021
0.719330 0.937286 0.855377
0.851379 0.950745 0.856506
0.958221 0.956726 0.860199
0.996857 0.970001 0.873383
0.255920 0.850891 0.788910
0.349976 0.874878 0.807953
0.442780 0.903534 0.830505
0.569336 0.933319 0.848297
0.758759 0.998138 0.897034
0.878876 0.999847 0.885193
0.970276 0.995056 0.874786
0.997345 0.995514 0.876465
0.000000 0.008301 0.531982
0.074951 0.013550 0.551849
0.174530 0.013763 0.572021
0.325439 0.007202 0.577393
0.469604 0.009583 0.565369
0.568420 0.014435 0.559052
0.641541 0.024780 0.562439
0.681427 0.046875 0.583832
0.006897 0.084717 0.546783
0.082489 0.097504 0.563782
0.174408 0.107788 0.590424
0.337006 0.104828 0.612091
0.506866 0.119293 0.614532
0.612305 0.131622 0.612793
0.693115 0.149719 0.623444
0.744995 0.183594 0.656738
0.019348 0.155457 0.561005
0.099731 0.176392 0.579529
0.190643 0.203796 0.612793
0.358246 0.223541 0.661804
0.579102 0.262573 0.701447
0.712708 0.300476 0.723541
0.812073 0.338623 0.751373
0.878754 0.388031 0.799255
0.011841 0.245361 0.555145
0.099060 0.271179 0.580414
0.204987 0.315308 0.624908
0.379517 0.389709 0.707001
0.651855 0.456818 0.807007
0.831665 0.528320 0.860443
0.926941 0.563690 0.880371
0.983032 0.603851 0.917114
0.069183 0.426758 0.616150
0.152863 0.450500 0.636932
0.231140 0.468140 0.652466
0.333618 0.475830 0.665161
0.623871 0.630157 0.826141
0.866364 0.714233 0.923767
0.974213 0.750519 0.945526
1.000000 0.783020 0.974548
0.146027 0.611572 0.712585
0.240540 0.639587 0.736237
0.332397 0.668457 0.761658
0.438721 0.680573 0.770752
0.625488 0.739288 0.826263
0.827667 0.830475 0.918152
0.959717 0.860107 0.946960
1.000000 0.885376 0.968689
0.196075 0.746277 0.781372
0.291779 0.772247 0.802887
0.386932 0.802612 0.829132
0.515839 0.833832 0.854126
0.702972 0.897125 0.909485
0.853455 0.939697 0.945190
0.992340 0.992340 0.992340
0.985901 0.962402 0.960876
0.259399 0.833893 0.850800
0.349182 0.853363 0.865753
0.439392 0.877563 0.885529
0.564911 0.904419 0.905151
0.735748 0.954681 0.944946
0.872955 0.986755 0.966888
0.959808 0.987457 0.961243
0.985748 0.985352 0.958557
0.000000 0.014008 0.554688
0.079620 0.018921 0.574249
0.178345 0.018829 0.594330
0.330963 0.011719 0.600861
0.478149 0.014252 0.589813
0.578033 0.020020 0.584076
0.651520 0.030975 0.588074
0.692230 0.053986 0.610382
0.010803 0.089447 0.568420
0.086823 0.102386 0.585632
0.178436 0.112762 0.611542
0.341125 0.110260 0.634033
0.515411 0.125183 0.638977
0.623718 0.139313 0.639740
0.706268 0.159027 0.652283
0.760223 0.194855 0.687744
0.023834 0.160767 0.582977
0.105194 0.182434 0.601349
0.196808 0.210449 0.634827
0.364960 0.232300 0.686096
0.591064 0.272614 0.729980
0.729919 0.314880 0.756592
0.830261 0.353882 0.785645
0.895691 0.401917 0.832397
0.018402 0.252441 0.578918
0.109436 0.281555 0.606506
0.216736 0.327362 0.652802
0.392120 0.402771 0.734283
0.659119 0.466217 0.831573
0.843719 0.539581 0.889130
0.941162 0.576294 0.911591
0.995941 0.614655 0.947052
0.073608 0.431885 0.637634
0.155975 0.453369 0.655701
0.233734 0.470551 0.671173
0.341492 0.482117 0.686920
0.622803 0.629669 0.843140
0.871185 0.717957 0.948029
0.987213 0.761047 0.977509
1.000000 0.792419 1.000000
0.151581 0.614258 0.732544
0.243805 0.639587 0.753082
0.332184 0.665192 0.775208
0.433136 0.671753 0.778656
0.607391 0.719971 0.825500
0.830200 0.833710 0.941772
0.972900 0.870270 0.981262
1.000000 0.895050 0.999847
0.202820 0.748535 0.802582
0.296326 0.772156 0.821686
0.389648 0.800079 0.845642
0.516937 0.828674 0.868652
0.694427 0.882477 0.916534
0.851044 0.932068 0.960724
0.956482 0.957275 0.981598
0.991058 0.963409 0.987488
0.265045 0.834717 0.871063
0.351501 0.850800 0.882629
0.440155 0.872742 0.900360
0.563538 0.896576 0.917816
0.727600 0.939667 0.953186
0.873352 0.979828 0.986603
0.961273 0.985138 0.986664
1.000000 1.000000 1.000000
