proprietary/odm/etc/camera/filters_lut/empty_33.cube
#Created by: Adobe Photoshop Export Color Lookup Plugin
TITLE "1.png"
#LUT size
LUT_3D_SIZE 5
#data domain
#LUT data points
DOMAIN_MIN 0.000000 0.000000 0.000000
DOMAIN_MAX 0.903226 0.903226 0.903226
0.000000 0.000000 0.000000
0.156647 0.019562 0.011719
0.335663 0.022797 0.004852
0.494537 0.020874 0.000000
0.579803 0.044678 0.009491
0.032471 0.195129 0.040863
0.211914 0.209473 0.050537
0.433777 0.204926 0.070587
0.591919 0.203827 0.066223
0.698669 0.247864 0.106537
0.027039 0.401855 0.046387
0.211365 0.457306 0.089325
0.520905 0.515228 0.145538
0.765533 0.545349 0.176788
0.890503 0.595184 0.227112
0.112183 0.695740 0.142334
0.291138 0.740021 0.184998
0.591705 0.794403 0.227448
0.803467 0.794647 0.221497
0.904144 0.824219 0.244934
0.237152 0.899414 0.271362
0.390839 0.916290 0.287079
0.678925 0.952271 0.312378
0.869507 0.931274 0.284851
0.936340 0.926361 0.278015
0.001556 0.006073 0.146332
0.182098 0.021851 0.161560
0.362915 0.026154 0.137024
0.511627 0.026703 0.122681
0.595795 0.050690 0.144104
0.047333 0.189484 0.198547
0.218811 0.218811 0.218811
0.431641 0.209564 0.196838
0.596466 0.220337 0.198792
0.705505 0.272400 0.247589
0.044037 0.422150 0.199799
0.227081 0.488281 0.240570
0.556335 0.552399 0.296844
0.812103 0.589844 0.357483
0.923096 0.636200 0.410309
0.143951 0.724792 0.306915
0.323700 0.773346 0.346924
0.619385 0.829254 0.389160
0.846344 0.839569 0.399780
0.944763 0.866272 0.424103
0.260620 0.920288 0.428986
0.420563 0.942535 0.447540
0.686127 0.974487 0.468475
0.899841 0.965454 0.455688
0.959473 0.951630 0.441895
0.000000 0.006500 0.323944
0.173859 0.013672 0.364105
0.390991 0.023621 0.343872
0.555695 0.024841 0.324951
0.643646 0.050110 0.350098
0.016449 0.136993 0.354004
0.177917 0.185242 0.412903
0.481140 0.221405 0.447815
0.657623 0.243073 0.436981
0.774261 0.305237 0.494171
0.060883 0.388062 0.408936
0.241730 0.469482 0.484039
0.584137 0.584137 0.584137
0.802063 0.594238 0.582336
0.906769 0.638489 0.623108
0.149658 0.704834 0.514130
0.339691 0.781738 0.585938
0.602600 0.845703 0.615143
0.890717 0.887085 0.650177
1.000000 0.921936 0.688049
0.260590 0.897614 0.639771
0.443176 0.958771 0.695251
0.671875 0.982727 0.687927
0.932037 1.000000 0.701202
1.000000 0.999390 0.696472
0.000000 0.006561 0.486267
0.149078 0.013153 0.522614
0.402405 0.010620 0.523560
0.580780 0.016907 0.508484
0.672150 0.046600 0.532959
0.017700 0.136200 0.514374
0.161133 0.173492 0.557526
0.473511 0.206696 0.622101
0.695465 0.252869 0.638733
0.829376 0.327515 0.705048
0.030731 0.331085 0.532196
0.176178 0.372803 0.572144
0.512573 0.519440 0.732422
0.878632 0.635376 0.847443
0.997528 0.692230 0.892395
0.159698 0.662079 0.694122
0.331848 0.722046 0.746948
0.591461 0.802612 0.816101
0.911224 0.911224 0.911224
0.981567 0.900055 0.894989
0.257202 0.845856 0.808411
0.417542 0.888550 0.842316
0.649567 0.947235 0.878845
0.899811 0.995300 0.904724
0.990051 0.988617 0.896057
0.000000 0.014008 0.554688
0.150604 0.019562 0.589783
0.415070 0.012390 0.596222
0.598785 0.021912 0.583832
0.692230 0.053986 0.610382
0.021515 0.142487 0.580231
0.164978 0.179138 0.619171
0.475067 0.207550 0.686737
0.722076 0.270325 0.724274
0.860992 0.348053 0.795227
0.031769 0.332611 0.592834
0.185059 0.380157 0.638947
0.501282 0.510101 0.783508
0.899475 0.648682 0.935730
1.000000 0.711060 0.983002
0.165100 0.652161 0.751709
0.325928 0.698608 0.790833
0.533600 0.728668 0.814850
0.868042 0.870728 0.954803
1.000000 0.912537 0.995972
0.265045 0.834717 0.871063
0.416687 0.866577 0.895264
0.633270 0.906067 0.923492
0.897675 0.980469 0.985748
1.000000 1.000000 1.000000
