proprietary/odm/etc/camera/filters_lut/ODT_2020_PQ10000nits-P3_srgb,roll-off_33_ver5.cube
#Created by: Adobe Photoshop Export Color Lookup Plugin
TITLE "11_未命名_1.65.1.jpg"
#LUT size
LUT_3D_SIZE 8
#data domain
#LUT data points
DOMAIN_MIN 0.000000 0.000000 0.000000
DOMAIN_MAX 0.903226 0.903226 0.903226
0.000000 0.000000 0.000000
0.043243 0.000000 0.002136
0.188263 0.000000 0.018677
0.399933 0.000000 0.073761
0.654480 0.000000 0.145782
0.870697 0.000000 0.206970
0.991333 0.000000 0.241119
1.000000 0.000000 0.254974
0.000000 0.037018 0.007233
0.040710 0.038879 0.000000
0.204346 0.019196 0.000031
0.413361 0.000000 0.054718
0.661621 0.000000 0.139740
0.875488 0.000000 0.205353
0.995300 0.000000 0.241241
1.000000 0.000000 0.255707
0.000000 0.172302 0.059631
0.000000 0.177582 0.031525
0.181946 0.177216 0.000000
0.430786 0.146637 0.000000
0.714508 0.001373 0.037598
0.911713 0.000000 0.188904
1.000000 0.000000 0.241302
1.000000 0.000000 0.260986
0.000000 0.370117 0.159363
0.000000 0.372223 0.151398
0.032715 0.387695 0.011200
0.388123 0.379272 0.000000
0.728180 0.319214 0.000000
1.000000 0.102966 0.009796
1.000000 0.000000 0.224335
1.000000 0.000000 0.276489
0.000000 0.607941 0.279266
0.000000 0.609039 0.276337
0.000000 0.617554 0.248749
0.176636 0.642242 0.000397
0.636047 0.622253 0.000000
1.000000 0.503204 0.000000
1.000000 0.219147 0.004303
1.000000 0.000000 0.268311
0.000000 0.809967 0.381134
0.000000 0.810699 0.380188
0.000000 0.816162 0.372192
0.000000 0.837677 0.324249
0.321564 0.873352 0.000000
0.846619 0.828644 0.000000
1.000000 0.645447 0.000000
1.000000 0.293060 0.003265
0.000000 0.922729 0.437988
0.000000 0.923279 0.437836
0.000000 0.927673 0.436462
0.000000 0.944794 0.428192
0.000000 0.986176 0.369141
0.409454 1.000000 0.000000
0.964142 0.943817 0.000000
1.000000 0.718201 0.000000
0.000000 0.968475 0.461060
0.000000 0.968994 0.461182
0.000000 0.973022 0.462067
0.000000 0.988647 0.464813
0.000000 1.000000 0.463165
0.000000 1.000000 0.398346
0.442352 1.000000 0.000000
1.000000 0.990540 0.000000
0.000000 0.000977 0.020691
0.042175 0.000000 0.034363
0.188019 0.000000 0.049255
0.399933 0.000000 0.091003
0.654633 0.000000 0.153320
0.870911 0.000000 0.209961
0.991608 0.000000 0.242218
1.000000 0.000000 0.255371
0.000000 0.037109 0.035370
0.038544 0.038544 0.038544
0.201508 0.021667 0.041199
0.412567 0.002014 0.078491
0.661713 0.000092 0.147858
0.875702 0.000000 0.208405
0.995575 0.000000 0.242340
1.000000 0.000000 0.256104
0.000000 0.172333 0.079163
0.002991 0.177032 0.063721
0.181488 0.177216 0.033966
0.430939 0.146210 0.035400
0.713196 0.008881 0.068359
0.911896 0.000000 0.192566
1.000000 0.000000 0.242493
1.000000 0.000000 0.261414
0.000000 0.370148 0.167633
0.000122 0.372253 0.160461
0.019867 0.388306 0.032349
0.388123 0.379395 0.020447
0.728790 0.318726 0.024475
1.000000 0.105408 0.032379
1.000000 0.000000 0.225922
1.000000 0.000000 0.276947
0.000000 0.608032 0.282745
0.000000 0.609100 0.279877
0.000000 0.617584 0.253082
0.171600 0.642822 0.006409
0.636169 0.622375 0.004578
1.000000 0.502808 0.009308
1.000000 0.219788 0.017365
1.000000 0.000000 0.268951
0.000000 0.810059 0.382507
0.000000 0.810791 0.381561
0.000000 0.816254 0.373627
0.000000 0.837769 0.326172
0.319427 0.873657 0.000153
0.846741 0.828735 0.000305
1.000000 0.645264 0.001282
1.000000 0.293732 0.012817
0.000000 0.922821 0.438507
0.000000 0.923401 0.438324
0.000000 0.927795 0.436951
0.000000 0.944885 0.428741
0.000000 0.986267 0.369904
0.408844 1.000000 0.000000
0.964233 0.943909 0.000000
1.000000 0.718201 0.000061
0.000000 0.968567 0.461243
0.000000 0.969086 0.461365
0.000000 0.973114 0.462280
0.000000 0.988770 0.465027
0.000000 1.000000 0.463379
0.000000 1.000000 0.398621
0.442200 1.000000 0.000000
1.000000 0.990631 0.000000
0.000000 0.008545 0.122528
0.030762 0.000000 0.162689
0.185638 0.000000 0.165009
0.399719 0.000000 0.177307
0.655640 0.000000 0.202576
0.872742 0.000000 0.231812
0.993805 0.000000 0.250549
1.000000 0.000000 0.258545
0.000000 0.041168 0.139496
0.022339 0.036560 0.173553
0.196198 0.020569 0.175812
0.411621 0.002075 0.176758
0.662628 0.000092 0.199829
0.877472 0.000000 0.230682
0.997742 0.000000 0.250732
1.000000 0.000000 0.259277
0.000000 0.172516 0.167877
0.001770 0.176208 0.171509
0.176331 0.176331 0.176331
0.428223 0.146637 0.173401
0.703766 0.057678 0.177460
0.913025 0.003204 0.219666
1.000000 0.000122 0.251434
1.000000 0.000000 0.264648
0.000000 0.370361 0.220917
0.000092 0.372375 0.217377
0.067596 0.384735 0.184204
0.386444 0.379303 0.162842
0.728973 0.318359 0.152466
1.000000 0.117035 0.126892
1.000000 0.000366 0.237976
1.000000 0.000000 0.280518
0.000000 0.608521 0.308167
0.000000 0.609589 0.305847
0.003937 0.617859 0.284821
0.164307 0.643890 0.127136
0.636017 0.622772 0.123474
1.000000 0.502625 0.112030
1.000000 0.220703 0.083984
1.000000 0.000031 0.273987
0.000000 0.810760 0.392883
0.000000 0.811462 0.391998
0.000183 0.816925 0.384674
0.000336 0.838348 0.340729
0.308228 0.875397 0.048615
0.847290 0.829407 0.055359
1.000000 0.645142 0.056854
1.000000 0.294495 0.051208
0.000000 0.923645 0.442413
0.000000 0.924194 0.442261
0.000000 0.928589 0.440948
0.000000 0.945648 0.433044
0.000031 0.986969 0.375763
0.404144 1.000000 0.004120
0.964935 0.944580 0.006165
1.000000 0.718231 0.012512
0.000000 0.969421 0.462830
0.000000 0.969940 0.462921
0.000000 0.973969 0.463837
0.000000 0.989594 0.466614
0.000000 1.000000 0.465057
0.000000 1.000000 0.400848
0.440796 1.000000 0.000153
1.000000 0.991272 0.000244
0.000000 0.038177 0.276978
0.000000 0.018646 0.323517
0.168152 0.000000 0.358032
0.395020 0.000000 0.356476
0.657898 0.000000 0.338501
0.879059 0.000000 0.308533
1.000000 0.000000 0.283997
1.000000 0.000000 0.271820
0.000000 0.062897 0.289825
0.002167 0.053192 0.325043
0.171417 0.015594 0.378113
0.404388 0.002075 0.365112
0.664429 0.000092 0.339813
0.883698 0.000000 0.308594
1.000000 0.000000 0.284424
1.000000 0.000000 0.272614
0.000000 0.174377 0.328552
0.000519 0.175232 0.342316
0.150635 0.171021 0.389221
0.418579 0.143158 0.383362
0.702820 0.058014 0.346436
0.918365 0.003265 0.307465
1.000000 0.000122 0.286987
1.000000 0.000000 0.278259
0.000000 0.370514 0.361816
0.000061 0.372101 0.363373
0.051666 0.382385 0.373779
0.377625 0.377625 0.377625
0.725830 0.318359 0.352997
1.000000 0.165283 0.297821
1.000000 0.017700 0.286163
1.000000 0.000488 0.295502
0.000000 0.609955 0.397095
0.000000 0.610962 0.396118
0.003143 0.618835 0.387421
0.197357 0.640594 0.345154
0.633728 0.623291 0.323151
1.000000 0.503082 0.283264
1.000000 0.226959 0.209015
1.000000 0.002228 0.295105
0.000000 0.813293 0.434601
0.000000 0.813995 0.433960
0.000183 0.819366 0.428619
0.021820 0.840088 0.398285
0.299255 0.877991 0.230682
0.848114 0.831177 0.223450
1.000000 0.646240 0.189697
1.000000 0.295868 0.136200
0.000000 0.926727 0.458923
0.000000 0.927277 0.458801
0.000000 0.931641 0.457733
0.000824 0.948578 0.451111
0.001617 0.989624 0.400299
0.394226 1.000000 0.107849
0.967102 0.946960 0.108307
1.000000 0.719574 0.097504
0.000000 0.972748 0.469391
0.000000 0.973267 0.469513
0.000000 0.977264 0.470428
0.000031 0.992798 0.473328
0.000031 1.000000 0.472260
0.000061 1.000000 0.410248
0.435486 1.000000 0.014069
1.000000 0.993835 0.018158
0.000000 0.090088 0.462738
0.000000 0.084686 0.481812
0.078796 0.000000 0.601990
0.355835 0.000000 0.622223
0.646790 0.000000 0.586670
0.887054 0.000000 0.485107
1.000000 0.000000 0.378693
1.000000 0.000000 0.313385
0.000000 0.102631 0.473633
0.000092 0.098236 0.491638
0.064087 0.005859 0.624146
0.360504 0.001434 0.635498
0.652161 0.000092 0.591614
0.891357 0.000000 0.486755
1.000000 0.000000 0.379608
1.000000 0.000000 0.314270
0.000000 0.180511 0.528839
0.000061 0.179321 0.541565
0.066742 0.161346 0.631042
0.370514 0.125702 0.676880
0.684143 0.055603 0.621582
0.923676 0.003418 0.498840
1.000000 0.000122 0.386383
1.000000 0.000000 0.320862
0.000000 0.364258 0.592529
0.000031 0.364990 0.597565
0.021240 0.369354 0.637482
0.336609 0.363800 0.689911
0.706818 0.310944 0.653473
1.000000 0.165436 0.530914
1.000000 0.018311 0.404877
1.000000 0.000519 0.342224
0.000000 0.608582 0.595001
0.000000 0.609436 0.595856
0.001923 0.616089 0.602356
0.171082 0.635315 0.622223
0.619659 0.619659 0.619659
1.000000 0.502991 0.546509
1.000000 0.267914 0.418976
1.000000 0.044312 0.362549
0.000000 0.817261 0.552521
0.000000 0.817932 0.552399
0.000122 0.823059 0.551300
0.017731 0.842926 0.542511
0.323822 0.876038 0.498962
0.846436 0.833344 0.465363
1.000000 0.648499 0.389923
1.000000 0.301910 0.278137
0.000000 0.933441 0.511536
0.000000 0.933990 0.511505
0.000000 0.938263 0.511230
0.000763 0.954926 0.508148
0.049072 0.994507 0.477875
0.386292 1.000000 0.304535
0.970764 0.951782 0.286835
1.000000 0.723145 0.236572
0.000000 0.980499 0.490448
0.000000 0.981018 0.490570
0.000000 0.984985 0.491608
0.000031 1.000000 0.494965
0.001648 1.000000 0.495636
0.003265 1.000000 0.441315
0.427643 1.000000 0.139954
1.000000 0.999664 0.135010
0.000000 0.134308 0.620483
0.000000 0.133209 0.630188
0.000000 0.115082 0.709778
0.221649 0.000000 0.884338
0.563965 0.000000 0.912903
0.860657 0.000000 0.782227
1.000000 0.000000 0.575684
1.000000 0.000000 0.414978
0.000000 0.141052 0.631378
0.000000 0.140015 0.640869
0.000000 0.123016 0.718811
0.220703 0.000366 0.897797
0.567413 0.000061 0.920258
0.864380 0.000000 0.785645
1.000000 0.000000 0.577454
1.000000 0.000000 0.416168
0.000000 0.189423 0.700470
0.000000 0.188690 0.708679
0.004028 0.178589 0.774719
0.213196 0.076752 0.967987
0.589417 0.038757 0.968658
0.892303 0.003326 0.811218
1.000000 0.000122 0.590790
1.000000 0.000000 0.425140
0.000000 0.338928 0.838593
0.000000 0.338989 0.843964
0.002838 0.338043 0.887207
0.204315 0.319183 1.000000
0.617065 0.274261 1.000000
0.969849 0.156799 0.884277
1.000000 0.018799 0.636505
1.000000 0.000549 0.456329
0.000000 0.584839 0.896576
0.000000 0.585388 0.898834
0.000763 0.589600 0.916595
0.105774 0.601440 0.987549
0.554138 0.589722 1.000000
1.000000 0.487518 0.934021
1.000000 0.266205 0.705933
1.000000 0.045288 0.506317
0.000000 0.810791 0.793091
0.000000 0.811401 0.793671
0.000092 0.816010 0.798187
0.011292 0.833679 0.815521
0.288025 0.864319 0.847351
0.825256 0.825256 0.825256
1.000000 0.646698 0.697540
1.000000 0.343750 0.516327
0.000000 0.937866 0.643799
0.000000 0.938416 0.643982
0.000000 0.942566 0.645386
0.000610 0.958649 0.649658
0.041382 0.996857 0.648132
0.407318 1.000000 0.600677
0.968811 0.954224 0.548462
1.000000 0.726044 0.448822
0.000000 0.989410 0.546967
0.000000 0.989899 0.547150
0.000000 0.993805 0.548523
0.000031 1.000000 0.553345
0.001526 1.000000 0.558929
0.065399 1.000000 0.528046
0.420593 1.000000 0.340546
1.000000 1.000000 0.314087
0.000000 0.158997 0.708527
0.000000 0.159424 0.714752
0.000000 0.161499 0.762604
0.000000 0.129974 0.957123
0.357239 0.000000 1.000000
0.730774 0.000000 1.000000
0.979980 0.000000 0.891357
1.000000 0.000000 0.613861
0.000000 0.163391 0.719696
0.000000 0.163818 0.725800
0.000000 0.165741 0.772888
0.000000 0.134735 0.965240
0.358368 0.000031 1.000000
0.733551 0.000000 1.000000
0.983124 0.000000 0.894226
1.000000 0.000000 0.615662
0.000000 0.195770 0.796600
0.000000 0.196045 0.802063
0.000122 0.197083 0.844360
0.000946 0.170074 1.000000
0.365631 0.011139 1.000000
0.754456 0.002106 1.000000
1.000000 0.000122 0.916138
1.000000 0.000000 0.629211
0.000000 0.305054 0.998840
0.000000 0.305176 1.000000
0.000153 0.305542 1.000000
0.032990 0.293335 1.000000
0.379517 0.187073 1.000000
0.817902 0.121155 1.000000
1.000000 0.017303 0.995087
1.000000 0.000549 0.678253
0.000000 0.522827 1.000000
0.000000 0.523132 1.000000
0.000122 0.525146 1.000000
0.021729 0.528687 1.000000
0.362244 0.506683 1.000000
0.868927 0.427826 1.000000
1.000000 0.249268 1.000000
1.000000 0.045135 0.773926
0.000000 0.768127 1.000000
0.000000 0.768616 1.000000
0.000031 0.772278 1.000000
0.004425 0.785797 1.000000
0.194946 0.808594 1.000000
0.735535 0.778473 1.000000
1.000000 0.621918 1.000000
1.000000 0.338623 0.842285
0.000000 0.923645 0.903625
0.000000 0.924133 0.904114
0.000000 0.928040 0.907928
0.000366 0.943146 0.922729
0.026917 0.978485 0.957397
0.363708 1.000000 0.990753
0.939972 0.939972 0.939972
1.000000 0.720642 0.776550
0.000000 0.989624 0.680817
0.000000 0.990112 0.681091
0.000000 0.993896 0.683289
0.000031 1.000000 0.691498
0.001190 1.000000 0.707733
0.056000 1.000000 0.708801
0.440979 1.000000 0.646912
1.000000 1.000000 0.580048
0.000000 0.169006 0.744263
0.000000 0.169983 0.749268
0.000000 0.177155 0.787140
0.000000 0.196503 0.924774
0.000000 0.147247 1.000000
0.462189 0.000000 1.000000
0.819122 0.000000 1.000000
1.000000 0.000000 0.935608
0.000000 0.172577 0.755585
0.000000 0.173553 0.760498
0.000000 0.180511 0.797699
0.000000 0.199341 0.933594
0.000000 0.149994 1.000000
0.463654 0.000000 1.000000
0.821655 0.000000 1.000000
1.000000 0.000000 0.938324
0.000000 0.198578 0.835663
0.000000 0.199371 0.840027
0.000000 0.205109 0.873169
0.000000 0.220520 0.997498
0.000122 0.170868 1.000000
0.474518 0.000488 1.000000
0.840912 0.000061 1.000000
1.000000 0.000000 0.958954
0.000000 0.283447 1.000000
0.000000 0.283905 1.000000
0.000000 0.287262 1.000000
0.000946 0.295654 1.000000
0.008575 0.250671 1.000000
0.508820 0.052277 1.000000
0.909973 0.010376 1.000000
1.000000 0.000488 1.000000
0.000000 0.453094 1.000000
0.000000 0.453369 1.000000
0.000000 0.455383 1.000000
0.001190 0.460602 1.000000
0.092133 0.443420 1.000000
0.545288 0.301666 1.000000
1.000000 0.196625 1.000000
1.000000 0.040955 1.000000
0.000000 0.679138 1.000000
0.000000 0.679504 1.000000
0.000000 0.682159 1.000000
0.000732 0.691498 1.000000
0.058960 0.703033 1.000000
0.490540 0.665649 1.000000
1.000000 0.544037 1.000000
1.000000 0.315247 1.000000
0.000000 0.868713 1.000000
0.000000 0.869171 1.000000
0.000000 0.872620 1.000000
0.000153 0.885803 1.000000
0.010406 0.915283 1.000000
0.251160 0.939392 1.000000
0.834106 0.882172 1.000000
1.000000 0.689667 1.000000
0.000000 0.969421 0.948456
0.000000 0.969879 0.948944
0.000000 0.973572 0.952515
0.000000 0.987762 0.966431
0.000702 1.000000 0.999329
0.038055 1.000000 1.000000
0.392548 1.000000 1.000000
0.986511 0.986511 0.986511
