proprietary/odm/etc/camera/filters_lut/ODT_2020_PQ10000nits-P3_srgb,roll-off_33_ver5.cube
#Created by: Adobe Photoshop Export Color Lookup Plugin
TITLE "11_未命名_1.65.1.jpg"
#LUT size
LUT_3D_SIZE 32
#data domain
DOMAIN_MIN 0.0 0.0 0.0
DOMAIN_MAX 1.0 1.0 1.0
#LUT data points
0.000000 0.000000 0.000000
0.001587 0.000000 0.000092
0.007446 0.000000 0.000366
0.020294 0.000000 0.000977
0.043243 0.000000 0.002136
0.073761 0.000000 0.004059
0.107910 0.000000 0.007141
0.145996 0.000000 0.011810
0.188263 0.000000 0.018677
0.234894 0.000000 0.028412
0.285889 0.000000 0.041504
0.341034 0.000000 0.057068
0.399933 0.000000 0.073761
0.461914 0.000000 0.091278
0.525879 0.000000 0.109406
0.590576 0.000000 0.127716
0.654480 0.000000 0.145782
0.715790 0.000000 0.163147
0.773041 0.000000 0.179352
0.824951 0.000000 0.194031
0.870697 0.000000 0.206970
0.909912 0.000000 0.218079
0.942780 0.000000 0.227386
0.969696 0.000000 0.234985
0.991333 0.000000 0.241119
1.000000 0.000000 0.245972
1.000000 0.000000 0.249786
1.000000 0.000000 0.252716
1.000000 0.000000 0.254974
1.000000 0.000000 0.256714
1.000000 0.000000 0.257996
1.000000 0.000000 0.259003
0.000000 0.001373 0.000275
0.001495 0.001434 0.000000
0.008423 0.001099 0.000000
0.023621 0.000397 0.000061
0.047241 0.000061 0.001068
0.076630 0.000000 0.003021
0.109955 0.000000 0.006134
0.147522 0.000000 0.010834
0.189453 0.000000 0.017700
0.235840 0.000000 0.027466
0.286621 0.000000 0.040619
0.341644 0.000000 0.056366
0.400452 0.000000 0.073212
0.462311 0.000000 0.090851
0.526245 0.000000 0.109070
0.590881 0.000000 0.127441
0.654724 0.000000 0.145569
0.716034 0.000000 0.162994
0.773254 0.000000 0.179230
0.825134 0.000000 0.193939
0.870850 0.000000 0.206909
0.910095 0.000000 0.218048
0.942932 0.000000 0.227356
0.969849 0.000000 0.234985
0.991486 0.000000 0.241119
1.000000 0.000000 0.246002
1.000000 0.000000 0.249786
1.000000 0.000000 0.252747
1.000000 0.000000 0.255005
1.000000 0.000000 0.256744
1.000000 0.000000 0.258026
1.000000 0.000000 0.259033
0.000000 0.006317 0.001221
0.000244 0.006897 0.000061
0.006989 0.006653 0.000000
0.022186 0.005951 0.000000
0.049042 0.004547 0.000000
0.082336 0.002289 0.000122
0.117004 0.000305 0.001892
0.153107 0.000000 0.006714
0.193756 0.000000 0.013855
0.239197 0.000000 0.023804
0.289307 0.000000 0.037292
0.343811 0.000000 0.053680
0.402222 0.000000 0.071106
0.463806 0.000000 0.089233
0.527496 0.000000 0.107788
0.591980 0.000000 0.126465
0.655701 0.000000 0.144836
0.716858 0.000000 0.162415
0.773987 0.000000 0.178802
0.825836 0.000000 0.193634
0.871490 0.000000 0.206726
0.910675 0.000000 0.217926
0.943481 0.000000 0.227295
0.970367 0.000000 0.234955
0.992004 0.000000 0.241150
1.000000 0.000000 0.246033
1.000000 0.000000 0.249847
1.000000 0.000000 0.252838
1.000000 0.000000 0.255096
1.000000 0.000000 0.256836
1.000000 0.000000 0.258148
1.000000 0.000000 0.259125
0.000000 0.017242 0.003326
0.000000 0.017914 0.002228
0.004059 0.018768 0.000031
0.019043 0.018158 0.000000
0.046021 0.016846 0.000000
0.080322 0.014557 0.000000
0.118103 0.010773 0.000000
0.159485 0.005310 0.000427
0.202576 0.000671 0.004181
0.246521 0.000000 0.014557
0.295197 0.000000 0.028931
0.348602 0.000000 0.046906
0.406158 0.000000 0.066071
0.467102 0.000000 0.085388
0.530304 0.000000 0.104828
0.594360 0.000000 0.124207
0.657776 0.000000 0.143097
0.718719 0.000000 0.161102
0.775665 0.000000 0.177856
0.827332 0.000000 0.192963
0.872894 0.000000 0.206238
0.911987 0.000000 0.217621
0.944733 0.000000 0.227142
0.971558 0.000000 0.234924
0.993164 0.000000 0.241180
1.000000 0.000000 0.246124
1.000000 0.000000 0.250000
1.000000 0.000000 0.253021
1.000000 0.000000 0.255310
1.000000 0.000000 0.257080
1.000000 0.000000 0.258392
1.000000 0.000000 0.259399
0.000000 0.037018 0.007233
0.000000 0.037659 0.006226
0.000275 0.039948 0.001495
0.013550 0.040009 0.000000
0.040710 0.038879 0.000000
0.076599 0.036804 0.000000
0.115265 0.033325 0.000000
0.157684 0.027740 0.000000
0.204346 0.019196 0.000031
0.254700 0.008118 0.001465
0.305634 0.000519 0.010742
0.357300 0.000000 0.031067
0.413361 0.000000 0.054718
0.473145 0.000000 0.077271
0.535400 0.000000 0.098846
0.598755 0.000000 0.119720
0.661621 0.000000 0.139740
0.722107 0.000000 0.158630
0.778717 0.000000 0.176025
0.830139 0.000000 0.191650
0.875488 0.000000 0.205353
0.914429 0.000000 0.217072
0.947052 0.000000 0.226837
0.973785 0.000000 0.234833
0.995300 0.000000 0.241241
1.000000 0.000000 0.246307
1.000000 0.000000 0.250275
1.000000 0.000000 0.253326
1.000000 0.000000 0.255707
1.000000 0.000000 0.257507
1.000000 0.000000 0.258850
1.000000 0.000000 0.259888
0.000000 0.065308 0.013824
0.000000 0.065765 0.012848
0.000000 0.067444 0.008667
0.004974 0.069916 0.000519
0.031830 0.069275 0.000000
0.070404 0.067902 0.000000
0.110779 0.065491 0.000000
0.154236 0.061432 0.000000
0.201660 0.054749 0.000000
0.253510 0.043732 0.000000
0.309906 0.026672 0.000031
0.368958 0.006989 0.004425
0.425323 0.000000 0.027618
0.483154 0.000000 0.059540
0.543945 0.000000 0.086853
0.606110 0.000000 0.111176
0.668030 0.000000 0.133545
0.727814 0.000000 0.154114
0.783844 0.000000 0.172760
0.834808 0.000000 0.189362
0.879822 0.000000 0.203827
0.918488 0.000000 0.216095
0.950897 0.000000 0.226318
0.977478 0.000000 0.234619
0.998871 0.000000 0.241302
1.000000 0.000000 0.246582
1.000000 0.000000 0.250702
1.000000 0.000000 0.253906
1.000000 0.000000 0.256348
1.000000 0.000000 0.258209
1.000000 0.000000 0.259613
1.000000 0.000000 0.260681
0.000000 0.097229 0.024292
0.000000 0.097534 0.023315
0.000000 0.098755 0.019470
0.000000 0.101471 0.008911
0.017731 0.102997 0.000214
0.059814 0.102081 0.000000
0.103668 0.100494 0.000000
0.148926 0.097809 0.000000
0.197571 0.093475 0.000000
0.250366 0.086487 0.000000
0.307587 0.075317 0.000000
0.369141 0.056885 0.000061
0.434021 0.028687 0.002136
0.498047 0.002838 0.018280
0.557251 0.000000 0.059875
0.617615 0.000000 0.094269
0.678101 0.000000 0.122040
0.736755 0.000000 0.146027
0.791901 0.000000 0.167084
0.842163 0.000000 0.185425
0.886658 0.000000 0.201172
0.924896 0.000000 0.214417
0.957001 0.000000 0.225403
0.983337 0.000000 0.234283
1.000000 0.000000 0.241394
1.000000 0.000000 0.247009
1.000000 0.000000 0.251373
1.000000 0.000000 0.254761
1.000000 0.000000 0.257355
1.000000 0.000000 0.259338
1.000000 0.000000 0.260834
1.000000 0.000000 0.261932
0.000000 0.132812 0.039764
0.000000 0.133057 0.038879
0.000000 0.133942 0.035370
0.000000 0.135956 0.026276
0.001190 0.139618 0.005280
0.040802 0.139801 0.000000
0.092041 0.138702 0.000000
0.140747 0.136841 0.000000
0.191345 0.133820 0.000000
0.245544 0.128998 0.000000
0.303986 0.121368 0.000000
0.366699 0.109589 0.000000
0.433319 0.091156 0.000092
0.502991 0.060364 0.000580
0.572449 0.019623 0.010986
0.634766 0.000000 0.053192
0.693146 0.000000 0.098907
0.750153 0.000000 0.131104
0.803986 0.000000 0.157043
0.853210 0.000000 0.178619
0.896881 0.000000 0.196655
0.934540 0.000000 0.211609
0.966156 0.000000 0.223816
0.992126 0.000000 0.233643
1.000000 0.000000 0.241455
1.000000 0.000000 0.247589
1.000000 0.000000 0.252380
1.000000 0.000000 0.256042
1.000000 0.000000 0.258850
1.000000 0.000000 0.261017
1.000000 0.000000 0.262634
1.000000 0.000000 0.263855
0.000000 0.172302 0.059631
0.000000 0.172516 0.058899
0.000000 0.173187 0.056152
0.000000 0.174713 0.049072
0.000000 0.177582 0.031525
0.012146 0.181152 0.002777
0.072021 0.180664 0.000000
0.127838 0.179352 0.000000
0.181946 0.177216 0.000000
0.238281 0.173737 0.000000
0.298401 0.168182 0.000000
0.362610 0.159607 0.000000
0.430786 0.146637 0.000000
0.502136 0.127136 0.000061
0.575531 0.096375 0.000214
0.648285 0.049438 0.006683
0.714508 0.001373 0.037598
0.769379 0.000000 0.100189
0.821381 0.000000 0.138306
0.869171 0.000000 0.166595
0.911713 0.000000 0.188904
0.948456 0.000000 0.206757
0.979401 0.000000 0.221039
1.000000 0.000000 0.232391
1.000000 0.000000 0.241302
1.000000 0.000000 0.248291
1.000000 0.000000 0.253693
1.000000 0.000000 0.257812
1.000000 0.000000 0.260986
1.000000 0.000000 0.263397
1.000000 0.000000 0.265198
1.000000 0.000000 0.266571
0.000000 0.215881 0.081604
0.000000 0.216034 0.081024
0.000000 0.216583 0.078949
0.000000 0.217743 0.073883
0.000000 0.219971 0.062469
0.000000 0.223785 0.032806
0.036255 0.226501 0.002228
0.106628 0.225769 0.000000
0.167389 0.224243 0.000000
0.227356 0.221741 0.000000
0.289856 0.217590 0.000000
0.356079 0.211090 0.000000
0.426208 0.201141 0.000000
0.499603 0.186401 0.000000
0.575134 0.164978 0.000000
0.651245 0.133301 0.000305
0.726105 0.080261 0.001221
0.793549 0.016754 0.024384
0.845520 0.000000 0.097351
0.891327 0.000000 0.143616
0.932312 0.000000 0.174866
0.967865 0.000000 0.198151
0.997864 0.000000 0.216064
1.000000 0.000000 0.229919
1.000000 0.000000 0.240662
1.000000 0.000000 0.248932
1.000000 0.000000 0.255310
1.000000 0.000000 0.260162
1.000000 0.000000 0.263855
1.000000 0.000000 0.266663
1.000000 0.000000 0.268768
1.000000 0.000000 0.270355
0.000000 0.263519 0.105621
0.000000 0.263641 0.105194
0.000000 0.264069 0.103577
0.000000 0.265015 0.099792
0.000000 0.266754 0.091827
0.000000 0.269745 0.074615
0.000000 0.274597 0.026917
0.068115 0.276215 0.000671
0.144379 0.275208 0.000000
0.210754 0.273407 0.000000
0.277039 0.270386 0.000000
0.345947 0.265442 0.000000
0.418488 0.257629 0.000000
0.494385 0.245819 0.000000
0.572632 0.228729 0.000000
0.651642 0.204559 0.000031
0.729584 0.170319 0.000092
0.804108 0.118164 0.001068
0.870331 0.049408 0.022278
0.921112 0.000000 0.089233
0.960052 0.000000 0.147247
0.993988 0.000000 0.182190
1.000000 0.000000 0.206848
1.000000 0.000000 0.225067
1.000000 0.000000 0.238800
1.000000 0.000000 0.249176
1.000000 0.000000 0.257050
1.000000 0.000000 0.263000
1.000000 0.000000 0.267517
1.000000 0.000000 0.270905
1.000000 0.000000 0.273468
1.000000 0.000000 0.275391
0.000000 0.315063 0.131592
0.000000 0.315155 0.131256
0.000000 0.315491 0.130005
0.000000 0.316254 0.127075
0.000000 0.317657 0.121246
0.000000 0.320038 0.109741
0.000000 0.323883 0.084930
0.005554 0.329620 0.015228
0.103851 0.330017 0.000000
0.185242 0.328827 0.000000
0.257812 0.326691 0.000000
0.330750 0.323059 0.000000
0.406342 0.316986 0.000000
0.485199 0.307465 0.000000
0.566620 0.293335 0.000000
0.649139 0.273193 0.000000
0.730865 0.245453 0.000000
0.809357 0.207855 0.000244
0.882568 0.154694 0.001709
0.947052 0.077698 0.017090
0.996124 0.000000 0.073029
1.000000 0.000000 0.149445
1.000000 0.000000 0.188995
1.000000 0.000000 0.215424
1.000000 0.000000 0.234314
1.000000 0.000000 0.248138
1.000000 0.000000 0.258423
1.000000 0.000000 0.266113
1.000000 0.000000 0.271851
1.000000 0.000000 0.276154
1.000000 0.000000 0.279388
1.000000 0.000000 0.281769
0.000000 0.370117 0.159363
0.000000 0.370178 0.159088
0.000000 0.370453 0.158081
0.000000 0.371094 0.155823
0.000000 0.372223 0.151398
0.000000 0.374176 0.143097
0.000000 0.377289 0.127228
0.000000 0.382111 0.092499
0.032715 0.387695 0.011200
0.143250 0.387665 0.000000
0.229126 0.386292 0.000000
0.308289 0.383759 0.000000
0.388123 0.379272 0.000000
0.470459 0.371796 0.000000
0.555450 0.360138 0.000000
0.641968 0.343048 0.000000
0.728180 0.319214 0.000000
0.811584 0.287292 0.000000
0.889893 0.245361 0.000244
0.961151 0.188965 0.000977
1.000000 0.102966 0.009796
1.000000 0.005554 0.052429
1.000000 0.000000 0.150604
1.000000 0.000000 0.195679
1.000000 0.000000 0.224335
1.000000 0.000000 0.244171
1.000000 0.000000 0.258423
1.000000 0.000000 0.268829
1.000000 0.000000 0.276489
1.000000 0.000000 0.282196
1.000000 0.000000 0.286407
1.000000 0.000000 0.289551
0.000000 0.428009 0.188538
0.000000 0.428070 0.188324
0.000000 0.428314 0.187531
0.000000 0.428802 0.185760
0.000000 0.429779 0.182343
0.000000 0.431366 0.176147
0.000000 0.433929 0.165039
0.000000 0.437866 0.143982
0.000000 0.443756 0.096130
0.071167 0.448792 0.010925
0.184204 0.448639 0.000000
0.275604 0.447083 0.000000
0.361664 0.444000 0.000000
0.448456 0.438416 0.000000
0.537415 0.429108 0.000000
0.628265 0.414825 0.000000
0.719391 0.394196 0.000000
0.808380 0.366089 0.000000
0.892761 0.329376 0.000000
0.970245 0.282623 0.000244
1.000000 0.222504 0.001709
1.000000 0.130463 0.004242
1.000000 0.026917 0.040924
1.000000 0.000000 0.151123
1.000000 0.000000 0.202698
1.000000 0.000000 0.233948
1.000000 0.000000 0.255035
1.000000 0.000000 0.269928
1.000000 0.000000 0.280640
1.000000 0.000000 0.288452
1.000000 0.000000 0.294189
1.000000 0.000000 0.298431
0.000000 0.487793 0.218689
0.000000 0.487854 0.218536
0.000000 0.488037 0.217896
0.000000 0.488464 0.216492
0.000000 0.489288 0.213837
0.000000 0.490631 0.209137
0.000000 0.492767 0.200958
0.000000 0.496063 0.186615
0.000000 0.500946 0.159485
0.000000 0.508026 0.094055
0.107269 0.512360 0.009644
0.226501 0.512054 0.000000
0.324036 0.510254 0.000000
0.417053 0.506439 0.000000
0.510803 0.499512 0.000000
0.606110 0.487976 0.000000
0.702332 0.470490 0.000000
0.797272 0.445831 0.000000
0.888428 0.412964 0.000000
0.973236 0.371094 0.000000
1.000000 0.319183 0.000214
1.000000 0.254486 0.001190
1.000000 0.162262 0.001068
1.000000 0.055969 0.041779
1.000000 0.000000 0.151367
1.000000 0.000000 0.210327
1.000000 0.000000 0.244507
1.000000 0.000000 0.267059
1.000000 0.000000 0.282715
1.000000 0.000000 0.293915
1.000000 0.000000 0.301971
1.000000 0.000000 0.307892
0.000000 0.548248 0.249176
0.000000 0.548309 0.249054
0.000000 0.548462 0.248535
0.000000 0.548828 0.247437
0.000000 0.549500 0.245392
0.000000 0.550659 0.241760
0.000000 0.552490 0.235626
0.000000 0.555267 0.225342
0.000000 0.559387 0.207397
0.000000 0.565308 0.173309
0.000000 0.573700 0.082825
0.142395 0.577271 0.006653
0.269653 0.576813 0.000000
0.373566 0.574646 0.000000
0.473480 0.569916 0.000000
0.573792 0.561249 0.000000
0.675079 0.547058 0.000000
0.775909 0.526001 0.000000
0.874023 0.496887 0.000000
0.966797 0.458954 0.000000
1.000000 0.411743 0.000000
1.000000 0.354553 0.000000
1.000000 0.284912 0.000000
1.000000 0.192596 0.001862
1.000000 0.078979 0.043182
1.000000 0.000000 0.151733
1.000000 0.000000 0.218719
1.000000 0.000000 0.256012
1.000000 0.000000 0.280151
1.000000 0.000000 0.296753
1.000000 0.000000 0.308502
1.000000 0.000000 0.316925
0.000000 0.607941 0.279266
0.000000 0.608002 0.279175
0.000000 0.608124 0.278778
0.000000 0.608459 0.277924
0.000000 0.609039 0.276337
0.000000 0.610046 0.273529
0.000000 0.611603 0.268921
0.000000 0.614014 0.261322
0.000000 0.617554 0.248749
0.000000 0.622620 0.226990
0.000000 0.629700 0.185089
0.000000 0.639496 0.055145
0.176636 0.642242 0.000397
0.312805 0.641571 0.000000
0.423035 0.638916 0.000000
0.529480 0.632996 0.000000
0.636047 0.622253 0.000000
0.742432 0.605011 0.000000
0.847260 0.579987 0.000000
0.947998 0.546234 0.000000
1.000000 0.503204 0.000000
1.000000 0.450745 0.000000
1.000000 0.388367 0.000000
1.000000 0.314026 0.000000
1.000000 0.219147 0.004303
1.000000 0.095367 0.038483
1.000000 0.000000 0.152557
1.000000 0.000000 0.227844
1.000000 0.000000 0.268311
1.000000 0.000000 0.294159
1.000000 0.000000 0.311737
1.000000 0.000000 0.324066
0.000000 0.665253 0.308167
0.000000 0.665283 0.308075
0.000000 0.665405 0.307800
0.000000 0.665680 0.307129
0.000000 0.666199 0.305878
0.000000 0.667084 0.303741
0.000000 0.668457 0.300262
0.000000 0.670563 0.294617
0.000000 0.673645 0.285553
0.000000 0.678040 0.270660
0.000000 0.684204 0.244904
0.000000 0.692566 0.194366
0.023193 0.703278 0.031494
0.217804 0.705475 0.000000
0.355103 0.704712 0.000000
0.471344 0.701355 0.000000
0.583923 0.693939 0.000000
0.695770 0.680786 0.000000
0.806610 0.660217 0.000000
0.914734 0.631073 0.000000
1.000000 0.592590 0.000000
1.000000 0.544617 0.000000
1.000000 0.487122 0.000000
1.000000 0.419861 0.000000
1.000000 0.341064 0.001007
1.000000 0.241394 0.000854
1.000000 0.109711 0.036407
1.000000 0.000000 0.154449
1.000000 0.000000 0.237762
1.000000 0.000000 0.281189
1.000000 0.000000 0.308655
1.000000 0.000000 0.327179
0.000000 0.718750 0.335144
0.000000 0.718781 0.335083
0.000000 0.718872 0.334839
0.000000 0.719147 0.334351
0.000000 0.719604 0.333405
0.000000 0.720367 0.331787
0.000000 0.721588 0.329132
0.000000 0.723480 0.324951
0.000000 0.726196 0.318359
0.000000 0.730103 0.307861
0.000000 0.735535 0.290680
0.000000 0.742889 0.260834
0.000000 0.752625 0.201080
0.069946 0.763519 0.030640
0.255737 0.765839 0.000000
0.395538 0.764832 0.000000
0.517365 0.760498 0.000000
0.635071 0.751251 0.000000
0.751526 0.735413 0.000000
0.866028 0.711334 0.000000
0.976807 0.678070 0.000000
1.000000 0.635132 0.000000
1.000000 0.582489 0.000000
1.000000 0.520355 0.000000
1.000000 0.448547 0.000000
1.000000 0.365204 0.000397
1.000000 0.261963 0.002899
1.000000 0.123474 0.042023
1.000000 0.000000 0.157898
1.000000 0.000000 0.248199
1.000000 0.000000 0.294312
1.000000 0.000000 0.323212
0.000000 0.767242 0.359589
0.000000 0.767273 0.359558
0.000000 0.767365 0.359375
0.000000 0.767609 0.359009
0.000000 0.768005 0.358276
0.000000 0.768707 0.357086
0.000000 0.769836 0.355133
0.000000 0.771515 0.352051
0.000000 0.773987 0.347229
0.000000 0.777496 0.339752
0.000000 0.782379 0.327942
0.000000 0.788940 0.308563
0.000000 0.797607 0.274658
0.000000 0.808777 0.205200
0.106171 0.819763 0.030792
0.290253 0.822083 0.000000
0.433350 0.820587 0.000000
0.559784 0.815033 0.000000
0.681915 0.803680 0.000000
0.802063 0.784973 0.000000
0.919495 0.757355 0.000000
1.000000 0.720154 0.000000
1.000000 0.673065 0.000000
1.000000 0.616211 0.000000
1.000000 0.549896 0.000000
1.000000 0.473938 0.000122
1.000000 0.386597 0.001617
1.000000 0.279877 0.006439
1.000000 0.133209 0.044128
1.000000 0.000000 0.163300
1.000000 0.000000 0.259064
1.000000 0.000000 0.307343
0.000000 0.809967 0.381134
0.000000 0.809998 0.381104
0.000000 0.810089 0.380981
0.000000 0.810303 0.380707
0.000000 0.810699 0.380188
0.000000 0.811340 0.379303
0.000000 0.812347 0.377869
0.000000 0.813904 0.375641
0.000000 0.816162 0.372192
0.000000 0.819397 0.366882
0.000000 0.823853 0.358643
0.000000 0.829834 0.345642
0.000000 0.837677 0.324249
0.000000 0.847717 0.286469
0.000000 0.860260 0.207031
0.135315 0.871185 0.030609
0.321564 0.873352 0.000000
0.467560 0.871063 0.000000
0.597900 0.863922 0.000000
0.723572 0.850281 0.000000
0.846619 0.828644 0.000000
0.966309 0.797668 0.000000
1.000000 0.756836 0.000000
1.000000 0.706024 0.000000
1.000000 0.645447 0.000000
1.000000 0.575378 0.000000
1.000000 0.495667 0.000122
1.000000 0.404388 0.001282
1.000000 0.293060 0.003265
1.000000 0.137848 0.038361
1.000000 0.000000 0.170959
1.000000 0.000000 0.270142
0.000000 0.846649 0.399628
0.000000 0.846680 0.399597
0.000000 0.846771 0.399506
0.000000 0.846954 0.399323
0.000000 0.847290 0.398956
0.000000 0.847900 0.398315
0.000000 0.848846 0.397308
0.000000 0.850281 0.395721
0.000000 0.852386 0.393311
0.000000 0.855377 0.389587
0.000000 0.859528 0.383911
0.000000 0.865082 0.375122
0.000000 0.872314 0.361115
0.000000 0.881531 0.337891
0.000000 0.892944 0.296417
0.000000 0.906677 0.206970
0.160034 0.917389 0.029999
0.349121 0.919006 0.000000
0.497742 0.915619 0.000000
0.631226 0.906647 0.000000
0.759583 0.890564 0.000000
0.884857 0.866089 0.000000
1.000000 0.832001 0.000000
1.000000 0.787964 0.000000
1.000000 0.733887 0.000000
1.000000 0.670044 0.000000
1.000000 0.596680 0.000000
1.000000 0.513550 0.000000
1.000000 0.418518 0.000458
1.000000 0.302673 0.004089
1.000000 0.140930 0.039612
1.000000 0.000000 0.180939
0.000000 0.877350 0.415100
0.000000 0.877350 0.415100
0.000000 0.877441 0.415039
0.000000 0.877625 0.414886
0.000000 0.877960 0.414642
0.000000 0.878510 0.414215
0.000000 0.879425 0.413513
0.000000 0.880768 0.412445
0.000000 0.882751 0.410797
0.000000 0.885559 0.408295
0.000000 0.889465 0.404480
0.000000 0.894684 0.398590
0.000000 0.901459 0.389374
0.000000 0.910065 0.374542
0.000000 0.920654 0.349701
0.000000 0.933258 0.304840
0.000000 0.947968 0.205475
0.180664 0.958099 0.029419
0.372986 0.958893 0.000000
0.523743 0.954041 0.000000
0.659576 0.943085 0.000000
0.789917 0.924591 0.000000
0.916840 0.897461 0.000000
1.000000 0.860565 0.000000
1.000000 0.813721 0.000000
1.000000 0.756836 0.000000
1.000000 0.690155 0.000000
1.000000 0.613861 0.000000
1.000000 0.527649 0.000122
1.000000 0.429230 0.001404
1.000000 0.308350 0.000183
1.000000 0.140930 0.042389
0.000000 0.902496 0.427795
0.000000 0.902496 0.427795
0.000000 0.902588 0.427734
0.000000 0.902771 0.427643
0.000000 0.903076 0.427490
0.000000 0.903625 0.427216
0.000000 0.904480 0.426788
0.000000 0.905762 0.426086
0.000000 0.907654 0.425049
0.000000 0.910339 0.423431
0.000000 0.914032 0.420990
0.000000 0.918976 0.417206
0.000000 0.925446 0.411255
0.000000 0.933594 0.401764
0.000000 0.943573 0.386292
0.000000 0.955383 0.360016
0.000000 0.968994 0.312012
0.000000 0.984192 0.203430
0.197754 0.993439 0.028778
0.393066 0.993011 0.000000
0.545471 0.986511 0.000000
0.683044 0.973480 0.000000
0.814880 0.952698 0.000000
0.943054 0.923126 0.000000
1.000000 0.883820 0.000000
1.000000 0.834564 0.000000
1.000000 0.775238 0.000000
1.000000 0.706055 0.000000
1.000000 0.627136 0.000000
1.000000 0.538025 0.000000
1.000000 0.436127 0.000000
1.000000 0.310608 0.000000
0.000000 0.922729 0.437988
0.000000 0.922729 0.437988
0.000000 0.922821 0.437958
0.000000 0.922974 0.437927
0.000000 0.923279 0.437836
0.000000 0.923798 0.437683
0.000000 0.924622 0.437439
0.000000 0.925873 0.437042
0.000000 0.927673 0.436462
0.000000 0.930267 0.435516
0.000000 0.933838 0.434082
0.000000 0.938599 0.431824
0.000000 0.944794 0.428192
0.000000 0.952606 0.422333
0.000000 0.962128 0.412750
0.000000 0.973358 0.396729
0.000000 0.986176 0.369141
0.000000 1.000000 0.318390
0.000000 1.000000 0.201416
0.211548 1.000000 0.028229
0.409454 1.000000 0.000000
0.563171 1.000000 0.000000
0.701996 0.998352 0.000000
0.834961 0.975464 0.000000
0.964142 0.943817 0.000000
1.000000 0.902405 0.000000
1.000000 0.851074 0.000000
1.000000 0.789642 0.000000
1.000000 0.718201 0.000000
1.000000 0.636871 0.000000
1.000000 0.545044 0.000000
1.000000 0.439819 0.000000
0.000000 0.938751 0.446075
0.000000 0.938782 0.446075
0.000000 0.938843 0.446075
0.000000 0.938995 0.446045
0.000000 0.939301 0.446014
0.000000 0.939789 0.445953
0.000000 0.940613 0.445862
0.000000 0.941803 0.445709
0.000000 0.943573 0.445465
0.000000 0.946075 0.445038
0.000000 0.949524 0.444366
0.000000 0.954132 0.443207
0.000000 0.960144 0.441284
0.000000 0.967682 0.437927
0.000000 0.976898 0.432251
0.000000 0.987701 0.422607
0.000000 0.999969 0.406097
0.000000 1.000000 0.377380
0.000000 1.000000 0.324188
0.000000 1.000000 0.200134
0.222168 1.000000 0.027832
0.422363 1.000000 0.000000
0.577087 1.000000 0.000000
0.716919 1.000000 0.000000
0.850769 0.993652 0.000000
0.980835 0.960175 0.000000
1.000000 0.916992 0.000000
1.000000 0.863861 0.000000
1.000000 0.800537 0.000000
1.000000 0.727081 0.000000
1.000000 0.643433 0.000000
1.000000 0.548920 0.000000
0.000000 0.951294 0.452393
0.000000 0.951324 0.452393
0.000000 0.951385 0.452393
0.000000 0.951538 0.452393
0.000000 0.951843 0.452423
0.000000 0.952332 0.452423
0.000000 0.953094 0.452454
0.000000 0.954285 0.452454
0.000000 0.955994 0.452484
0.000000 0.958435 0.452454
0.000000 0.961792 0.452362
0.000000 0.966309 0.452026
0.000000 0.972168 0.451324
0.000000 0.979523 0.449799
0.000000 0.988464 0.446838
0.000000 0.998962 0.441376
0.000000 1.000000 0.431641
0.000000 1.000000 0.414703
0.000000 1.000000 0.384888
0.000000 1.000000 0.329651
0.000000 1.000000 0.200195
0.229767 1.000000 0.027740
0.431946 1.000000 0.000000
0.587616 1.000000 0.000000
0.728302 1.000000 0.000000
0.862946 1.000000 0.000000
0.993927 0.972992 0.000000
1.000000 0.928284 0.000000
1.000000 0.873535 0.000000
1.000000 0.808502 0.000000
1.000000 0.733093 0.000000
1.000000 0.647217 0.000000
0.000000 0.960999 0.457306
0.000000 0.961029 0.457306
0.000000 0.961090 0.457306
0.000000 0.961243 0.457336
0.000000 0.961548 0.457367
0.000000 0.962006 0.457428
0.000000 0.962769 0.457550
0.000000 0.963928 0.457703
0.000000 0.965637 0.457916
0.000000 0.968018 0.458191
0.000000 0.971313 0.458496
0.000000 0.975739 0.458801
0.000000 0.981476 0.458984
0.000000 0.988708 0.458771
0.000000 0.997467 0.457733
0.000000 1.000000 0.455170
0.000000 1.000000 0.449890
0.000000 1.000000 0.440063
