proprietary/odm/etc/camera/filters_lut/ODT_2020_PQ10000nits-P3_srgb,roll-off_33_ver5.cube
#Created by: Adobe Photoshop Export Color Lookup Plugin
TITLE "11_未命名_1.65.1.jpg"
#LUT size
LUT_3D_SIZE 5
#data domain
#LUT data points
DOMAIN_MIN 0.000000 0.000000 0.000000
DOMAIN_MAX 0.903226 0.903226 0.903226
0.000000 0.000000 0.000000
0.145996 0.000000 0.011810
0.525879 0.000000 0.109406
0.909912 0.000000 0.218079
1.000000 0.000000 0.254974
0.000000 0.132812 0.039764
0.140747 0.136841 0.000000
0.572449 0.019623 0.010986
0.934540 0.000000 0.211609
1.000000 0.000000 0.258850
0.000000 0.487793 0.218689
0.000000 0.496063 0.186615
0.510803 0.499512 0.000000
1.000000 0.254486 0.001190
1.000000 0.000000 0.282715
0.000000 0.846649 0.399628
0.000000 0.850281 0.395721
0.000000 0.892944 0.296417
0.884857 0.866089 0.000000
1.000000 0.418518 0.000458
0.000000 0.968475 0.461060
0.000000 0.971344 0.461700
0.000000 1.000000 0.465912
0.000000 1.000000 0.340332
1.000000 0.990540 0.000000
0.000000 0.005432 0.091675
0.143799 0.000000 0.126770
0.526276 0.000000 0.163727
0.911316 0.000000 0.230652
1.000000 0.000000 0.257233
0.000000 0.132965 0.129120
0.136108 0.136108 0.136108
0.562378 0.055603 0.141541
0.935791 0.000336 0.225464
1.000000 0.000000 0.261169
0.000000 0.488068 0.246857
0.004333 0.496033 0.223602
0.510498 0.499786 0.106110
1.000000 0.255035 0.082703
1.000000 0.000000 0.285583
0.000000 0.847168 0.405487
0.000031 0.850800 0.401733
0.000061 0.893372 0.306885
0.885345 0.866608 0.014404
1.000000 0.419037 0.029053
0.000000 0.969086 0.462158
0.000000 0.971954 0.462830
0.000000 1.000000 0.467072
0.000000 1.000000 0.342316
1.000000 0.990997 0.000061
0.000000 0.063782 0.368896
0.080261 0.000000 0.475128
0.519592 0.000000 0.470367
0.924957 0.000000 0.364685
1.000000 0.000000 0.287354
0.000000 0.143188 0.413574
0.061279 0.127594 0.496490
0.547485 0.053314 0.496796
0.948303 0.000336 0.368103
1.000000 0.000000 0.291748
0.000000 0.488312 0.477203
0.002197 0.494568 0.483337
0.497375 0.497375 0.497375
1.000000 0.274261 0.381500
1.000000 0.005066 0.324005
0.000000 0.852600 0.480042
0.000031 0.856140 0.478058
0.070953 0.896240 0.431335
0.887482 0.870483 0.296509
1.000000 0.421448 0.193756
0.000000 0.976074 0.477142
0.000000 0.978912 0.477844
0.000214 1.000000 0.482819
0.001007 1.000000 0.369080
1.000000 0.996338 0.067047
0.000000 0.142334 0.649139
0.000000 0.137421 0.696808
0.345642 0.000000 0.978638
0.899445 0.000000 0.817719
1.000000 0.000000 0.454193
0.000000 0.174072 0.704559
0.000366 0.170074 0.747711
0.352386 0.017761 1.000000
0.918732 0.000336 0.835358
1.000000 0.000000 0.461365
0.000000 0.443451 0.955505
0.000244 0.444824 0.976501
0.336212 0.430939 1.000000
1.000000 0.259338 0.969971
1.000000 0.005371 0.529602
0.000000 0.847504 0.829041
0.000000 0.850616 0.832092
0.045258 0.885529 0.866394
0.862549 0.862549 0.862549
1.000000 0.441467 0.577454
0.000000 0.990692 0.571014
0.000000 0.993439 0.572113
0.000183 1.000000 0.582581
0.121796 1.000000 0.540100
1.000000 1.000000 0.370667
0.000000 0.169006 0.744263
0.000000 0.174316 0.771637
0.000000 0.200012 1.000000
0.563324 0.000000 1.000000
1.000000 0.000000 0.935608
0.000000 0.188141 0.803986
0.000000 0.192719 0.828979
0.000000 0.213837 1.000000
0.573334 0.000092 1.000000
1.000000 0.000000 0.950470
0.000000 0.357605 1.000000
0.000000 0.359406 1.000000
0.011902 0.363678 1.000000
0.659576 0.142761 1.000000
1.000000 0.004883 1.000000
0.000000 0.733734 1.000000
0.000000 0.735840 1.000000
0.004974 0.756836 1.000000
0.595673 0.728638 1.000000
1.000000 0.407990 1.000000
0.000000 0.969421 0.948456
0.000000 0.972046 0.951050
0.000092 1.000000 0.980408
0.084534 1.000000 1.000000
0.986511 0.986511 0.986511
